;code generated for light painting
;by grass hopper
G28
G90
G21
G1 X-6.23 Y-15.48 Z22.00 F3500 
M42 P11 S165 
M42 P12 S113 
M42 P13 S76 
G1 X-6.22 Y-15.50 Z22.00 F3500 
M42 P11 S165 
M42 P12 S113 
M42 P13 S76 
G1 X-5.47 Y-16.32 Z22.00 F3500 
M42 P11 S166 
M42 P12 S113 
M42 P13 S78 
G1 X-5.37 Y-16.40 Z22.00 F3500 
M42 P11 S166 
M42 P12 S113 
M42 P13 S79 
G1 X-5.07 Y-16.55 Z22.00 F3500 
M42 P11 S167 
M42 P12 S114 
M42 P13 S79 
G1 X-4.68 Y-16.95 Z22.00 F3500 
M42 P11 S168 
M42 P12 S114 
M42 P13 S80 
G1 X-3.91 Y-17.78 Z22.00 F3500 
M42 P11 S170 
M42 P12 S115 
M42 P13 S79 
G1 X-3.44 Y-18.10 Z22.00 F3500 
M42 P11 S169 
M42 P12 S113 
M42 P13 S77 
G1 X-3.34 Y-18.27 Z22.00 F3500 
M42 P11 S164 
M42 P12 S110 
M42 P13 S78 
G1 X-2.90 Y-18.63 Z22.00 F3500 
M42 P11 S163 
M42 P12 S110 
M42 P13 S78 
G1 X-0.64 Y-20.33 Z22.00 F3500 
M42 P11 S162 
M42 P12 S107 
M42 P13 S76 
G1 X1.01 Y-21.66 Z22.00 F3500 
M42 P11 S163 
M42 P12 S110 
M42 P13 S77 
G1 X2.81 Y-22.99 Z22.00 F3500 
M42 P11 S164 
M42 P12 S111 
M42 P13 S77 
G1 X3.24 Y-23.31 Z22.00 F3500 
M42 P11 S164 
M42 P12 S110 
M42 P13 S77 
G1 X4.09 Y-23.99 Z22.00 F3500 
M42 P11 S162 
M42 P12 S109 
M42 P13 S75 
G1 X5.05 Y-24.71 Z22.00 F3500 
M42 P11 S162 
M42 P12 S111 
M42 P13 S80 
G1 X5.72 Y-25.12 Z22.00 F3500 
M42 P11 S164 
M42 P12 S113 
M42 P13 S82 
G1 X8.05 Y-26.48 Z22.00 F3500 
M42 P11 S175 
M42 P12 S123 
M42 P13 S86 
G1 X8.30 Y-26.65 Z22.00 F3500 
M42 P11 S178 
M42 P12 S125 
M42 P13 S88 
G1 X10.35 Y-27.95 Z22.00 F3500 
M42 P11 S191 
M42 P12 S139 
M42 P13 S100 
G1 X10.51 Y-28.05 Z22.00 F3500 
M42 P11 S192 
M42 P12 S140 
M42 P13 S101 
G1 X10.52 Y-28.05 Z22.00 F3500 
M42 P11 S192 
M42 P12 S140 
M42 P13 S101 
G1 X12.31 Y-29.32 Z22.00 F3500 
M42 P11 S201 
M42 P12 S145 
M42 P13 S102 
G1 X12.72 Y-29.57 Z22.00 F3500 
M42 P11 S204 
M42 P12 S146 
M42 P13 S104 
G1 X13.02 Y-29.74 Z22.00 F3500 
M42 P11 S204 
M42 P12 S147 
M42 P13 S104 
G1 X14.80 Y-30.65 Z22.00 F3500 
M42 P11 S210 
M42 P12 S150 
M42 P13 S105 
G1 X15.57 Y-31.00 Z22.00 F3500 
M42 P11 S215 
M42 P12 S152 
M42 P13 S108 
G1 X16.92 Y-31.50 Z22.00 F3500 
M42 P11 S217 
M42 P12 S156 
M42 P13 S112 
G1 X17.21 Y-31.59 Z22.00 F3500 
M42 P11 S218 
M42 P12 S156 
M42 P13 S112 
G1 X17.82 Y-31.74 Z22.00 F3500 
M42 P11 S219 
M42 P12 S158 
M42 P13 S113 
G1 X18.01 Y-31.78 Z22.00 F3500 
M42 P11 S220 
M42 P12 S158 
M42 P13 S114 
G1 X18.30 Y-31.83 Z22.00 F3500 
M42 P11 S221 
M42 P12 S161 
M42 P13 S116 
G1 X18.82 Y-31.89 Z22.00 F3500 
M42 P11 S223 
M42 P12 S161 
M42 P13 S118 
G1 X19.49 Y-31.90 Z22.00 F3500 
M42 P11 S223 
M42 P12 S163 
M42 P13 S119 
G1 X21.04 Y-31.91 Z22.00 F3500 
M42 P11 S227 
M42 P12 S163 
M42 P13 S120 
G1 X21.96 Y-31.91 Z22.00 F3500 
M42 P11 S230 
M42 P12 S165 
M42 P13 S120 
G1 X22.12 Y-31.89 Z22.00 F3500 
M42 P11 S230 
M42 P12 S163 
M42 P13 S120 
G1 X22.44 Y-31.85 Z22.00 F3500 
M42 P11 S230 
M42 P12 S164 
M42 P13 S120 
G1 X23.54 Y-31.68 Z22.00 F3500 
M42 P11 S228 
M42 P12 S165 
M42 P13 S122 
G1 X23.58 Y-31.66 Z22.00 F3500 
M42 P11 S228 
M42 P12 S165 
M42 P13 S122 
G1 X24.30 Y-31.45 Z22.00 F3500 
M42 P11 S226 
M42 P12 S163 
M42 P13 S119 
G1 X24.31 Y-31.44 Z22.00 F3500 
M42 P11 S226 
M42 P12 S163 
M42 P13 S119 
G1 X25.42 Y-30.79 Z22.00 F3500 
M42 P11 S227 
M42 P12 S163 
M42 P13 S117 
G1 X25.97 Y-30.46 Z22.00 F3500 
M42 P11 S224 
M42 P12 S160 
M42 P13 S116 
G1 X26.22 Y-30.28 Z22.00 F3500 
M42 P11 S224 
M42 P12 S157 
M42 P13 S114 
G1 X26.48 Y-30.10 Z22.00 F3500 
M42 P11 S224 
M42 P12 S158 
M42 P13 S113 
G1 X27.32 Y-29.49 Z22.00 F3500 
M42 P11 S217 
M42 P12 S155 
M42 P13 S111 
G1 X27.41 Y-29.42 Z22.00 F3500 
M42 P11 S217 
M42 P12 S155 
M42 P13 S111 
G1 X27.47 Y-29.35 Z22.00 F3500 
M42 P11 S216 
M42 P12 S155 
M42 P13 S111 
G1 X27.73 Y-29.07 Z22.00 F3500 
M42 P11 S216 
M42 P12 S155 
M42 P13 S111 
G1 X28.27 Y-28.44 Z22.00 F3500 
M42 P11 S218 
M42 P12 S157 
M42 P13 S112 
G1 X28.48 Y-28.15 Z22.00 F3500 
M42 P11 S218 
M42 P12 S157 
M42 P13 S112 
G1 X28.91 Y-27.53 Z22.00 F3500 
M42 P11 S220 
M42 P12 S160 
M42 P13 S115 
G1 X29.13 Y-27.14 Z22.00 F3500 
M42 P11 S218 
M42 P12 S158 
M42 P13 S113 
G1 X29.21 Y-27.04 Z22.00 F3500 
M42 P11 S216 
M42 P12 S159 
M42 P13 S114 
G1 X29.42 Y-26.60 Z22.00 F3500 
M42 P11 S214 
M42 P12 S159 
M42 P13 S115 
G1 X29.48 Y-26.42 Z22.00 F3500 
M42 P11 S212 
M42 P12 S158 
M42 P13 S114 
G1 X29.64 Y-25.96 Z22.00 F3500 
M42 P11 S213 
M42 P12 S157 
M42 P13 S113 
G1 X29.91 Y-25.14 Z22.00 F3500 
M42 P11 S210 
M42 P12 S155 
M42 P13 S110 
G1 X29.98 Y-24.74 Z22.00 F3500 
M42 P11 S209 
M42 P12 S155 
M42 P13 S109 
G1 X30.34 Y-22.73 Z22.00 F3500 
M42 P11 S212 
M42 P12 S151 
M42 P13 S107 
G1 X30.33 Y-22.69 Z22.00 F3500 
M42 P11 S212 
M42 P12 S151 
M42 P13 S107 
G1 X30.32 Y-22.54 Z22.00 F3500 
M42 P11 S212 
M42 P12 S151 
M42 P13 S107 
G1 X30.21 Y-21.66 Z22.00 F3500 
M42 P11 S208 
M42 P12 S152 
M42 P13 S108 
G1 X30.16 Y-21.46 Z22.00 F3500 
M42 P11 S208 
M42 P12 S152 
M42 P13 S109 
G1 X29.85 Y-20.71 Z22.00 F3500 
M42 P11 S202 
M42 P12 S149 
M42 P13 S107 
G1 X29.41 Y-19.89 Z22.00 F3500 
M42 P11 S199 
M42 P12 S147 
M42 P13 S105 
G1 X28.70 Y-18.60 Z22.00 F3500 
M42 P11 S197 
M42 P12 S144 
M42 P13 S105 
G1 X27.56 Y-16.60 Z22.00 F3500 
M42 P11 S194 
M42 P12 S141 
M42 P13 S104 
G1 X27.21 Y-16.06 Z22.00 F3500 
M42 P11 S191 
M42 P12 S140 
M42 P13 S102 
G1 X26.46 Y-15.04 Z22.00 F3500 
M42 P11 S188 
M42 P12 S141 
M42 P13 S100 
G1 X25.82 Y-14.22 Z22.00 F3500 
M42 P11 S190 
M42 P12 S143 
M42 P13 S102 
G1 X25.07 Y-13.36 Z22.00 F3500 
M42 P11 S185 
M42 P12 S130 
M42 P13 S93 
G1 X24.91 Y-13.18 Z22.00 F3500 
M42 P11 S184 
M42 P12 S125 
M42 P13 S91 
G1 X24.84 Y-13.03 Z22.00 F3500 
M42 P11 S184 
M42 P12 S124 
M42 P13 S90 
G1 X24.51 Y-12.49 Z22.00 F3500 
M42 P11 S185 
M42 P12 S125 
M42 P13 S90 
G1 X24.10 Y-11.96 Z22.00 F3500 
M42 P11 S183 
M42 P12 S126 
M42 P13 S91 
G1 X23.48 Y-11.21 Z22.00 F3500 
M42 P11 S182 
M42 P12 S129 
M42 P13 S93 
G1 X22.79 Y-10.50 Z22.00 F3500 
M42 P11 S176 
M42 P12 S127 
M42 P13 S90 
G1 X22.55 Y-10.15 Z22.00 F3500 
M42 P11 S175 
M42 P12 S126 
M42 P13 S90 
G1 X22.19 Y-9.69 Z22.00 F3500 
M42 P11 S177 
M42 P12 S125 
M42 P13 S90 
G1 X21.32 Y-8.75 Z22.00 F3500 
M42 P11 S181 
M42 P12 S125 
M42 P13 S93 
G1 X21.13 Y-8.53 Z22.00 F3500 
M42 P11 S183 
M42 P12 S126 
M42 P13 S92 
G1 X20.71 Y-7.77 Z22.00 F3500 
M42 P11 S182 
M42 P12 S124 
M42 P13 S92 
G1 X20.38 Y-7.14 Z22.00 F3500 
M42 P11 S182 
M42 P12 S123 
M42 P13 S90 
G1 X18.99 Y-4.75 Z22.00 F3500 
M42 P11 S181 
M42 P12 S124 
M42 P13 S88 
G1 X18.47 Y-3.66 Z22.00 F3500 
M42 P11 S179 
M42 P12 S122 
M42 P13 S86 
G1 X17.71 Y-2.51 Z22.00 F3500 
M42 P11 S177 
M42 P12 S121 
M42 P13 S87 
G1 X17.34 Y-2.05 Z22.00 F3500 
M42 P11 S178 
M42 P12 S121 
M42 P13 S88 
G1 X17.25 Y-1.98 Z22.00 F3500 
M42 P11 S177 
M42 P12 S121 
M42 P13 S88 
G1 X16.35 Y-1.12 Z22.00 F3500 
M42 P11 S179 
M42 P12 S124 
M42 P13 S90 
G1 X16.07 Y-0.91 Z22.00 F3500 
M42 P11 S180 
M42 P12 S125 
M42 P13 S90 
G1 X15.34 Y-0.51 Z22.00 F3500 
M42 P11 S181 
M42 P12 S125 
M42 P13 S88 
G1 X15.26 Y-0.49 Z22.00 F3500 
M42 P11 S181 
M42 P12 S125 
M42 P13 S88 
G1 X14.27 Y-0.40 Z22.00 F3500 
M42 P11 S176 
M42 P12 S121 
M42 P13 S87 
G1 X13.92 Y-0.41 Z22.00 F3500 
M42 P11 S174 
M42 P12 S120 
M42 P13 S86 
G1 X13.65 Y-0.49 Z22.00 F3500 
M42 P11 S173 
M42 P12 S120 
M42 P13 S86 
G1 X11.93 Y-1.05 Z22.00 F3500 
M42 P11 S167 
M42 P12 S117 
M42 P13 S82 
G1 X9.20 Y-2.28 Z22.00 F3500 
M42 P11 S173 
M42 P12 S120 
M42 P13 S86 
G1 X9.17 Y-2.30 Z22.00 F3500 
M42 P11 S173 
M42 P12 S120 
M42 P13 S86 
G1 X9.11 Y-2.34 Z22.00 F3500 
M42 P11 S173 
M42 P12 S120 
M42 P13 S86 
G1 X6.71 Y-3.90 Z22.00 F3500 
M42 P11 S173 
M42 P12 S119 
M42 P13 S83 
G1 X3.56 Y-6.22 Z22.00 F3500 
M42 P11 S175 
M42 P12 S123 
M42 P13 S85 
G1 X2.16 Y-7.17 Z22.00 F3500 
M42 P11 S172 
M42 P12 S124 
M42 P13 S85 
G1 X0.56 Y-8.32 Z22.00 F3500 
M42 P11 S168 
M42 P12 S118 
M42 P13 S81 
G1 X-0.41 Y-9.05 Z22.00 F3500 
M42 P11 S165 
M42 P12 S115 
M42 P13 S79 
G1 X-1.62 Y-9.98 Z22.00 F3500 
M42 P11 S163 
M42 P12 S115 
M42 P13 S80 
G1 X-2.02 Y-10.29 Z22.00 F3500 
M42 P11 S163 
M42 P12 S112 
M42 P13 S78 
G1 X-2.61 Y-10.79 Z22.00 F3500 
M42 P11 S162 
M42 P12 S111 
M42 P13 S78 
G1 X-4.79 Y-12.90 Z22.00 F3500 
M42 P11 S128 
M42 P12 S89 
M42 P13 S60 
G1 X-5.12 Y-13.33 Z22.00 F3500 
M42 P11 S124 
M42 P12 S84 
M42 P13 S60 
G1 X-5.41 Y-13.86 Z22.00 F3500 
M42 P11 S162 
M42 P12 S107 
M42 P13 S76 
G1 X-5.90 Y-14.41 Z22.00 F3500 
M42 P11 S157 
M42 P12 S106 
M42 P13 S74 
G1 X-5.97 Y-14.58 Z22.00 F3500 
M42 P11 S156 
M42 P12 S107 
M42 P13 S74 
G1 X-6.22 Y-15.35 Z22.00 F3500 
M42 P11 S163 
M42 P12 S112 
M42 P13 S76 
G1 X-6.23 Y-15.48 Z22.00 F3500 
M42 P11 S165 
M42 P12 S113 
M42 P13 S76 
M42 P4 S0 
M42 P5 S0 
M42 P6 S0 
G1 X-13.58 Y-18.35 Z24.00 F3500 
M42 P11 S167 
M42 P12 S114 
M42 P13 S80 
G1 X-13.57 Y-18.35 Z24.00 F3500 
M42 P11 S167 
M42 P12 S114 
M42 P13 S80 
G1 X-13.01 Y-18.66 Z24.00 F3500 
M42 P11 S165 
M42 P12 S112 
M42 P13 S77 
G1 X-13.00 Y-18.67 Z24.00 F3500 
M42 P11 S165 
M42 P12 S111 
M42 P13 S77 
G1 X-12.95 Y-18.70 Z24.00 F3500 
M42 P11 S165 
M42 P12 S111 
M42 P13 S77 
G1 X-12.91 Y-18.72 Z24.00 F3500 
M42 P11 S165 
M42 P12 S111 
M42 P13 S77 
G1 X-12.62 Y-18.87 Z24.00 F3500 
M42 P11 S166 
M42 P12 S111 
M42 P13 S78 
G1 X-11.96 Y-19.19 Z24.00 F3500 
M42 P11 S169 
M42 P12 S113 
M42 P13 S80 
G1 X-11.76 Y-19.28 Z24.00 F3500 
M42 P11 S168 
M42 P12 S113 
M42 P13 S80 
G1 X-11.57 Y-19.36 Z24.00 F3500 
M42 P11 S168 
M42 P12 S113 
M42 P13 S80 
G1 X-10.76 Y-19.84 Z24.00 F3500 
M42 P11 S167 
M42 P12 S112 
M42 P13 S79 
G1 X-9.38 Y-20.67 Z24.00 F3500 
M42 P11 S167 
M42 P12 S114 
M42 P13 S80 
G1 X-7.92 Y-21.47 Z24.00 F3500 
M42 P11 S165 
M42 P12 S112 
M42 P13 S77 
G1 X-6.61 Y-22.18 Z24.00 F3500 
M42 P11 S165 
M42 P12 S111 
M42 P13 S76 
G1 X-6.36 Y-22.34 Z24.00 F3500 
M42 P11 S165 
M42 P12 S110 
M42 P13 S75 
G1 X-2.86 Y-24.54 Z24.00 F3500 
M42 P11 S169 
M42 P12 S116 
M42 P13 S80 
G1 X-2.23 Y-25.00 Z24.00 F3500 
M42 P11 S169 
M42 P12 S116 
M42 P13 S80 
G1 X0.62 Y-26.97 Z24.00 F3500 
M42 P11 S176 
M42 P12 S119 
M42 P13 S83 
G1 X1.36 Y-27.43 Z24.00 F3500 
M42 P11 S182 
M42 P12 S123 
M42 P13 S83 
G1 X2.89 Y-28.30 Z24.00 F3500 
M42 P11 S186 
M42 P12 S125 
M42 P13 S85 
G1 X3.57 Y-28.65 Z24.00 F3500 
M42 P11 S186 
M42 P12 S127 
M42 P13 S86 
G1 X4.80 Y-29.22 Z24.00 F3500 
M42 P11 S186 
M42 P12 S125 
M42 P13 S85 
G1 X6.01 Y-29.77 Z24.00 F3500 
M42 P11 S184 
M42 P12 S124 
M42 P13 S86 
G1 X6.07 Y-29.79 Z24.00 F3500 
M42 P11 S185 
M42 P12 S125 
M42 P13 S87 
G1 X7.02 Y-30.15 Z24.00 F3500 
M42 P11 S182 
M42 P12 S124 
M42 P13 S86 
G1 X7.61 Y-30.41 Z24.00 F3500 
M42 P11 S187 
M42 P12 S128 
M42 P13 S89 
G1 X9.22 Y-31.19 Z24.00 F3500 
M42 P11 S196 
M42 P12 S138 
M42 P13 S96 
G1 X10.09 Y-31.59 Z24.00 F3500 
M42 P11 S199 
M42 P12 S139 
M42 P13 S96 
G1 X11.37 Y-32.29 Z24.00 F3500 
M42 P11 S198 
M42 P12 S139 
M42 P13 S97 
G1 X12.05 Y-32.58 Z24.00 F3500 
M42 P11 S196 
M42 P12 S136 
M42 P13 S94 
G1 X13.83 Y-33.44 Z24.00 F3500 
M42 P11 S206 
M42 P12 S140 
M42 P13 S98 
G1 X14.30 Y-33.63 Z24.00 F3500 
M42 P11 S210 
M42 P12 S148 
M42 P13 S103 
G1 X15.66 Y-34.14 Z24.00 F3500 
M42 P11 S210 
M42 P12 S146 
M42 P13 S102 
G1 X15.93 Y-34.24 Z24.00 F3500 
M42 P11 S211 
M42 P12 S148 
M42 P13 S104 
G1 X15.97 Y-34.25 Z24.00 F3500 
M42 P11 S211 
M42 P12 S148 
M42 P13 S104 
G1 X16.30 Y-34.34 Z24.00 F3500 
M42 P11 S214 
M42 P12 S151 
M42 P13 S106 
G1 X16.90 Y-34.48 Z24.00 F3500 
M42 P11 S215 
M42 P12 S154 
M42 P13 S107 
G1 X17.69 Y-34.66 Z24.00 F3500 
M42 P11 S220 
M42 P12 S159 
M42 P13 S110 
G1 X17.94 Y-34.70 Z24.00 F3500 
M42 P11 S221 
M42 P12 S160 
M42 P13 S111 
G1 X18.12 Y-34.72 Z24.00 F3500 
M42 P11 S222 
M42 P12 S161 
M42 P13 S112 
G1 X19.04 Y-34.85 Z24.00 F3500 
M42 P11 S223 
M42 P12 S160 
M42 P13 S109 
G1 X19.40 Y-34.89 Z24.00 F3500 
M42 P11 S223 
M42 P12 S160 
M42 P13 S109 
G1 X19.48 Y-34.89 Z24.00 F3500 
M42 P11 S223 
M42 P12 S160 
M42 P13 S109 
G1 X19.60 Y-34.89 Z24.00 F3500 
M42 P11 S223 
M42 P12 S160 
M42 P13 S109 
G1 X20.61 Y-34.87 Z24.00 F3500 
M42 P11 S226 
M42 P12 S163 
M42 P13 S115 
G1 X22.27 Y-34.66 Z24.00 F3500 
M42 P11 S229 
M42 P12 S167 
M42 P13 S118 
G1 X22.35 Y-34.65 Z24.00 F3500 
M42 P11 S230 
M42 P12 S168 
M42 P13 S119 
G1 X23.33 Y-34.44 Z24.00 F3500 
M42 P11 S231 
M42 P12 S170 
M42 P13 S121 
G1 X23.84 Y-34.31 Z24.00 F3500 
M42 P11 S231 
M42 P12 S171 
M42 P13 S121 
G1 X24.31 Y-34.13 Z24.00 F3500 
M42 P11 S231 
M42 P12 S172 
M42 P13 S121 
G1 X25.14 Y-33.75 Z24.00 F3500 
M42 P11 S228 
M42 P12 S166 
M42 P13 S117 
G1 X25.19 Y-33.72 Z24.00 F3500 
M42 P11 S228 
M42 P12 S166 
M42 P13 S117 
G1 X25.21 Y-33.71 Z24.00 F3500 
M42 P11 S228 
M42 P12 S166 
M42 P13 S117 
G1 X25.71 Y-33.41 Z24.00 F3500 
M42 P11 S230 
M42 P12 S168 
M42 P13 S119 
G1 X26.11 Y-33.13 Z24.00 F3500 
M42 P11 S229 
M42 P12 S175 
M42 P13 S126 
G1 X26.32 Y-32.95 Z24.00 F3500 
M42 P11 S229 
M42 P12 S175 
M42 P13 S125 
G1 X26.65 Y-32.67 Z24.00 F3500 
M42 P11 S229 
M42 P12 S175 
M42 P13 S125 
G1 X28.97 Y-30.69 Z24.00 F3500 
M42 P11 S230 
M42 P12 S168 
M42 P13 S118 
G1 X29.52 Y-30.19 Z24.00 F3500 
M42 P11 S229 
M42 P12 S167 
M42 P13 S118 
G1 X30.13 Y-29.59 Z24.00 F3500 
M42 P11 S227 
M42 P12 S166 
M42 P13 S116 
G1 X30.44 Y-29.26 Z24.00 F3500 
M42 P11 S231 
M42 P12 S171 
M42 P13 S121 
G1 X31.10 Y-28.53 Z24.00 F3500 
M42 P11 S230 
M42 P12 S172 
M42 P13 S122 
G1 X31.46 Y-28.05 Z24.00 F3500 
M42 P11 S226 
M42 P12 S168 
M42 P13 S119 
G1 X31.99 Y-27.36 Z24.00 F3500 
M42 P11 S224 
M42 P12 S168 
M42 P13 S117 
G1 X32.04 Y-27.29 Z24.00 F3500 
M42 P11 S224 
M42 P12 S168 
M42 P13 S117 
G1 X32.10 Y-27.20 Z24.00 F3500 
M42 P11 S224 
M42 P12 S166 
M42 P13 S116 
G1 X32.24 Y-26.94 Z24.00 F3500 
M42 P11 S223 
M42 P12 S163 
M42 P13 S115 
G1 X32.42 Y-26.60 Z24.00 F3500 
M42 P11 S222 
M42 P12 S162 
M42 P13 S115 
G1 X32.72 Y-25.97 Z24.00 F3500 
M42 P11 S220 
M42 P12 S161 
M42 P13 S115 
G1 X32.85 Y-25.68 Z24.00 F3500 
M42 P11 S221 
M42 P12 S161 
M42 P13 S115 
G1 X33.01 Y-25.17 Z24.00 F3500 
M42 P11 S222 
M42 P12 S160 
M42 P13 S114 
G1 X33.16 Y-24.67 Z24.00 F3500 
M42 P11 S216 
M42 P12 S163 
M42 P13 S111 
G1 X33.22 Y-24.45 Z24.00 F3500 
M42 P11 S218 
M42 P12 S163 
M42 P13 S111 
G1 X33.27 Y-24.11 Z24.00 F3500 
M42 P11 S220 
M42 P12 S162 
M42 P13 S111 
G1 X33.40 Y-23.07 Z24.00 F3500 
M42 P11 S216 
M42 P12 S158 
M42 P13 S110 
G1 X33.43 Y-22.85 Z24.00 F3500 
M42 P11 S216 
M42 P12 S158 
M42 P13 S111 
G1 X33.43 Y-22.60 Z24.00 F3500 
M42 P11 S215 
M42 P12 S157 
M42 P13 S109 
G1 X33.43 Y-21.49 Z24.00 F3500 
M42 P11 S210 
M42 P12 S153 
M42 P13 S107 
G1 X33.37 Y-20.54 Z24.00 F3500 
M42 P11 S208 
M42 P12 S152 
M42 P13 S105 
G1 X33.11 Y-18.82 Z24.00 F3500 
M42 P11 S201 
M42 P12 S147 
M42 P13 S101 
G1 X33.08 Y-18.67 Z24.00 F3500 
M42 P11 S200 
M42 P12 S146 
M42 P13 S100 
G1 X33.02 Y-18.42 Z24.00 F3500 
M42 P11 S200 
M42 P12 S146 
M42 P13 S101 
G1 X32.73 Y-17.34 Z24.00 F3500 
M42 P11 S203 
M42 P12 S145 
M42 P13 S102 
G1 X32.18 Y-15.85 Z24.00 F3500 
M42 P11 S204 
M42 P12 S144 
M42 P13 S101 
G1 X32.06 Y-15.61 Z24.00 F3500 
M42 P11 S205 
M42 P12 S145 
M42 P13 S101 
G1 X31.98 Y-15.45 Z24.00 F3500 
M42 P11 S204 
M42 P12 S144 
M42 P13 S101 
G1 X31.50 Y-14.25 Z24.00 F3500 
M42 P11 S201 
M42 P12 S145 
M42 P13 S105 
G1 X30.76 Y-12.87 Z24.00 F3500 
M42 P11 S202 
M42 P12 S144 
M42 P13 S104 
G1 X30.39 Y-11.94 Z24.00 F3500 
M42 P11 S199 
M42 P12 S139 
M42 P13 S100 
G1 X29.77 Y-10.81 Z24.00 F3500 
M42 P11 S196 
M42 P12 S139 
M42 P13 S98 
G1 X29.51 Y-10.28 Z24.00 F3500 
M42 P11 S195 
M42 P12 S136 
M42 P13 S97 
G1 X29.17 Y-9.34 Z24.00 F3500 
M42 P11 S195 
M42 P12 S137 
M42 P13 S97 
G1 X28.74 Y-8.22 Z24.00 F3500 
M42 P11 S196 
M42 P12 S141 
M42 P13 S101 
G1 X28.50 Y-6.68 Z24.00 F3500 
M42 P11 S196 
M42 P12 S138 
M42 P13 S100 
G1 X28.21 Y-5.65 Z24.00 F3500 
M42 P11 S196 
M42 P12 S140 
M42 P13 S100 
G1 X27.83 Y-4.41 Z24.00 F3500 
M42 P11 S194 
M42 P12 S144 
M42 P13 S102 
G1 X27.24 Y-3.14 Z24.00 F3500 
M42 P11 S191 
M42 P12 S141 
M42 P13 S101 
G1 X26.91 Y-2.52 Z24.00 F3500 
M42 P11 S192 
M42 P12 S142 
M42 P13 S103 
G1 X26.35 Y-1.46 Z24.00 F3500 
M42 P11 S196 
M42 P12 S141 
M42 P13 S103 
G1 X25.74 Y-0.38 Z24.00 F3500 
M42 P11 S195 
M42 P12 S139 
M42 P13 S102 
G1 X24.16 Y2.02 Z24.00 F3500 
M42 P11 S200 
M42 P12 S143 
M42 P13 S100 
G1 X23.85 Y2.45 Z24.00 F3500 
M42 P11 S199 
M42 P12 S142 
M42 P13 S99 
G1 X23.13 Y3.28 Z24.00 F3500 
M42 P11 S187 
M42 P12 S136 
M42 P13 S93 
G1 X21.91 Y4.77 Z24.00 F3500 
M42 P11 S182 
M42 P12 S123 
M42 P13 S87 
G1 X20.92 Y5.96 Z24.00 F3500 
M42 P11 S186 
M42 P12 S130 
M42 P13 S92 
G1 X20.81 Y6.12 Z24.00 F3500 
M42 P11 S186 
M42 P12 S130 
M42 P13 S92 
G1 X20.30 Y6.57 Z24.00 F3500 
M42 P11 S186 
M42 P12 S131 
M42 P13 S92 
G1 X20.03 Y6.79 Z24.00 F3500 
M42 P11 S186 
M42 P12 S131 
M42 P13 S92 
G1 X18.03 Y8.38 Z24.00 F3500 
M42 P11 S185 
M42 P12 S127 
M42 P13 S89 
G1 X17.77 Y8.58 Z24.00 F3500 
M42 P11 S184 
M42 P12 S126 
M42 P13 S88 
G1 X17.33 Y8.85 Z24.00 F3500 
M42 P11 S184 
M42 P12 S125 
M42 P13 S88 
G1 X16.95 Y8.91 Z24.00 F3500 
M42 P11 S187 
M42 P12 S127 
M42 P13 S90 
G1 X15.96 Y8.93 Z24.00 F3500 
M42 P11 S184 
M42 P12 S128 
M42 P13 S93 
G1 X15.37 Y8.88 Z24.00 F3500 
M42 P11 S184 
M42 P12 S127 
M42 P13 S90 
G1 X15.22 Y8.87 Z24.00 F3500 
M42 P11 S182 
M42 P12 S126 
M42 P13 S89 
G1 X14.77 Y8.75 Z24.00 F3500 
M42 P11 S183 
M42 P12 S129 
M42 P13 S91 
G1 X14.73 Y8.73 Z24.00 F3500 
M42 P11 S183 
M42 P12 S129 
M42 P13 S91 
G1 X14.69 Y8.71 Z24.00 F3500 
M42 P11 S183 
M42 P12 S129 
M42 P13 S91 
G1 X14.27 Y8.47 Z24.00 F3500 
M42 P11 S180 
M42 P12 S126 
M42 P13 S89 
G1 X13.07 Y7.76 Z24.00 F3500 
M42 P11 S172 
M42 P12 S119 
M42 P13 S82 
G1 X12.73 Y7.56 Z24.00 F3500 
M42 P11 S172 
M42 P12 S118 
M42 P13 S82 
M42 P4 S0 
M42 P5 S0 
M42 P6 S0 
G1 X-16.80 Y-19.09 Z26.00 F3500 
M42 P11 S162 
M42 P12 S109 
M42 P13 S77 
G1 X-16.81 Y-19.24 Z26.00 F3500 
M42 P11 S164 
M42 P12 S112 
M42 P13 S77 
G1 X-16.78 Y-19.48 Z26.00 F3500 
M42 P11 S163 
M42 P12 S113 
M42 P13 S78 
G1 X-16.76 Y-19.59 Z26.00 F3500 
M42 P11 S164 
M42 P12 S113 
M42 P13 S78 
G1 X-16.69 Y-19.69 Z26.00 F3500 
M42 P11 S168 
M42 P12 S114 
M42 P13 S79 
G1 X-16.43 Y-20.03 Z26.00 F3500 
M42 P11 S165 
M42 P12 S111 
M42 P13 S78 
G1 X-16.13 Y-20.32 Z26.00 F3500 
M42 P11 S165 
M42 P12 S109 
M42 P13 S78 
G1 X-16.01 Y-20.43 Z26.00 F3500 
M42 P11 S165 
M42 P12 S109 
M42 P13 S78 
G1 X-15.66 Y-20.68 Z26.00 F3500 
M42 P11 S164 
M42 P12 S109 
M42 P13 S78 
G1 X-14.78 Y-21.43 Z26.00 F3500 
M42 P11 S166 
M42 P12 S114 
M42 P13 S80 
G1 X-13.04 Y-22.68 Z26.00 F3500 
M42 P11 S180 
M42 P12 S120 
M42 P13 S82 
G1 X-11.40 Y-23.72 Z26.00 F3500 
M42 P11 S163 
M42 P12 S110 
M42 P13 S78 
G1 X-10.96 Y-23.99 Z26.00 F3500 
M42 P11 S162 
M42 P12 S109 
M42 P13 S77 
G1 X-10.56 Y-24.23 Z26.00 F3500 
M42 P11 S168 
M42 P12 S113 
M42 P13 S80 
G1 X-10.00 Y-24.51 Z26.00 F3500 
M42 P11 S177 
M42 P12 S119 
M42 P13 S85 
G1 X-9.29 Y-24.94 Z26.00 F3500 
M42 P11 S179 
M42 P12 S120 
M42 P13 S84 
G1 X-7.62 Y-25.96 Z26.00 F3500 
M42 P11 S180 
M42 P12 S121 
M42 P13 S83 
G1 X-6.51 Y-26.61 Z26.00 F3500 
M42 P11 S177 
M42 P12 S119 
M42 P13 S82 
G1 X-4.77 Y-27.62 Z26.00 F3500 
M42 P11 S177 
M42 P12 S118 
M42 P13 S83 
G1 X-3.04 Y-28.74 Z26.00 F3500 
M42 P11 S179 
M42 P12 S118 
M42 P13 S82 
G1 X-2.24 Y-29.25 Z26.00 F3500 
M42 P11 S179 
M42 P12 S117 
M42 P13 S83 
G1 X-0.55 Y-30.26 Z26.00 F3500 
M42 P11 S180 
M42 P12 S121 
M42 P13 S88 
G1 X-0.05 Y-30.54 Z26.00 F3500 
M42 P11 S180 
M42 P12 S120 
M42 P13 S88 
G1 X1.68 Y-31.35 Z26.00 F3500 
M42 P11 S182 
M42 P12 S124 
M42 P13 S88 
G1 X2.09 Y-31.55 Z26.00 F3500 
M42 P11 S185 
M42 P12 S126 
M42 P13 S88 
G1 X2.62 Y-31.77 Z26.00 F3500 
M42 P11 S185 
M42 P12 S126 
M42 P13 S89 
G1 X3.79 Y-32.29 Z26.00 F3500 
M42 P11 S195 
M42 P12 S136 
M42 P13 S95 
G1 X4.87 Y-32.68 Z26.00 F3500 
M42 P11 S190 
M42 P12 S134 
M42 P13 S93 
G1 X6.11 Y-33.20 Z26.00 F3500 
M42 P11 S200 
M42 P12 S142 
M42 P13 S99 
G1 X7.22 Y-33.60 Z26.00 F3500 
M42 P11 S202 
M42 P12 S143 
M42 P13 S101 
G1 X8.57 Y-34.00 Z26.00 F3500 
M42 P11 S205 
M42 P12 S148 
M42 P13 S104 
G1 X9.44 Y-34.38 Z26.00 F3500 
M42 P11 S205 
M42 P12 S148 
M42 P13 S103 
G1 X10.26 Y-34.63 Z26.00 F3500 
M42 P11 S208 
M42 P12 S149 
M42 P13 S102 
G1 X11.43 Y-35.12 Z26.00 F3500 
M42 P11 S209 
M42 P12 S145 
M42 P13 S99 
G1 X11.89 Y-35.26 Z26.00 F3500 
M42 P11 S208 
M42 P12 S144 
M42 P13 S100 
G1 X12.78 Y-35.60 Z26.00 F3500 
M42 P11 S212 
M42 P12 S151 
M42 P13 S106 
G1 X13.40 Y-35.79 Z26.00 F3500 
M42 P11 S216 
M42 P12 S155 
M42 P13 S110 
G1 X13.49 Y-35.82 Z26.00 F3500 
M42 P11 S216 
M42 P12 S155 
M42 P13 S110 
G1 X14.04 Y-35.94 Z26.00 F3500 
M42 P11 S216 
M42 P12 S155 
M42 P13 S110 
G1 X15.18 Y-36.19 Z26.00 F3500 
M42 P11 S214 
M42 P12 S153 
M42 P13 S109 
G1 X16.21 Y-36.36 Z26.00 F3500 
M42 P11 S220 
M42 P12 S159 
M42 P13 S113 
G1 X16.32 Y-36.37 Z26.00 F3500 
M42 P11 S221 
M42 P12 S160 
M42 P13 S113 
G1 X16.39 Y-36.38 Z26.00 F3500 
M42 P11 S221 
M42 P12 S160 
M42 P13 S113 
G1 X17.06 Y-36.46 Z26.00 F3500 
M42 P11 S222 
M42 P12 S160 
M42 P13 S113 
G1 X17.11 Y-36.46 Z26.00 F3500 
M42 P11 S222 
M42 P12 S160 
M42 P13 S113 
G1 X17.27 Y-36.47 Z26.00 F3500 
M42 P11 S222 
M42 P12 S160 
M42 P13 S113 
G1 X19.42 Y-36.61 Z26.00 F3500 
M42 P11 S226 
M42 P12 S162 
M42 P13 S113 
G1 X19.68 Y-36.62 Z26.00 F3500 
M42 P11 S227 
M42 P12 S163 
M42 P13 S115 
G1 X20.11 Y-36.61 Z26.00 F3500 
M42 P11 S228 
M42 P12 S164 
M42 P13 S116 
G1 X20.40 Y-36.58 Z26.00 F3500 
M42 P11 S228 
M42 P12 S166 
M42 P13 S117 
G1 X20.91 Y-36.51 Z26.00 F3500 
M42 P11 S230 
M42 P12 S168 
M42 P13 S118 
G1 X21.04 Y-36.49 Z26.00 F3500 
M42 P11 S230 
M42 P12 S167 
M42 P13 S118 
G1 X21.78 Y-36.35 Z26.00 F3500 
M42 P11 S231 
M42 P12 S169 
M42 P13 S120 
G1 X22.60 Y-36.15 Z26.00 F3500 
M42 P11 S232 
M42 P12 S171 
M42 P13 S120 
G1 X23.18 Y-35.99 Z26.00 F3500 
M42 P11 S233 
M42 P12 S173 
M42 P13 S120 
G1 X23.56 Y-35.86 Z26.00 F3500 
M42 P11 S233 
M42 P12 S175 
M42 P13 S122 
G1 X23.91 Y-35.71 Z26.00 F3500 
M42 P11 S232 
M42 P12 S173 
M42 P13 S121 
G1 X24.92 Y-35.24 Z26.00 F3500 
M42 P11 S233 
M42 P12 S175 
M42 P13 S124 
G1 X25.92 Y-34.73 Z26.00 F3500 
M42 P11 S234 
M42 P12 S181 
M42 P13 S131 
G1 X26.10 Y-34.63 Z26.00 F3500 
M42 P11 S234 
M42 P12 S182 
M42 P13 S132 
G1 X26.72 Y-34.23 Z26.00 F3500 
M42 P11 S233 
M42 P12 S176 
M42 P13 S123 
G1 X26.80 Y-34.18 Z26.00 F3500 
M42 P11 S233 
M42 P12 S176 
M42 P13 S123 
G1 X27.37 Y-33.75 Z26.00 F3500 
M42 P11 S231 
M42 P12 S176 
M42 P13 S127 
G1 X27.98 Y-33.24 Z26.00 F3500 
M42 P11 S231 
M42 P12 S171 
M42 P13 S120 
G1 X28.96 Y-32.42 Z26.00 F3500 
M42 P11 S232 
M42 P12 S171 
M42 P13 S118 
G1 X29.70 Y-31.77 Z26.00 F3500 
M42 P11 S230 
M42 P12 S169 
M42 P13 S118 
G1 X30.48 Y-31.03 Z26.00 F3500 
M42 P11 S229 
M42 P12 S169 
M42 P13 S119 
G1 X31.12 Y-30.41 Z26.00 F3500 
M42 P11 S229 
M42 P12 S170 
M42 P13 S120 
G1 X31.80 Y-29.74 Z26.00 F3500 
M42 P11 S227 
M42 P12 S168 
M42 P13 S116 
G1 X32.42 Y-28.98 Z26.00 F3500 
M42 P11 S227 
M42 P12 S168 
M42 P13 S117 
G1 X32.87 Y-28.40 Z26.00 F3500 
M42 P11 S230 
M42 P12 S168 
M42 P13 S116 
G1 X33.33 Y-27.76 Z26.00 F3500 
M42 P11 S226 
M42 P12 S162 
M42 P13 S112 
G1 X33.57 Y-27.36 Z26.00 F3500 
M42 P11 S227 
M42 P12 S163 
M42 P13 S113 
G1 X33.68 Y-27.19 Z26.00 F3500 
M42 P11 S225 
M42 P12 S164 
M42 P13 S115 
G1 X33.80 Y-26.97 Z26.00 F3500 
M42 P11 S225 
M42 P12 S167 
M42 P13 S117 
G1 X33.85 Y-26.88 Z26.00 F3500 
M42 P11 S224 
M42 P12 S167 
M42 P13 S116 
G1 X33.89 Y-26.78 Z26.00 F3500 
M42 P11 S224 
M42 P12 S166 
M42 P13 S117 
G1 X34.14 Y-26.27 Z26.00 F3500 
M42 P11 S224 
M42 P12 S167 
M42 P13 S115 
G1 X34.41 Y-25.54 Z26.00 F3500 
M42 P11 S226 
M42 P12 S167 
M42 P13 S116 
G1 X34.63 Y-24.95 Z26.00 F3500 
M42 P11 S228 
M42 P12 S168 
M42 P13 S117 
G1 X34.79 Y-24.48 Z26.00 F3500 
M42 P11 S226 
M42 P12 S167 
M42 P13 S117 
G1 X34.96 Y-23.82 Z26.00 F3500 
M42 P11 S222 
M42 P12 S166 
M42 P13 S115 
G1 X35.07 Y-23.39 Z26.00 F3500 
M42 P11 S223 
M42 P12 S167 
M42 P13 S116 
G1 X35.15 Y-22.95 Z26.00 F3500 
M42 P11 S224 
M42 P12 S165 
M42 P13 S115 
G1 X35.21 Y-22.48 Z26.00 F3500 
M42 P11 S224 
M42 P12 S163 
M42 P13 S114 
G1 X35.24 Y-22.19 Z26.00 F3500 
M42 P11 S223 
M42 P12 S163 
M42 P13 S114 
G1 X35.34 Y-20.64 Z26.00 F3500 
M42 P11 S219 
M42 P12 S163 
M42 P13 S113 
G1 X35.38 Y-19.58 Z26.00 F3500 
M42 P11 S218 
M42 P12 S161 
M42 P13 S111 
G1 X35.38 Y-19.57 Z26.00 F3500 
M42 P11 S218 
M42 P12 S163 
M42 P13 S111 
G1 X35.34 Y-18.52 Z26.00 F3500 
M42 P11 S219 
M42 P12 S161 
M42 P13 S110 
G1 X35.05 Y-14.63 Z26.00 F3500 
M42 P11 S207 
M42 P12 S149 
M42 P13 S102 
G1 X34.96 Y-13.75 Z26.00 F3500 
M42 P11 S204 
M42 P12 S146 
M42 P13 S100 
G1 X34.94 Y-13.59 Z26.00 F3500 
M42 P11 S204 
M42 P12 S146 
M42 P13 S100 
G1 X34.84 Y-12.98 Z26.00 F3500 
M42 P11 S203 
M42 P12 S146 
M42 P13 S100 
G1 X33.97 Y-8.75 Z26.00 F3500 
M42 P11 S202 
M42 P12 S144 
M42 P13 S104 
G1 X33.96 Y-8.68 Z26.00 F3500 
M42 P11 S202 
M42 P12 S144 
M42 P13 S104 
G1 X33.94 Y-8.59 Z26.00 F3500 
M42 P11 S202 
M42 P12 S144 
M42 P13 S104 
G1 X33.78 Y-7.81 Z26.00 F3500 
M42 P11 S203 
M42 P12 S145 
M42 P13 S101 
G1 X33.25 Y-5.92 Z26.00 F3500 
M42 P11 S199 
M42 P12 S141 
M42 P13 S102 
G1 X32.85 Y-4.79 Z26.00 F3500 
M42 P11 S205 
M42 P12 S147 
M42 P13 S106 
G1 X32.74 Y-4.45 Z26.00 F3500 
M42 P11 S206 
M42 P12 S148 
M42 P13 S107 
G1 X32.47 Y-3.77 Z26.00 F3500 
M42 P11 S206 
M42 P12 S147 
M42 P13 S107 
G1 X30.79 Y0.33 Z26.00 F3500 
M42 P11 S201 
M42 P12 S148 
M42 P13 S103 
G1 X30.33 Y1.34 Z26.00 F3500 
M42 P11 S201 
M42 P12 S139 
M42 P13 S97 
G1 X30.05 Y1.87 Z26.00 F3500 
M42 P11 S199 
M42 P12 S136 
M42 P13 S96 
G1 X29.69 Y2.43 Z26.00 F3500 
M42 P11 S192 
M42 P12 S133 
M42 P13 S94 
G1 X29.43 Y2.82 Z26.00 F3500 
M42 P11 S189 
M42 P12 S132 
M42 P13 S93 
G1 X28.60 Y3.95 Z26.00 F3500 
M42 P11 S187 
M42 P12 S126 
M42 P13 S91 
G1 X28.23 Y4.40 Z26.00 F3500 
M42 P11 S186 
M42 P12 S124 
M42 P13 S90 
G1 X28.06 Y4.59 Z26.00 F3500 
M42 P11 S185 
M42 P12 S123 
M42 P13 S90 
G1 X27.62 Y5.11 Z26.00 F3500 
M42 P11 S181 
M42 P12 S120 
M42 P13 S86 
G1 X25.60 Y7.24 Z26.00 F3500 
M42 P11 S169 
M42 P12 S114 
M42 P13 S78 
G1 X23.60 Y9.72 Z26.00 F3500 
M42 P11 S178 
M42 P12 S117 
M42 P13 S83 
G1 X22.43 Y11.14 Z26.00 F3500 
M42 P11 S181 
M42 P12 S119 
M42 P13 S84 
G1 X20.97 Y12.68 Z26.00 F3500 
M42 P11 S180 
M42 P12 S122 
M42 P13 S86 
G1 X20.87 Y12.78 Z26.00 F3500 
M42 P11 S180 
M42 P12 S124 
M42 P13 S87 
G1 X20.75 Y12.89 Z26.00 F3500 
M42 P11 S180 
M42 P12 S124 
M42 P13 S86 
G1 X20.60 Y13.05 Z26.00 F3500 
M42 P11 S179 
M42 P12 S123 
M42 P13 S86 
G1 X19.23 Y14.56 Z26.00 F3500 
M42 P11 S186 
M42 P12 S129 
M42 P13 S91 
G1 X18.90 Y14.78 Z26.00 F3500 
M42 P11 S188 
M42 P12 S132 
M42 P13 S91 
G1 X18.41 Y15.09 Z26.00 F3500 
M42 P11 S186 
M42 P12 S130 
M42 P13 S92 
G1 X18.12 Y15.23 Z26.00 F3500 
M42 P11 S189 
M42 P12 S132 
M42 P13 S94 
G1 X18.00 Y15.32 Z26.00 F3500 
M42 P11 S187 
M42 P12 S130 
M42 P13 S92 
G1 X17.61 Y15.39 Z26.00 F3500 
M42 P11 S182 
M42 P12 S124 
M42 P13 S86 
G1 X17.56 Y15.38 Z26.00 F3500 
M42 P11 S182 
M42 P12 S124 
M42 P13 S87 
G1 X17.45 Y15.37 Z26.00 F3500 
M42 P11 S181 
M42 P12 S123 
M42 P13 S85 
G1 X17.09 Y15.28 Z26.00 F3500 
M42 P11 S180 
M42 P12 S121 
M42 P13 S86 
G1 X16.92 Y15.21 Z26.00 F3500 
M42 P11 S180 
M42 P12 S121 
M42 P13 S87 
G1 X16.83 Y15.16 Z26.00 F3500 
M42 P11 S181 
M42 P12 S122 
M42 P13 S87 
G1 X16.26 Y14.84 Z26.00 F3500 
M42 P11 S181 
M42 P12 S126 
M42 P13 S89 
G1 X15.94 Y14.67 Z26.00 F3500 
M42 P11 S177 
M42 P12 S122 
M42 P13 S89 
G1 X15.88 Y14.60 Z26.00 F3500 
M42 P11 S175 
M42 P12 S122 
M42 P13 S87 
G1 X15.65 Y14.43 Z26.00 F3500 
M42 P11 S173 
M42 P12 S119 
M42 P13 S87 
G1 X15.46 Y14.28 Z26.00 F3500 
M42 P11 S174 
M42 P12 S121 
M42 P13 S88 
M42 P4 S0 
M42 P5 S0 
M42 P6 S0 
G1 X-20.08 Y-19.67 Z28.00 F3500 
M42 P11 S171 
M42 P12 S118 
M42 P13 S81 
G1 X-20.12 Y-19.74 Z28.00 F3500 
M42 P11 S170 
M42 P12 S118 
M42 P13 S80 
G1 X-20.13 Y-19.80 Z28.00 F3500 
M42 P11 S171 
M42 P12 S119 
M42 P13 S82 
G1 X-20.15 Y-19.97 Z28.00 F3500 
M42 P11 S171 
M42 P12 S117 
M42 P13 S82 
G1 X-20.15 Y-19.98 Z28.00 F3500 
M42 P11 S171 
M42 P12 S118 
M42 P13 S82 
G1 X-20.12 Y-20.08 Z28.00 F3500 
M42 P11 S172 
M42 P12 S118 
M42 P13 S82 
G1 X-20.08 Y-20.17 Z28.00 F3500 
M42 P11 S174 
M42 P12 S117 
M42 P13 S82 
G1 X-20.07 Y-20.23 Z28.00 F3500 
M42 P11 S175 
M42 P12 S117 
M42 P13 S81 
G1 X-19.41 Y-21.10 Z28.00 F3500 
M42 P11 S174 
M42 P12 S115 
M42 P13 S83 
G1 X-19.20 Y-21.37 Z28.00 F3500 
M42 P11 S172 
M42 P12 S113 
M42 P13 S82 
G1 X-18.81 Y-21.87 Z28.00 F3500 
M42 P11 S174 
M42 P12 S116 
M42 P13 S83 
G1 X-18.48 Y-22.28 Z28.00 F3500 
M42 P11 S174 
M42 P12 S120 
M42 P13 S83 
G1 X-18.19 Y-22.54 Z28.00 F3500 
M42 P11 S173 
M42 P12 S119 
M42 P13 S82 
G1 X-17.44 Y-23.12 Z28.00 F3500 
M42 P11 S168 
M42 P12 S114 
M42 P13 S80 
G1 X-16.87 Y-23.53 Z28.00 F3500 
M42 P11 S165 
M42 P12 S112 
M42 P13 S80 
G1 X-16.79 Y-23.61 Z28.00 F3500 
M42 P11 S166 
M42 P12 S111 
M42 P13 S80 
G1 X-12.73 Y-26.16 Z28.00 F3500 
M42 P11 S168 
M42 P12 S111 
M42 P13 S81 
G1 X-12.39 Y-26.37 Z28.00 F3500 
M42 P11 S168 
M42 P12 S111 
M42 P13 S81 
G1 X-10.46 Y-27.65 Z28.00 F3500 
M42 P11 S172 
M42 P12 S117 
M42 P13 S84 
G1 X-8.09 Y-29.16 Z28.00 F3500 
M42 P11 S181 
M42 P12 S124 
M42 P13 S88 
G1 X-5.84 Y-30.80 Z28.00 F3500 
M42 P11 S183 
M42 P12 S126 
M42 P13 S91 
G1 X-5.25 Y-31.18 Z28.00 F3500 
M42 P11 S182 
M42 P12 S126 
M42 P13 S92 
G1 X-4.55 Y-31.64 Z28.00 F3500 
M42 P11 S182 
M42 P12 S124 
M42 P13 S92 
G1 X-3.11 Y-32.59 Z28.00 F3500 
M42 P11 S183 
M42 P12 S129 
M42 P13 S94 
G1 X-0.97 Y-33.95 Z28.00 F3500 
M42 P11 S189 
M42 P12 S136 
M42 P13 S102 
G1 X-0.82 Y-34.04 Z28.00 F3500 
M42 P11 S189 
M42 P12 S137 
M42 P13 S102 
G1 X-0.42 Y-34.23 Z28.00 F3500 
M42 P11 S192 
M42 P12 S138 
M42 P13 S101 
G1 X0.48 Y-34.63 Z28.00 F3500 
M42 P11 S197 
M42 P12 S142 
M42 P13 S99 
G1 X0.66 Y-34.71 Z28.00 F3500 
M42 P11 S197 
M42 P12 S143 
M42 P13 S99 
G1 X2.14 Y-35.28 Z28.00 F3500 
M42 P11 S200 
M42 P12 S145 
M42 P13 S104 
G1 X2.32 Y-35.34 Z28.00 F3500 
M42 P11 S200 
M42 P12 S144 
M42 P13 S104 
G1 X4.69 Y-36.01 Z28.00 F3500 
M42 P11 S206 
M42 P12 S147 
M42 P13 S105 
G1 X5.11 Y-36.14 Z28.00 F3500 
M42 P11 S208 
M42 P12 S148 
M42 P13 S106 
G1 X6.98 Y-36.53 Z28.00 F3500 
M42 P11 S212 
M42 P12 S151 
M42 P13 S107 
G1 X7.42 Y-36.64 Z28.00 F3500 
M42 P11 S213 
M42 P12 S152 
M42 P13 S108 
G1 X7.57 Y-36.67 Z28.00 F3500 
M42 P11 S213 
M42 P12 S152 
M42 P13 S107 
G1 X8.56 Y-36.84 Z28.00 F3500 
M42 P11 S214 
M42 P12 S154 
M42 P13 S106 
G1 X10.12 Y-37.16 Z28.00 F3500 
M42 P11 S212 
M42 P12 S155 
M42 P13 S108 
G1 X11.34 Y-37.34 Z28.00 F3500 
M42 P11 S206 
M42 P12 S149 
M42 P13 S105 
G1 X11.62 Y-37.38 Z28.00 F3500 
M42 P11 S205 
M42 P12 S148 
M42 P13 S104 
G1 X11.75 Y-37.39 Z28.00 F3500 
M42 P11 S205 
M42 P12 S148 
M42 P13 S104 
G1 X12.28 Y-37.44 Z28.00 F3500 
M42 P11 S208 
M42 P12 S149 
M42 P13 S105 
G1 X13.72 Y-37.59 Z28.00 F3500 
M42 P11 S217 
M42 P12 S156 
M42 P13 S109 
G1 X13.85 Y-37.61 Z28.00 F3500 
M42 P11 S217 
M42 P12 S156 
M42 P13 S109 
G1 X14.22 Y-37.64 Z28.00 F3500 
M42 P11 S218 
M42 P12 S156 
M42 P13 S110 
G1 X15.84 Y-37.74 Z28.00 F3500 
M42 P11 S226 
M42 P12 S163 
M42 P13 S115 
G1 X17.10 Y-37.76 Z28.00 F3500 
M42 P11 S227 
M42 P12 S163 
M42 P13 S116 
G1 X17.26 Y-37.76 Z28.00 F3500 
M42 P11 S228 
M42 P12 S164 
M42 P13 S116 
G1 X17.39 Y-37.76 Z28.00 F3500 
M42 P11 S228 
M42 P12 S164 
M42 P13 S116 
G1 X18.73 Y-37.73 Z28.00 F3500 
M42 P11 S226 
M42 P12 S162 
M42 P13 S116 
G1 X18.76 Y-37.73 Z28.00 F3500 
M42 P11 S226 
M42 P12 S162 
M42 P13 S116 
G1 X18.77 Y-37.73 Z28.00 F3500 
M42 P11 S226 
M42 P12 S162 
M42 P13 S116 
G1 X20.18 Y-37.55 Z28.00 F3500 
M42 P11 S233 
M42 P12 S167 
M42 P13 S119 
G1 X20.34 Y-37.53 Z28.00 F3500 
M42 P11 S233 
M42 P12 S167 
M42 P13 S119 
G1 X20.61 Y-37.48 Z28.00 F3500 
M42 P11 S233 
M42 P12 S168 
M42 P13 S119 
G1 X21.49 Y-37.28 Z28.00 F3500 
M42 P11 S232 
M42 P12 S170 
M42 P13 S119 
G1 X21.94 Y-37.17 Z28.00 F3500 
M42 P11 S233 
M42 P12 S170 
M42 P13 S119 
G1 X22.57 Y-37.01 Z28.00 F3500 
M42 P11 S233 
M42 P12 S172 
M42 P13 S120 
G1 X23.00 Y-36.87 Z28.00 F3500 
M42 P11 S233 
M42 P12 S172 
M42 P13 S118 
G1 X23.35 Y-36.74 Z28.00 F3500 
M42 P11 S234 
M42 P12 S174 
M42 P13 S120 
G1 X24.47 Y-36.29 Z28.00 F3500 
M42 P11 S238 
M42 P12 S181 
M42 P13 S127 
G1 X24.77 Y-36.14 Z28.00 F3500 
M42 P11 S237 
M42 P12 S182 
M42 P13 S129 
G1 X26.03 Y-35.49 Z28.00 F3500 
M42 P11 S238 
M42 P12 S184 
M42 P13 S130 
G1 X26.47 Y-35.22 Z28.00 F3500 
M42 P11 S238 
M42 P12 S183 
M42 P13 S129 
G1 X27.07 Y-34.82 Z28.00 F3500 
M42 P11 S237 
M42 P12 S179 
M42 P13 S126 
G1 X27.76 Y-34.36 Z28.00 F3500 
M42 P11 S238 
M42 P12 S178 
M42 P13 S127 
G1 X28.00 Y-34.19 Z28.00 F3500 
M42 P11 S238 
M42 P12 S179 
M42 P13 S128 
G1 X29.03 Y-33.37 Z28.00 F3500 
M42 P11 S235 
M42 P12 S176 
M42 P13 S123 
G1 X29.33 Y-33.12 Z28.00 F3500 
M42 P11 S236 
M42 P12 S175 
M42 P13 S122 
G1 X29.50 Y-32.97 Z28.00 F3500 
M42 P11 S235 
M42 P12 S175 
M42 P13 S122 
G1 X29.80 Y-32.71 Z28.00 F3500 
M42 P11 S234 
M42 P12 S177 
M42 P13 S123 
G1 X30.20 Y-32.33 Z28.00 F3500 
M42 P11 S235 
M42 P12 S178 
M42 P13 S126 
G1 X30.41 Y-32.12 Z28.00 F3500 
M42 P11 S234 
M42 P12 S180 
M42 P13 S126 
G1 X31.13 Y-31.37 Z28.00 F3500 
M42 P11 S235 
M42 P12 S177 
M42 P13 S125 
G1 X32.13 Y-30.34 Z28.00 F3500 
M42 P11 S237 
M42 P12 S177 
M42 P13 S125 
G1 X32.55 Y-29.87 Z28.00 F3500 
M42 P11 S235 
M42 P12 S174 
M42 P13 S123 
G1 X32.81 Y-29.55 Z28.00 F3500 
M42 P11 S234 
M42 P12 S172 
M42 P13 S122 
G1 X32.97 Y-29.34 Z28.00 F3500 
M42 P11 S234 
M42 P12 S172 
M42 P13 S121 
G1 X33.65 Y-28.44 Z28.00 F3500 
M42 P11 S232 
M42 P12 S173 
M42 P13 S122 
G1 X33.92 Y-28.03 Z28.00 F3500 
M42 P11 S232 
M42 P12 S174 
M42 P13 S120 
G1 X34.49 Y-27.13 Z28.00 F3500 
M42 P11 S236 
M42 P12 S180 
M42 P13 S125 
G1 X34.90 Y-26.38 Z28.00 F3500 
M42 P11 S239 
M42 P12 S181 
M42 P13 S124 
G1 X35.04 Y-26.11 Z28.00 F3500 
M42 P11 S239 
M42 P12 S180 
M42 P13 S124 
G1 X35.13 Y-25.93 Z28.00 F3500 
M42 P11 S239 
M42 P12 S180 
M42 P13 S124 
G1 X35.39 Y-25.32 Z28.00 F3500 
M42 P11 S237 
M42 P12 S179 
M42 P13 S123 
G1 X35.55 Y-24.96 Z28.00 F3500 
M42 P11 S233 
M42 P12 S177 
M42 P13 S121 
G1 X35.70 Y-24.51 Z28.00 F3500 
M42 P11 S233 
M42 P12 S177 
M42 P13 S122 
G1 X35.89 Y-23.89 Z28.00 F3500 
M42 P11 S231 
M42 P12 S172 
M42 P13 S119 
G1 X35.97 Y-23.55 Z28.00 F3500 
M42 P11 S229 
M42 P12 S168 
M42 P13 S117 
G1 X36.15 Y-22.96 Z28.00 F3500 
M42 P11 S229 
M42 P12 S171 
M42 P13 S118 
G1 X36.31 Y-22.19 Z28.00 F3500 
M42 P11 S228 
M42 P12 S168 
M42 P13 S115 
G1 X36.43 Y-21.67 Z28.00 F3500 
M42 P11 S228 
M42 P12 S168 
M42 P13 S114 
G1 X36.50 Y-21.26 Z28.00 F3500 
M42 P11 S227 
M42 P12 S167 
M42 P13 S114 
G1 X36.57 Y-20.77 Z28.00 F3500 
M42 P11 S226 
M42 P12 S166 
M42 P13 S114 
G1 X36.63 Y-20.31 Z28.00 F3500 
M42 P11 S227 
M42 P12 S166 
M42 P13 S114 
G1 X36.67 Y-20.05 Z28.00 F3500 
M42 P11 S226 
M42 P12 S165 
M42 P13 S114 
G1 X36.76 Y-18.92 Z28.00 F3500 
M42 P11 S226 
M42 P12 S165 
M42 P13 S114 
G1 X36.85 Y-17.72 Z28.00 F3500 
M42 P11 S225 
M42 P12 S163 
M42 P13 S115 
G1 X36.92 Y-16.38 Z28.00 F3500 
M42 P11 S221 
M42 P12 S165 
M42 P13 S114 
G1 X36.92 Y-16.16 Z28.00 F3500 
M42 P11 S221 
M42 P12 S164 
M42 P13 S113 
G1 X37.00 Y-14.68 Z28.00 F3500 
M42 P11 S219 
M42 P12 S160 
M42 P13 S112 
G1 X37.00 Y-14.41 Z28.00 F3500 
M42 P11 S219 
M42 P12 S161 
M42 P13 S113 
G1 X37.09 Y-12.50 Z28.00 F3500 
M42 P11 S216 
M42 P12 S160 
M42 P13 S110 
G1 X37.09 Y-12.39 Z28.00 F3500 
M42 P11 S216 
M42 P12 S159 
M42 P13 S111 
G1 X37.09 Y-11.92 Z28.00 F3500 
M42 P11 S217 
M42 P12 S160 
M42 P13 S111 
G1 X37.09 Y-10.54 Z28.00 F3500 
M42 P11 S210 
M42 P12 S156 
M42 P13 S108 
G1 X37.07 Y-9.35 Z28.00 F3500 
M42 P11 S206 
M42 P12 S151 
M42 P13 S105 
G1 X37.01 Y-8.69 Z28.00 F3500 
M42 P11 S206 
M42 P12 S151 
M42 P13 S105 
G1 X36.89 Y-7.72 Z28.00 F3500 
M42 P11 S207 
M42 P12 S147 
M42 P13 S103 
G1 X36.41 Y-4.68 Z28.00 F3500 
M42 P11 S206 
M42 P12 S143 
M42 P13 S100 
G1 X36.40 Y-4.62 Z28.00 F3500 
M42 P11 S206 
M42 P12 S143 
M42 P13 S100 
G1 X36.38 Y-4.54 Z28.00 F3500 
M42 P11 S206 
M42 P12 S143 
M42 P13 S100 
G1 X36.36 Y-4.48 Z28.00 F3500 
M42 P11 S206 
M42 P12 S143 
M42 P13 S100 
G1 X35.99 Y-3.16 Z28.00 F3500 
M42 P11 S206 
M42 P12 S145 
M42 P13 S103 
G1 X35.67 Y-2.19 Z28.00 F3500 
M42 P11 S208 
M42 P12 S148 
M42 P13 S104 
G1 X35.34 Y-1.14 Z28.00 F3500 
M42 P11 S206 
M42 P12 S151 
M42 P13 S105 
G1 X35.03 Y-0.38 Z28.00 F3500 
M42 P11 S207 
M42 P12 S153 
M42 P13 S106 
G1 X34.59 Y0.66 Z28.00 F3500 
M42 P11 S206 
M42 P12 S152 
M42 P13 S104 
G1 X34.28 Y1.38 Z28.00 F3500 
M42 P11 S206 
M42 P12 S149 
M42 P13 S102 
G1 X33.58 Y2.89 Z28.00 F3500 
M42 P11 S201 
M42 P12 S141 
M42 P13 S99 
G1 X32.92 Y4.13 Z28.00 F3500 
M42 P11 S198 
M42 P12 S142 
M42 P13 S99 
G1 X32.73 Y4.45 Z28.00 F3500 
M42 P11 S197 
M42 P12 S140 
M42 P13 S98 
G1 X32.49 Y4.76 Z28.00 F3500 
M42 P11 S195 
M42 P12 S138 
M42 P13 S96 
G1 X31.99 Y5.45 Z28.00 F3500 
M42 P11 S192 
M42 P12 S134 
M42 P13 S93 
G1 X31.60 Y5.92 Z28.00 F3500 
M42 P11 S187 
M42 P12 S129 
M42 P13 S92 
G1 X30.91 Y6.74 Z28.00 F3500 
M42 P11 S180 
M42 P12 S124 
M42 P13 S89 
G1 X30.45 Y7.27 Z28.00 F3500 
M42 P11 S180 
M42 P12 S118 
M42 P13 S86 
G1 X28.14 Y9.59 Z28.00 F3500 
M42 P11 S174 
M42 P12 S119 
M42 P13 S85 
G1 X27.67 Y10.06 Z28.00 F3500 
M42 P11 S172 
M42 P12 S119 
M42 P13 S85 
G1 X27.58 Y10.17 Z28.00 F3500 
M42 P11 S172 
M42 P12 S119 
M42 P13 S85 
G1 X26.70 Y11.18 Z28.00 F3500 
M42 P11 S175 
M42 P12 S120 
M42 P13 S85 
G1 X25.04 Y13.07 Z28.00 F3500 
M42 P11 S181 
M42 P12 S121 
M42 P13 S85 
G1 X24.81 Y13.33 Z28.00 F3500 
M42 P11 S181 
M42 P12 S122 
M42 P13 S86 
G1 X24.35 Y13.83 Z28.00 F3500 
M42 P11 S182 
M42 P12 S123 
M42 P13 S86 
G1 X22.64 Y15.65 Z28.00 F3500 
M42 P11 S186 
M42 P12 S131 
M42 P13 S92 
G1 X22.01 Y16.38 Z28.00 F3500 
M42 P11 S185 
M42 P12 S130 
M42 P13 S91 
G1 X21.39 Y17.03 Z28.00 F3500 
M42 P11 S185 
M42 P12 S130 
M42 P13 S91 
G1 X20.86 Y17.59 Z28.00 F3500 
M42 P11 S184 
M42 P12 S129 
M42 P13 S91 
G1 X19.96 Y18.48 Z28.00 F3500 
M42 P11 S186 
M42 P12 S129 
M42 P13 S91 
G1 X19.68 Y18.76 Z28.00 F3500 
M42 P11 S187 
M42 P12 S129 
M42 P13 S90 
G1 X19.52 Y18.90 Z28.00 F3500 
M42 P11 S188 
M42 P12 S129 
M42 P13 S91 
G1 X19.13 Y19.18 Z28.00 F3500 
M42 P11 S192 
M42 P12 S133 
M42 P13 S92 
G1 X18.95 Y19.32 Z28.00 F3500 
M42 P11 S192 
M42 P12 S133 
M42 P13 S91 
G1 X18.38 Y19.65 Z28.00 F3500 
M42 P11 S182 
M42 P12 S126 
M42 P13 S86 
G1 X17.55 Y19.89 Z28.00 F3500 
M42 P11 S163 
M42 P12 S114 
M42 P13 S79 
G1 X17.37 Y19.92 Z28.00 F3500 
M42 P11 S156 
M42 P12 S107 
M42 P13 S75 
G1 X17.22 Y19.90 Z28.00 F3500 
M42 P11 S155 
M42 P12 S107 
M42 P13 S77 
G1 X17.05 Y19.81 Z28.00 F3500 
M42 P11 S150 
M42 P12 S104 
M42 P13 S71 
M42 P4 S0 
M42 P5 S0 
M42 P6 S0 
G1 X-23.30 Y-20.33 Z30.00 F3500 
M42 P11 S181 
M42 P12 S124 
M42 P13 S83 
G1 X-23.29 Y-20.35 Z30.00 F3500 
M42 P11 S179 
M42 P12 S122 
M42 P13 S82 
G1 X-23.02 Y-20.94 Z30.00 F3500 
M42 P11 S179 
M42 P12 S120 
M42 P13 S83 
G1 X-22.82 Y-21.20 Z30.00 F3500 
M42 P11 S180 
M42 P12 S122 
M42 P13 S84 
G1 X-22.49 Y-21.49 Z30.00 F3500 
M42 P11 S182 
M42 P12 S124 
M42 P13 S86 
G1 X-21.37 Y-22.60 Z30.00 F3500 
M42 P11 S181 
M42 P12 S121 
M42 P13 S85 
G1 X-20.30 Y-23.59 Z30.00 F3500 
M42 P11 S185 
M42 P12 S125 
M42 P13 S88 
G1 X-19.12 Y-24.60 Z30.00 F3500 
M42 P11 S180 
M42 P12 S120 
M42 P13 S83 
G1 X-18.96 Y-24.73 Z30.00 F3500 
M42 P11 S179 
M42 P12 S120 
M42 P13 S83 
G1 X-17.05 Y-26.07 Z30.00 F3500 
M42 P11 S179 
M42 P12 S122 
M42 P13 S86 
G1 X-15.51 Y-27.10 Z30.00 F3500 
M42 P11 S181 
M42 P12 S121 
M42 P13 S86 
G1 X-15.41 Y-27.18 Z30.00 F3500 
M42 P11 S180 
M42 P12 S120 
M42 P13 S86 
G1 X-15.21 Y-27.33 Z30.00 F3500 
M42 P11 S180 
M42 P12 S120 
M42 P13 S86 
G1 X-13.56 Y-28.48 Z30.00 F3500 
M42 P11 S171 
M42 P12 S115 
M42 P13 S80 
G1 X-11.53 Y-29.99 Z30.00 F3500 
M42 P11 S180 
M42 P12 S126 
M42 P13 S88 
G1 X-10.52 Y-30.70 Z30.00 F3500 
M42 P11 S184 
M42 P12 S130 
M42 P13 S91 
G1 X-10.29 Y-30.88 Z30.00 F3500 
M42 P11 S185 
M42 P12 S131 
M42 P13 S92 
G1 X-7.25 Y-33.24 Z30.00 F3500 
M42 P11 S192 
M42 P12 S136 
M42 P13 S99 
G1 X-6.93 Y-33.47 Z30.00 F3500 
M42 P11 S192 
M42 P12 S137 
M42 P13 S100 
G1 X-4.73 Y-35.03 Z30.00 F3500 
M42 P11 S190 
M42 P12 S138 
M42 P13 S99 
G1 X-4.41 Y-35.25 Z30.00 F3500 
M42 P11 S190 
M42 P12 S138 
M42 P13 S99 
G1 X-4.39 Y-35.26 Z30.00 F3500 
M42 P11 S190 
M42 P12 S138 
M42 P13 S99 
G1 X-3.86 Y-35.55 Z30.00 F3500 
M42 P11 S195 
M42 P12 S137 
M42 P13 S98 
G1 X-2.28 Y-36.44 Z30.00 F3500 
M42 P11 S202 
M42 P12 S145 
M42 P13 S104 
G1 X-2.07 Y-36.55 Z30.00 F3500 
M42 P11 S203 
M42 P12 S145 
M42 P13 S105 
G1 X-1.88 Y-36.63 Z30.00 F3500 
M42 P11 S204 
M42 P12 S145 
M42 P13 S105 
G1 X-1.38 Y-36.82 Z30.00 F3500 
M42 P11 S205 
M42 P12 S146 
M42 P13 S105 
G1 X-0.33 Y-37.22 Z30.00 F3500 
M42 P11 S206 
M42 P12 S149 
M42 P13 S105 
G1 X-0.01 Y-37.32 Z30.00 F3500 
M42 P11 S206 
M42 P12 S148 
M42 P13 S106 
G1 X0.77 Y-37.53 Z30.00 F3500 
M42 P11 S208 
M42 P12 S151 
M42 P13 S107 
G1 X1.42 Y-37.73 Z30.00 F3500 
M42 P11 S209 
M42 P12 S151 
M42 P13 S107 
G1 X2.06 Y-37.91 Z30.00 F3500 
M42 P11 S210 
M42 P12 S152 
M42 P13 S108 
G1 X2.67 Y-38.06 Z30.00 F3500 
M42 P11 S210 
M42 P12 S153 
M42 P13 S107 
G1 X3.27 Y-38.21 Z30.00 F3500 
M42 P11 S212 
M42 P12 S152 
M42 P13 S105 
G1 X3.90 Y-38.32 Z30.00 F3500 
M42 P11 S213 
M42 P12 S155 
M42 P13 S106 
G1 X5.71 Y-38.56 Z30.00 F3500 
M42 P11 S213 
M42 P12 S159 
M42 P13 S111 
G1 X6.39 Y-38.61 Z30.00 F3500 
M42 P11 S213 
M42 P12 S159 
M42 P13 S112 
G1 X7.84 Y-38.71 Z30.00 F3500 
M42 P11 S215 
M42 P12 S159 
M42 P13 S110 
G1 X8.95 Y-38.78 Z30.00 F3500 
M42 P11 S218 
M42 P12 S157 
M42 P13 S111 
G1 X10.03 Y-38.76 Z30.00 F3500 
M42 P11 S220 
M42 P12 S158 
M42 P13 S110 
G1 X10.95 Y-38.75 Z30.00 F3500 
M42 P11 S221 
M42 P12 S162 
M42 P13 S111 
G1 X11.41 Y-38.76 Z30.00 F3500 
M42 P11 S221 
M42 P12 S163 
M42 P13 S111 
G1 X11.71 Y-38.78 Z30.00 F3500 
M42 P11 S223 
M42 P12 S165 
M42 P13 S112 
G1 X13.60 Y-38.74 Z30.00 F3500 
M42 P11 S227 
M42 P12 S167 
M42 P13 S114 
G1 X15.16 Y-38.66 Z30.00 F3500 
M42 P11 S228 
M42 P12 S171 
M42 P13 S117 
G1 X15.40 Y-38.66 Z30.00 F3500 
M42 P11 S228 
M42 P12 S171 
M42 P13 S117 
G1 X15.65 Y-38.65 Z30.00 F3500 
M42 P11 S228 
M42 P12 S171 
M42 P13 S117 
G1 X16.38 Y-38.63 Z30.00 F3500 
M42 P11 S229 
M42 P12 S170 
M42 P13 S118 
G1 X17.18 Y-38.58 Z30.00 F3500 
M42 P11 S231 
M42 P12 S169 
M42 P13 S120 
G1 X17.74 Y-38.52 Z30.00 F3500 
M42 P11 S230 
M42 P12 S168 
M42 P13 S118 
G1 X19.52 Y-38.26 Z30.00 F3500 
M42 P11 S231 
M42 P12 S171 
M42 P13 S118 
G1 X19.83 Y-38.20 Z30.00 F3500 
M42 P11 S230 
M42 P12 S169 
M42 P13 S118 
G1 X20.88 Y-37.96 Z30.00 F3500 
M42 P11 S231 
M42 P12 S165 
M42 P13 S116 
G1 X21.26 Y-37.87 Z30.00 F3500 
M42 P11 S233 
M42 P12 S169 
M42 P13 S117 
G1 X21.79 Y-37.69 Z30.00 F3500 
M42 P11 S233 
M42 P12 S169 
M42 P13 S118 
G1 X23.08 Y-37.26 Z30.00 F3500 
M42 P11 S236 
M42 P12 S175 
M42 P13 S125 
G1 X23.89 Y-36.92 Z30.00 F3500 
M42 P11 S235 
M42 P12 S174 
M42 P13 S124 
G1 X24.37 Y-36.71 Z30.00 F3500 
M42 P11 S235 
M42 P12 S174 
M42 P13 S124 
G1 X24.51 Y-36.64 Z30.00 F3500 
M42 P11 S236 
M42 P12 S175 
M42 P13 S125 
G1 X25.79 Y-35.99 Z30.00 F3500 
M42 P11 S233 
M42 P12 S173 
M42 P13 S123 
G1 X26.20 Y-35.75 Z30.00 F3500 
M42 P11 S237 
M42 P12 S177 
M42 P13 S126 
G1 X26.51 Y-35.55 Z30.00 F3500 
M42 P11 S243 
M42 P12 S183 
M42 P13 S129 
G1 X26.85 Y-35.32 Z30.00 F3500 
M42 P11 S243 
M42 P12 S183 
M42 P13 S130 
G1 X27.11 Y-35.18 Z30.00 F3500 
M42 P11 S241 
M42 P12 S183 
M42 P13 S130 
G1 X27.48 Y-34.91 Z30.00 F3500 
M42 P11 S239 
M42 P12 S181 
M42 P13 S128 
G1 X28.33 Y-34.25 Z30.00 F3500 
M42 P11 S239 
M42 P12 S178 
M42 P13 S127 
G1 X28.58 Y-34.06 Z30.00 F3500 
M42 P11 S239 
M42 P12 S177 
M42 P13 S126 
G1 X29.06 Y-33.66 Z30.00 F3500 
M42 P11 S241 
M42 P12 S180 
M42 P13 S129 
G1 X29.86 Y-32.97 Z30.00 F3500 
M42 P11 S237 
M42 P12 S177 
M42 P13 S127 
G1 X29.96 Y-32.87 Z30.00 F3500 
M42 P11 S237 
M42 P12 S177 
M42 P13 S127 
G1 X30.05 Y-32.79 Z30.00 F3500 
M42 P11 S237 
M42 P12 S177 
M42 P13 S127 
G1 X30.95 Y-31.88 Z30.00 F3500 
M42 P11 S242 
M42 P12 S179 
M42 P13 S128 
G1 X31.29 Y-31.51 Z30.00 F3500 
M42 P11 S242 
M42 P12 S179 
M42 P13 S128 
G1 X32.53 Y-30.22 Z30.00 F3500 
M42 P11 S244 
M42 P12 S184 
M42 P13 S132 
G1 X33.16 Y-29.52 Z30.00 F3500 
M42 P11 S240 
M42 P12 S185 
M42 P13 S129 
G1 X33.20 Y-29.47 Z30.00 F3500 
M42 P11 S240 
M42 P12 S185 
M42 P13 S129 
G1 X33.20 Y-29.47 Z30.00 F3500 
M42 P11 S240 
M42 P12 S185 
M42 P13 S129 
G1 X33.98 Y-28.47 Z30.00 F3500 
M42 P11 S242 
M42 P12 S182 
M42 P13 S130 
G1 X33.99 Y-28.45 Z30.00 F3500 
M42 P11 S242 
M42 P12 S182 
M42 P13 S130 
G1 X34.61 Y-27.51 Z30.00 F3500 
M42 P11 S243 
M42 P12 S192 
M42 P13 S135 
G1 X34.68 Y-27.42 Z30.00 F3500 
M42 P11 S243 
M42 P12 S192 
M42 P13 S135 
G1 X35.31 Y-26.37 Z30.00 F3500 
M42 P11 S242 
M42 P12 S189 
M42 P13 S130 
G1 X35.42 Y-26.18 Z30.00 F3500 
M42 P11 S242 
M42 P12 S189 
M42 P13 S130 
G1 X35.83 Y-25.37 Z30.00 F3500 
M42 P11 S241 
M42 P12 S184 
M42 P13 S129 
G1 X35.86 Y-25.32 Z30.00 F3500 
M42 P11 S240 
M42 P12 S183 
M42 P13 S128 
G1 X35.87 Y-25.30 Z30.00 F3500 
M42 P11 S240 
M42 P12 S183 
M42 P13 S128 
G1 X35.91 Y-25.21 Z30.00 F3500 
M42 P11 S240 
M42 P12 S183 
M42 P13 S128 
G1 X36.09 Y-24.79 Z30.00 F3500 
M42 P11 S238 
M42 P12 S180 
M42 P13 S125 
G1 X36.48 Y-23.82 Z30.00 F3500 
M42 P11 S234 
M42 P12 S175 
M42 P13 S119 
G1 X36.60 Y-23.49 Z30.00 F3500 
M42 P11 S232 
M42 P12 S172 
M42 P13 S118 
G1 X36.92 Y-22.47 Z30.00 F3500 
M42 P11 S232 
M42 P12 S171 
M42 P13 S119 
G1 X37.10 Y-21.81 Z30.00 F3500 
M42 P11 S232 
M42 P12 S170 
M42 P13 S117 
G1 X37.18 Y-21.44 Z30.00 F3500 
M42 P11 S232 
M42 P12 S171 
M42 P13 S117 
G1 X37.46 Y-20.27 Z30.00 F3500 
M42 P11 S230 
M42 P12 S170 
M42 P13 S118 
G1 X37.52 Y-19.98 Z30.00 F3500 
M42 P11 S230 
M42 P12 S170 
M42 P13 S118 
G1 X37.89 Y-17.95 Z30.00 F3500 
M42 P11 S228 
M42 P12 S167 
M42 P13 S114 
G1 X37.95 Y-17.44 Z30.00 F3500 
M42 P11 S229 
M42 P12 S167 
M42 P13 S114 
G1 X38.11 Y-16.27 Z30.00 F3500 
M42 P11 S225 
M42 P12 S163 
M42 P13 S112 
G1 X38.13 Y-16.17 Z30.00 F3500 
M42 P11 S226 
M42 P12 S163 
M42 P13 S112 
G1 X38.21 Y-15.52 Z30.00 F3500 
M42 P11 S230 
M42 P12 S167 
M42 P13 S117 
G1 X38.23 Y-15.34 Z30.00 F3500 
M42 P11 S229 
M42 P12 S168 
M42 P13 S116 
G1 X38.53 Y-13.74 Z30.00 F3500 
M42 P11 S227 
M42 P12 S170 
M42 P13 S117 
G1 X38.56 Y-13.53 Z30.00 F3500 
M42 P11 S226 
M42 P12 S171 
M42 P13 S117 
G1 X38.59 Y-13.40 Z30.00 F3500 
M42 P11 S226 
M42 P12 S171 
M42 P13 S117 
G1 X38.62 Y-13.30 Z30.00 F3500 
M42 P11 S226 
M42 P12 S171 
M42 P13 S117 
G1 X38.63 Y-13.26 Z30.00 F3500 
M42 P11 S226 
M42 P12 S171 
M42 P13 S117 
G1 X38.72 Y-12.85 Z30.00 F3500 
M42 P11 S223 
M42 P12 S164 
M42 P13 S114 
G1 X38.92 Y-11.27 Z30.00 F3500 
M42 P11 S224 
M42 P12 S166 
M42 P13 S113 
G1 X39.00 Y-10.85 Z30.00 F3500 
M42 P11 S222 
M42 P12 S165 
M42 P13 S113 
G1 X39.10 Y-9.89 Z30.00 F3500 
M42 P11 S224 
M42 P12 S165 
M42 P13 S112 
G1 X39.14 Y-9.59 Z30.00 F3500 
M42 P11 S224 
M42 P12 S164 
M42 P13 S112 
G1 X39.14 Y-9.46 Z30.00 F3500 
M42 P11 S224 
M42 P12 S164 
M42 P13 S112 
G1 X39.15 Y-8.79 Z30.00 F3500 
M42 P11 S221 
M42 P12 S161 
M42 P13 S113 
G1 X39.16 Y-6.87 Z30.00 F3500 
M42 P11 S223 
M42 P12 S162 
M42 P13 S113 
G1 X39.17 Y-6.64 Z30.00 F3500 
M42 P11 S223 
M42 P12 S161 
M42 P13 S111 
G1 X39.10 Y-5.93 Z30.00 F3500 
M42 P11 S225 
M42 P12 S163 
M42 P13 S113 
G1 X38.93 Y-4.67 Z30.00 F3500 
M42 P11 S217 
M42 P12 S160 
M42 P13 S111 
G1 X38.88 Y-4.35 Z30.00 F3500 
M42 P11 S215 
M42 P12 S159 
M42 P13 S110 
G1 X38.59 Y-2.94 Z30.00 F3500 
M42 P11 S213 
M42 P12 S153 
M42 P13 S103 
G1 X38.53 Y-2.67 Z30.00 F3500 
M42 P11 S212 
M42 P12 S152 
M42 P13 S103 
G1 X38.24 Y-1.57 Z30.00 F3500 
M42 P11 S211 
M42 P12 S153 
M42 P13 S105 
G1 X38.20 Y-1.45 Z30.00 F3500 
M42 P11 S212 
M42 P12 S152 
M42 P13 S103 
G1 X37.87 Y-0.35 Z30.00 F3500 
M42 P11 S215 
M42 P12 S155 
M42 P13 S107 
G1 X37.69 Y0.14 Z30.00 F3500 
M42 P11 S209 
M42 P12 S153 
M42 P13 S107 
G1 X36.94 Y2.14 Z30.00 F3500 
M42 P11 S209 
M42 P12 S149 
M42 P13 S104 
G1 X36.82 Y2.43 Z30.00 F3500 
M42 P11 S211 
M42 P12 S149 
M42 P13 S104 
G1 X36.60 Y2.92 Z30.00 F3500 
M42 P11 S209 
M42 P12 S148 
M42 P13 S103 
G1 X36.23 Y3.73 Z30.00 F3500 
M42 P11 S206 
M42 P12 S147 
M42 P13 S103 
G1 X35.75 Y4.64 Z30.00 F3500 
M42 P11 S206 
M42 P12 S145 
M42 P13 S101 
G1 X35.38 Y5.32 Z30.00 F3500 
M42 P11 S205 
M42 P12 S143 
M42 P13 S99 
G1 X34.90 Y6.09 Z30.00 F3500 
M42 P11 S203 
M42 P12 S143 
M42 P13 S98 
G1 X34.41 Y6.86 Z30.00 F3500 
M42 P11 S197 
M42 P12 S139 
M42 P13 S94 
G1 X34.24 Y7.09 Z30.00 F3500 
M42 P11 S196 
M42 P12 S139 
M42 P13 S94 
G1 X33.63 Y7.91 Z30.00 F3500 
M42 P11 S195 
M42 P12 S137 
M42 P13 S94 
G1 X33.22 Y8.44 Z30.00 F3500 
M42 P11 S195 
M42 P12 S136 
M42 P13 S94 
G1 X33.09 Y8.60 Z30.00 F3500 
M42 P11 S194 
M42 P12 S135 
M42 P13 S94 
G1 X32.50 Y9.23 Z30.00 F3500 
M42 P11 S194 
M42 P12 S134 
M42 P13 S92 
G1 X32.03 Y9.75 Z30.00 F3500 
M42 P11 S191 
M42 P12 S132 
M42 P13 S94 
G1 X31.95 Y9.83 Z30.00 F3500 
M42 P11 S190 
M42 P12 S132 
M42 P13 S94 
G1 X31.82 Y9.95 Z30.00 F3500 
M42 P11 S189 
M42 P12 S131 
M42 P13 S93 
G1 X29.04 Y12.62 Z30.00 F3500 
M42 P11 S180 
M42 P12 S118 
M42 P13 S82 
G1 X27.64 Y14.07 Z30.00 F3500 
M42 P11 S179 
M42 P12 S119 
M42 P13 S82 
G1 X26.31 Y15.52 Z30.00 F3500 
M42 P11 S184 
M42 P12 S124 
M42 P13 S88 
G1 X25.89 Y15.95 Z30.00 F3500 
M42 P11 S185 
M42 P12 S126 
M42 P13 S89 
G1 X25.32 Y16.46 Z30.00 F3500 
M42 P11 S182 
M42 P12 S127 
M42 P13 S87 
G1 X24.73 Y17.12 Z30.00 F3500 
M42 P11 S181 
M42 P12 S126 
M42 P13 S87 
G1 X23.79 Y18.00 Z30.00 F3500 
M42 P11 S183 
M42 P12 S127 
M42 P13 S92 
G1 X21.97 Y19.77 Z30.00 F3500 
M42 P11 S183 
M42 P12 S125 
M42 P13 S90 
G1 X21.35 Y20.39 Z30.00 F3500 
M42 P11 S183 
M42 P12 S126 
M42 P13 S90 
G1 X18.95 Y22.57 Z30.00 F3500 
M42 P11 S185 
M42 P12 S127 
M42 P13 S87 
G1 X18.59 Y22.89 Z30.00 F3500 
M42 P11 S186 
M42 P12 S127 
M42 P13 S88 
G1 X18.49 Y22.96 Z30.00 F3500 
M42 P11 S186 
M42 P12 S127 
M42 P13 S88 
G1 X18.17 Y23.28 Z30.00 F3500 
M42 P11 S135 
M42 P12 S91 
M42 P13 S66 
G1 X17.79 Y23.56 Z30.00 F3500 
M42 P11 S111 
M42 P12 S75 
M42 P13 S55 
G1 X17.73 Y23.56 Z30.00 F3500 
M42 P11 S107 
M42 P12 S71 
M42 P13 S52 
G1 X17.68 Y23.58 Z30.00 F3500 
M42 P11 S103 
M42 P12 S69 
M42 P13 S51 
G1 X17.53 Y23.59 Z30.00 F3500 
M42 P11 S72 
M42 P12 S51 
M42 P13 S42 
G1 X17.48 Y23.59 Z30.00 F3500 
M42 P11 S66 
M42 P12 S47 
M42 P13 S40 
M42 P4 S0 
M42 P5 S0 
M42 P6 S0 
G1 X-25.42 Y-20.38 Z32.00 F3500 
M42 P11 S175 
M42 P12 S119 
M42 P13 S84 
G1 X-25.38 Y-20.54 Z32.00 F3500 
M42 P11 S177 
M42 P12 S120 
M42 P13 S86 
G1 X-25.35 Y-20.72 Z32.00 F3500 
M42 P11 S175 
M42 P12 S121 
M42 P13 S86 
G1 X-25.22 Y-20.95 Z32.00 F3500 
M42 P11 S174 
M42 P12 S118 
M42 P13 S85 
G1 X-25.18 Y-21.03 Z32.00 F3500 
M42 P11 S175 
M42 P12 S118 
M42 P13 S85 
G1 X-24.80 Y-21.51 Z32.00 F3500 
M42 P11 S181 
M42 P12 S122 
M42 P13 S88 
G1 X-24.69 Y-21.65 Z32.00 F3500 
M42 P11 S182 
M42 P12 S122 
M42 P13 S88 
G1 X-24.60 Y-21.76 Z32.00 F3500 
M42 P11 S181 
M42 P12 S122 
M42 P13 S88 
G1 X-24.06 Y-22.30 Z32.00 F3500 
M42 P11 S184 
M42 P12 S124 
M42 P13 S89 
G1 X-23.32 Y-23.01 Z32.00 F3500 
M42 P11 S189 
M42 P12 S126 
M42 P13 S90 
G1 X-22.49 Y-23.79 Z32.00 F3500 
M42 P11 S192 
M42 P12 S129 
M42 P13 S93 
G1 X-22.04 Y-24.22 Z32.00 F3500 
M42 P11 S191 
M42 P12 S131 
M42 P13 S93 
G1 X-21.42 Y-24.74 Z32.00 F3500 
M42 P11 S192 
M42 P12 S130 
M42 P13 S92 
G1 X-19.78 Y-26.15 Z32.00 F3500 
M42 P11 S187 
M42 P12 S124 
M42 P13 S86 
G1 X-19.20 Y-26.61 Z32.00 F3500 
M42 P11 S184 
M42 P12 S123 
M42 P13 S85 
G1 X-15.89 Y-29.14 Z32.00 F3500 
M42 P11 S177 
M42 P12 S115 
M42 P13 S82 
G1 X-14.94 Y-29.90 Z32.00 F3500 
M42 P11 S172 
M42 P12 S112 
M42 P13 S80 
G1 X-14.43 Y-30.31 Z32.00 F3500 
M42 P11 S174 
M42 P12 S114 
M42 P13 S81 
G1 X-12.73 Y-31.69 Z32.00 F3500 
M42 P11 S179 
M42 P12 S128 
M42 P13 S92 
G1 X-12.69 Y-31.73 Z32.00 F3500 
M42 P11 S179 
M42 P12 S129 
M42 P13 S92 
G1 X-11.34 Y-32.83 Z32.00 F3500 
M42 P11 S187 
M42 P12 S126 
M42 P13 S87 
G1 X-8.00 Y-35.49 Z32.00 F3500 
M42 P11 S197 
M42 P12 S133 
M42 P13 S93 
G1 X-7.44 Y-35.94 Z32.00 F3500 
M42 P11 S197 
M42 P12 S140 
M42 P13 S95 
G1 X-7.43 Y-35.96 Z32.00 F3500 
M42 P11 S197 
M42 P12 S140 
M42 P13 S95 
G1 X-7.41 Y-35.97 Z32.00 F3500 
M42 P11 S197 
M42 P12 S140 
M42 P13 S95 
G1 X-5.60 Y-37.15 Z32.00 F3500 
M42 P11 S200 
M42 P12 S140 
M42 P13 S97 
G1 X-5.31 Y-37.33 Z32.00 F3500 
M42 P11 S202 
M42 P12 S141 
M42 P13 S100 
G1 X-3.28 Y-38.39 Z32.00 F3500 
M42 P11 S207 
M42 P12 S150 
M42 P13 S105 
G1 X-3.26 Y-38.40 Z32.00 F3500 
M42 P11 S207 
M42 P12 S150 
M42 P13 S105 
G1 X-2.26 Y-38.82 Z32.00 F3500 
M42 P11 S209 
M42 P12 S148 
M42 P13 S105 
G1 X-1.73 Y-39.03 Z32.00 F3500 
M42 P11 S211 
M42 P12 S151 
M42 P13 S107 
G1 X-1.22 Y-39.23 Z32.00 F3500 
M42 P11 S213 
M42 P12 S150 
M42 P13 S106 
G1 X-1.15 Y-39.25 Z32.00 F3500 
M42 P11 S213 
M42 P12 S150 
M42 P13 S106 
G1 X-0.46 Y-39.43 Z32.00 F3500 
M42 P11 S214 
M42 P12 S151 
M42 P13 S105 
G1 X0.02 Y-39.55 Z32.00 F3500 
M42 P11 S214 
M42 P12 S152 
M42 P13 S105 
G1 X0.59 Y-39.64 Z32.00 F3500 
M42 P11 S215 
M42 P12 S153 
M42 P13 S106 
G1 X2.76 Y-39.98 Z32.00 F3500 
M42 P11 S217 
M42 P12 S159 
M42 P13 S111 
G1 X3.57 Y-40.08 Z32.00 F3500 
M42 P11 S219 
M42 P12 S162 
M42 P13 S113 
G1 X4.31 Y-40.13 Z32.00 F3500 
M42 P11 S219 
M42 P12 S163 
M42 P13 S114 
G1 X5.80 Y-40.16 Z32.00 F3500 
M42 P11 S219 
M42 P12 S161 
M42 P13 S113 
G1 X7.03 Y-40.15 Z32.00 F3500 
M42 P11 S222 
M42 P12 S161 
M42 P13 S110 
G1 X7.59 Y-40.15 Z32.00 F3500 
M42 P11 S220 
M42 P12 S157 
M42 P13 S109 
G1 X8.38 Y-40.09 Z32.00 F3500 
M42 P11 S220 
M42 P12 S160 
M42 P13 S110 
G1 X9.49 Y-39.99 Z32.00 F3500 
M42 P11 S225 
M42 P12 S165 
M42 P13 S113 
G1 X9.53 Y-39.98 Z32.00 F3500 
M42 P11 S225 
M42 P12 S165 
M42 P13 S113 
G1 X9.55 Y-39.98 Z32.00 F3500 
M42 P11 S225 
M42 P12 S165 
M42 P13 S113 
G1 X11.82 Y-39.75 Z32.00 F3500 
M42 P11 S228 
M42 P12 S171 
M42 P13 S116 
G1 X12.62 Y-39.64 Z32.00 F3500 
M42 P11 S231 
M42 P12 S168 
M42 P13 S114 
G1 X13.21 Y-39.58 Z32.00 F3500 
M42 P11 S233 
M42 P12 S168 
M42 P13 S115 
G1 X14.15 Y-39.48 Z32.00 F3500 
M42 P11 S233 
M42 P12 S171 
M42 P13 S120 
G1 X15.40 Y-39.34 Z32.00 F3500 
M42 P11 S231 
M42 P12 S168 
M42 P13 S115 
G1 X16.81 Y-39.17 Z32.00 F3500 
M42 P11 S232 
M42 P12 S170 
M42 P13 S117 
G1 X17.60 Y-39.04 Z32.00 F3500 
M42 P11 S232 
M42 P12 S169 
M42 P13 S116 
G1 X18.70 Y-38.82 Z32.00 F3500 
M42 P11 S229 
M42 P12 S165 
M42 P13 S116 
G1 X19.19 Y-38.72 Z32.00 F3500 
M42 P11 S228 
M42 P12 S165 
M42 P13 S115 
G1 X19.58 Y-38.61 Z32.00 F3500 
M42 P11 S227 
M42 P12 S164 
M42 P13 S115 
G1 X20.87 Y-38.27 Z32.00 F3500 
M42 P11 S233 
M42 P12 S173 
M42 P13 S119 
G1 X21.34 Y-38.11 Z32.00 F3500 
M42 P11 S233 
M42 P12 S174 
M42 P13 S120 
G1 X22.36 Y-37.75 Z32.00 F3500 
M42 P11 S233 
M42 P12 S174 
M42 P13 S121 
G1 X23.18 Y-37.41 Z32.00 F3500 
M42 P11 S234 
M42 P12 S175 
M42 P13 S122 
G1 X23.82 Y-37.09 Z32.00 F3500 
M42 P11 S237 
M42 P12 S178 
M42 P13 S125 
G1 X24.24 Y-36.87 Z32.00 F3500 
M42 P11 S236 
M42 P12 S178 
M42 P13 S124 
G1 X24.73 Y-36.59 Z32.00 F3500 
M42 P11 S240 
M42 P12 S182 
M42 P13 S127 
G1 X25.28 Y-36.23 Z32.00 F3500 
M42 P11 S237 
M42 P12 S178 
M42 P13 S126 
G1 X25.95 Y-35.87 Z32.00 F3500 
M42 P11 S236 
M42 P12 S175 
M42 P13 S125 
G1 X26.65 Y-35.43 Z32.00 F3500 
M42 P11 S236 
M42 P12 S175 
M42 P13 S125 
G1 X27.04 Y-35.16 Z32.00 F3500 
M42 P11 S237 
M42 P12 S176 
M42 P13 S126 
G1 X27.93 Y-34.45 Z32.00 F3500 
M42 P11 S239 
M42 P12 S181 
M42 P13 S130 
G1 X28.55 Y-33.95 Z32.00 F3500 
M42 P11 S239 
M42 P12 S180 
M42 P13 S131 
G1 X28.85 Y-33.70 Z32.00 F3500 
M42 P11 S239 
M42 P12 S179 
M42 P13 S129 
G1 X30.17 Y-32.49 Z32.00 F3500 
M42 P11 S239 
M42 P12 S178 
M42 P13 S126 
G1 X30.81 Y-31.91 Z32.00 F3500 
M42 P11 S240 
M42 P12 S180 
M42 P13 S128 
G1 X31.00 Y-31.73 Z32.00 F3500 
M42 P11 S240 
M42 P12 S180 
M42 P13 S128 
G1 X31.39 Y-31.33 Z32.00 F3500 
M42 P11 S241 
M42 P12 S180 
M42 P13 S128 
G1 X32.49 Y-30.16 Z32.00 F3500 
M42 P11 S240 
M42 P12 S178 
M42 P13 S127 
G1 X32.89 Y-29.74 Z32.00 F3500 
M42 P11 S241 
M42 P12 S179 
M42 P13 S128 
G1 X33.10 Y-29.51 Z32.00 F3500 
M42 P11 S239 
M42 P12 S180 
M42 P13 S127 
G1 X34.21 Y-28.24 Z32.00 F3500 
M42 P11 S235 
M42 P12 S180 
M42 P13 S128 
G1 X34.27 Y-28.12 Z32.00 F3500 
M42 P11 S242 
M42 P12 S187 
M42 P13 S132 
G1 X34.39 Y-27.95 Z32.00 F3500 
M42 P11 S242 
M42 P12 S186 
M42 P13 S133 
G1 X34.83 Y-27.37 Z32.00 F3500 
M42 P11 S240 
M42 P12 S184 
M42 P13 S130 
G1 X34.94 Y-27.20 Z32.00 F3500 
M42 P11 S240 
M42 P12 S185 
M42 P13 S131 
G1 X35.36 Y-26.61 Z32.00 F3500 
M42 P11 S240 
M42 P12 S185 
M42 P13 S129 
G1 X35.54 Y-26.30 Z32.00 F3500 
M42 P11 S240 
M42 P12 S184 
M42 P13 S128 
G1 X36.04 Y-25.47 Z32.00 F3500 
M42 P11 S237 
M42 P12 S183 
M42 P13 S125 
G1 X36.08 Y-25.40 Z32.00 F3500 
M42 P11 S237 
M42 P12 S182 
M42 P13 S125 
G1 X36.40 Y-24.80 Z32.00 F3500 
M42 P11 S234 
M42 P12 S175 
M42 P13 S122 
G1 X36.53 Y-24.50 Z32.00 F3500 
M42 P11 S234 
M42 P12 S174 
M42 P13 S120 
G1 X37.00 Y-23.40 Z32.00 F3500 
M42 P11 S233 
M42 P12 S174 
M42 P13 S119 
G1 X37.09 Y-23.19 Z32.00 F3500 
M42 P11 S232 
M42 P12 S172 
M42 P13 S118 
G1 X37.22 Y-22.79 Z32.00 F3500 
M42 P11 S232 
M42 P12 S172 
M42 P13 S118 
G1 X37.53 Y-21.90 Z32.00 F3500 
M42 P11 S230 
M42 P12 S170 
M42 P13 S118 
G1 X37.56 Y-21.79 Z32.00 F3500 
M42 P11 S230 
M42 P12 S170 
M42 P13 S118 
G1 X37.56 Y-21.79 Z32.00 F3500 
M42 P11 S230 
M42 P12 S170 
M42 P13 S118 
G1 X37.57 Y-21.76 Z32.00 F3500 
M42 P11 S230 
M42 P12 S170 
M42 P13 S118 
G1 X37.59 Y-21.68 Z32.00 F3500 
M42 P11 S230 
M42 P12 S170 
M42 P13 S118 
G1 X38.14 Y-19.72 Z32.00 F3500 
M42 P11 S232 
M42 P12 S171 
M42 P13 S119 
G1 X38.32 Y-18.96 Z32.00 F3500 
M42 P11 S232 
M42 P12 S170 
M42 P13 S119 
G1 X38.85 Y-16.53 Z32.00 F3500 
M42 P11 S233 
M42 P12 S174 
M42 P13 S119 
G1 X39.01 Y-15.92 Z32.00 F3500 
M42 P11 S234 
M42 P12 S174 
M42 P13 S119 
G1 X39.28 Y-15.03 Z32.00 F3500 
M42 P11 S233 
M42 P12 S173 
M42 P13 S118 
G1 X39.35 Y-14.73 Z32.00 F3500 
M42 P11 S231 
M42 P12 S171 
M42 P13 S118 
G1 X39.76 Y-13.40 Z32.00 F3500 
M42 P11 S232 
M42 P12 S171 
M42 P13 S117 
G1 X39.80 Y-13.22 Z32.00 F3500 
M42 P11 S232 
M42 P12 S171 
M42 P13 S117 
G1 X39.82 Y-13.13 Z32.00 F3500 
M42 P11 S230 
M42 P12 S170 
M42 P13 S114 
G1 X40.10 Y-12.15 Z32.00 F3500 
M42 P11 S231 
M42 P12 S170 
M42 P13 S115 
G1 X40.30 Y-11.37 Z32.00 F3500 
M42 P11 S232 
M42 P12 S170 
M42 P13 S116 
G1 X40.52 Y-10.37 Z32.00 F3500 
M42 P11 S228 
M42 P12 S168 
M42 P13 S116 
G1 X40.52 Y-10.32 Z32.00 F3500 
M42 P11 S228 
M42 P12 S168 
M42 P13 S116 
G1 X40.56 Y-10.04 Z32.00 F3500 
M42 P11 S228 
M42 P12 S168 
M42 P13 S116 
G1 X40.82 Y-8.18 Z32.00 F3500 
M42 P11 S225 
M42 P12 S165 
M42 P13 S113 
G1 X40.85 Y-7.85 Z32.00 F3500 
M42 P11 S227 
M42 P12 S166 
M42 P13 S112 
G1 X40.88 Y-7.06 Z32.00 F3500 
M42 P11 S224 
M42 P12 S163 
M42 P13 S109 
G1 X40.89 Y-6.59 Z32.00 F3500 
M42 P11 S224 
M42 P12 S163 
M42 P13 S109 
G1 X40.90 Y-6.27 Z32.00 F3500 
M42 P11 S225 
M42 P12 S164 
M42 P13 S110 
G1 X40.87 Y-5.42 Z32.00 F3500 
M42 P11 S226 
M42 P12 S166 
M42 P13 S113 
G1 X40.82 Y-4.45 Z32.00 F3500 
M42 P11 S229 
M42 P12 S169 
M42 P13 S116 
G1 X40.72 Y-3.56 Z32.00 F3500 
M42 P11 S229 
M42 P12 S169 
M42 P13 S115 
G1 X40.62 Y-2.90 Z32.00 F3500 
M42 P11 S229 
M42 P12 S168 
M42 P13 S115 
G1 X40.52 Y-2.22 Z32.00 F3500 
M42 P11 S228 
M42 P12 S168 
M42 P13 S114 
G1 X40.48 Y-1.99 Z32.00 F3500 
M42 P11 S229 
M42 P12 S169 
M42 P13 S115 
G1 X40.42 Y-1.67 Z32.00 F3500 
M42 P11 S228 
M42 P12 S168 
M42 P13 S114 
G1 X40.25 Y-0.93 Z32.00 F3500 
M42 P11 S226 
M42 P12 S165 
M42 P13 S114 
G1 X40.13 Y-0.43 Z32.00 F3500 
M42 P11 S224 
M42 P12 S162 
M42 P13 S113 
G1 X40.06 Y-0.20 Z32.00 F3500 
M42 P11 S224 
M42 P12 S163 
M42 P13 S114 
G1 X39.98 Y0.12 Z32.00 F3500 
M42 P11 S224 
M42 P12 S162 
M42 P13 S113 
G1 X39.71 Y0.97 Z32.00 F3500 
M42 P11 S225 
M42 P12 S164 
M42 P13 S111 
G1 X39.53 Y1.48 Z32.00 F3500 
M42 P11 S226 
M42 P12 S163 
M42 P13 S111 
G1 X39.10 Y2.64 Z32.00 F3500 
M42 P11 S225 
M42 P12 S163 
M42 P13 S113 
G1 X38.91 Y3.10 Z32.00 F3500 
M42 P11 S223 
M42 P12 S161 
M42 P13 S112 
G1 X38.47 Y4.03 Z32.00 F3500 
M42 P11 S219 
M42 P12 S157 
M42 P13 S108 
G1 X38.12 Y4.78 Z32.00 F3500 
M42 P11 S218 
M42 P12 S154 
M42 P13 S109 
G1 X37.92 Y5.16 Z32.00 F3500 
M42 P11 S217 
M42 P12 S154 
M42 P13 S109 
G1 X37.22 Y6.40 Z32.00 F3500 
M42 P11 S215 
M42 P12 S158 
M42 P13 S109 
G1 X37.15 Y6.50 Z32.00 F3500 
M42 P11 S214 
M42 P12 S158 
M42 P13 S109 
G1 X36.94 Y6.84 Z32.00 F3500 
M42 P11 S213 
M42 P12 S157 
M42 P13 S109 
G1 X35.82 Y8.56 Z32.00 F3500 
M42 P11 S208 
M42 P12 S146 
M42 P13 S103 
G1 X35.55 Y8.93 Z32.00 F3500 
M42 P11 S207 
M42 P12 S142 
M42 P13 S100 
G1 X35.28 Y9.30 Z32.00 F3500 
M42 P11 S206 
M42 P12 S142 
M42 P13 S100 
G1 X34.84 Y9.82 Z32.00 F3500 
M42 P11 S205 
M42 P12 S140 
M42 P13 S99 
G1 X34.13 Y10.66 Z32.00 F3500 
M42 P11 S202 
M42 P12 S137 
M42 P13 S95 
G1 X33.84 Y10.95 Z32.00 F3500 
M42 P11 S199 
M42 P12 S138 
M42 P13 S97 
G1 X32.09 Y12.78 Z32.00 F3500 
M42 P11 S198 
M42 P12 S138 
M42 P13 S100 
G1 X31.37 Y13.51 Z32.00 F3500 
M42 P11 S198 
M42 P12 S135 
M42 P13 S98 
G1 X30.74 Y14.12 Z32.00 F3500 
M42 P11 S195 
M42 P12 S133 
M42 P13 S96 
G1 X29.07 Y15.67 Z32.00 F3500 
M42 P11 S188 
M42 P12 S129 
M42 P13 S92 
G1 X28.32 Y16.39 Z32.00 F3500 
M42 P11 S187 
M42 P12 S127 
M42 P13 S90 
G1 X28.13 Y16.58 Z32.00 F3500 
M42 P11 S187 
M42 P12 S127 
M42 P13 S90 
G1 X26.52 Y18.10 Z32.00 F3500 
M42 P11 S182 
M42 P12 S123 
M42 P13 S86 
G1 X23.52 Y20.89 Z32.00 F3500 
M42 P11 S183 
M42 P12 S125 
M42 P13 S87 
G1 X23.00 Y21.36 Z32.00 F3500 
M42 P11 S183 
M42 P12 S125 
M42 P13 S87 
G1 X22.80 Y21.56 Z32.00 F3500 
M42 P11 S183 
M42 P12 S125 
M42 P13 S87 
G1 X20.58 Y23.67 Z32.00 F3500 
M42 P11 S184 
M42 P12 S124 
M42 P13 S89 
G1 X19.97 Y24.23 Z32.00 F3500 
M42 P11 S183 
M42 P12 S124 
M42 P13 S89 
G1 X18.63 Y25.63 Z32.00 F3500 
M42 P11 S181 
M42 P12 S119 
M42 P13 S84 
G1 X18.06 Y26.18 Z32.00 F3500 
M42 P11 S180 
M42 P12 S118 
M42 P13 S82 
G1 X17.85 Y26.41 Z32.00 F3500 
M42 P11 S182 
M42 P12 S121 
M42 P13 S84 
G1 X17.74 Y26.46 Z32.00 F3500 
M42 P11 S180 
M42 P12 S119 
M42 P13 S82 
M42 P4 S0 
M42 P5 S0 
M42 P6 S0 
G1 X-27.01 Y-19.90 Z34.00 F3500 
M42 P11 S179 
M42 P12 S117 
M42 P13 S81 
G1 X-27.00 Y-20.03 Z34.00 F3500 
M42 P11 S177 
M42 P12 S117 
M42 P13 S80 
G1 X-26.88 Y-20.45 Z34.00 F3500 
M42 P11 S177 
M42 P12 S115 
M42 P13 S82 
G1 X-26.86 Y-20.61 Z34.00 F3500 
M42 P11 S175 
M42 P12 S115 
M42 P13 S82 
G1 X-26.76 Y-20.79 Z34.00 F3500 
M42 P11 S176 
M42 P12 S115 
M42 P13 S82 
G1 X-26.57 Y-21.10 Z34.00 F3500 
M42 P11 S180 
M42 P12 S121 
M42 P13 S86 
G1 X-25.93 Y-21.92 Z34.00 F3500 
M42 P11 S184 
M42 P12 S124 
M42 P13 S89 
G1 X-25.71 Y-22.20 Z34.00 F3500 
M42 P11 S185 
M42 P12 S125 
M42 P13 S89 
G1 X-25.43 Y-22.52 Z34.00 F3500 
M42 P11 S183 
M42 P12 S123 
M42 P13 S89 
G1 X-25.20 Y-22.78 Z34.00 F3500 
M42 P11 S183 
M42 P12 S123 
M42 P13 S92 
G1 X-23.17 Y-24.81 Z34.00 F3500 
M42 P11 S188 
M42 P12 S128 
M42 P13 S92 
G1 X-22.89 Y-25.09 Z34.00 F3500 
M42 P11 S189 
M42 P12 S129 
M42 P13 S92 
G1 X-22.79 Y-25.19 Z34.00 F3500 
M42 P11 S189 
M42 P12 S129 
M42 P13 S92 
G1 X-21.05 Y-26.77 Z34.00 F3500 
M42 P11 S184 
M42 P12 S135 
M42 P13 S95 
G1 X-20.26 Y-27.47 Z34.00 F3500 
M42 P11 S183 
M42 P12 S130 
M42 P13 S90 
G1 X-18.89 Y-28.62 Z34.00 F3500 
M42 P11 S187 
M42 P12 S128 
M42 P13 S89 
G1 X-16.67 Y-30.58 Z34.00 F3500 
M42 P11 S184 
M42 P12 S125 
M42 P13 S87 
G1 X-15.99 Y-31.12 Z34.00 F3500 
M42 P11 S181 
M42 P12 S122 
M42 P13 S86 
G1 X-15.63 Y-31.41 Z34.00 F3500 
M42 P11 S183 
M42 P12 S125 
M42 P13 S87 
G1 X-13.06 Y-33.67 Z34.00 F3500 
M42 P11 S186 
M42 P12 S130 
M42 P13 S91 
G1 X-11.18 Y-35.36 Z34.00 F3500 
M42 P11 S198 
M42 P12 S133 
M42 P13 S91 
G1 X-11.09 Y-35.44 Z34.00 F3500 
M42 P11 S198 
M42 P12 S133 
M42 P13 S91 
G1 X-9.87 Y-36.42 Z34.00 F3500 
M42 P11 S201 
M42 P12 S134 
M42 P13 S93 
G1 X-9.54 Y-36.67 Z34.00 F3500 
M42 P11 S202 
M42 P12 S135 
M42 P13 S93 
G1 X-9.02 Y-37.04 Z34.00 F3500 
M42 P11 S198 
M42 P12 S134 
M42 P13 S92 
G1 X-8.02 Y-37.73 Z34.00 F3500 
M42 P11 S198 
M42 P12 S133 
M42 P13 S92 
G1 X-7.50 Y-38.08 Z34.00 F3500 
M42 P11 S200 
M42 P12 S135 
M42 P13 S93 
G1 X-7.26 Y-38.24 Z34.00 F3500 
M42 P11 S199 
M42 P12 S134 
M42 P13 S92 
G1 X-6.96 Y-38.40 Z34.00 F3500 
M42 P11 S201 
M42 P12 S135 
M42 P13 S95 
G1 X-6.11 Y-38.86 Z34.00 F3500 
M42 P11 S201 
M42 P12 S137 
M42 P13 S94 
G1 X-5.35 Y-39.27 Z34.00 F3500 
M42 P11 S206 
M42 P12 S141 
M42 P13 S97 
G1 X-4.61 Y-39.64 Z34.00 F3500 
M42 P11 S210 
M42 P12 S146 
M42 P13 S101 
G1 X-4.32 Y-39.76 Z34.00 F3500 
M42 P11 S212 
M42 P12 S148 
M42 P13 S103 
G1 X-3.92 Y-39.94 Z34.00 F3500 
M42 P11 S212 
M42 P12 S148 
M42 P13 S105 
G1 X-3.37 Y-40.15 Z34.00 F3500 
M42 P11 S213 
M42 P12 S148 
M42 P13 S107 
G1 X-2.21 Y-40.55 Z34.00 F3500 
M42 P11 S216 
M42 P12 S154 
M42 P13 S107 
G1 X-1.67 Y-40.71 Z34.00 F3500 
M42 P11 S221 
M42 P12 S154 
M42 P13 S108 
G1 X-1.55 Y-40.74 Z34.00 F3500 
M42 P11 S220 
M42 P12 S154 
M42 P13 S108 
G1 X-1.31 Y-40.79 Z34.00 F3500 
M42 P11 S221 
M42 P12 S154 
M42 P13 S109 
G1 X-0.86 Y-40.90 Z34.00 F3500 
M42 P11 S223 
M42 P12 S156 
M42 P13 S109 
G1 X-0.03 Y-41.06 Z34.00 F3500 
M42 P11 S223 
M42 P12 S159 
M42 P13 S109 
G1 X0.38 Y-41.11 Z34.00 F3500 
M42 P11 S224 
M42 P12 S160 
M42 P13 S111 
G1 X1.77 Y-41.31 Z34.00 F3500 
M42 P11 S220 
M42 P12 S160 
M42 P13 S111 
G1 X3.60 Y-41.43 Z34.00 F3500 
M42 P11 S221 
M42 P12 S160 
M42 P13 S111 
G1 X4.73 Y-41.48 Z34.00 F3500 
M42 P11 S221 
M42 P12 S158 
M42 P13 S109 
G1 X5.51 Y-41.49 Z34.00 F3500 
M42 P11 S223 
M42 P12 S160 
M42 P13 S112 
G1 X6.58 Y-41.42 Z34.00 F3500 
M42 P11 S219 
M42 P12 S161 
M42 P13 S109 
G1 X6.72 Y-41.41 Z34.00 F3500 
M42 P11 S219 
M42 P12 S162 
M42 P13 S109 
G1 X6.75 Y-41.41 Z34.00 F3500 
M42 P11 S219 
M42 P12 S162 
M42 P13 S109 
G1 X6.83 Y-41.40 Z34.00 F3500 
M42 P11 S219 
M42 P12 S162 
M42 P13 S109 
G1 X7.92 Y-41.23 Z34.00 F3500 
M42 P11 S224 
M42 P12 S166 
M42 P13 S113 
G1 X8.57 Y-41.12 Z34.00 F3500 
M42 P11 S224 
M42 P12 S166 
M42 P13 S113 
G1 X9.18 Y-41.02 Z34.00 F3500 
M42 P11 S227 
M42 P12 S170 
M42 P13 S116 
G1 X11.09 Y-40.57 Z34.00 F3500 
M42 P11 S238 
M42 P12 S179 
M42 P13 S123 
G1 X11.12 Y-40.56 Z34.00 F3500 
M42 P11 S238 
M42 P12 S179 
M42 P13 S123 
G1 X11.25 Y-40.53 Z34.00 F3500 
M42 P11 S238 
M42 P12 S179 
M42 P13 S123 
G1 X13.21 Y-40.10 Z34.00 F3500 
M42 P11 S234 
M42 P12 S174 
M42 P13 S120 
G1 X14.91 Y-39.82 Z34.00 F3500 
M42 P11 S235 
M42 P12 S174 
M42 P13 S120 
G1 X15.76 Y-39.65 Z34.00 F3500 
M42 P11 S236 
M42 P12 S175 
M42 P13 S121 
G1 X17.15 Y-39.39 Z34.00 F3500 
M42 P11 S235 
M42 P12 S174 
M42 P13 S120 
G1 X17.19 Y-39.39 Z34.00 F3500 
M42 P11 S235 
M42 P12 S174 
M42 P13 S120 
G1 X18.89 Y-39.01 Z34.00 F3500 
M42 P11 S230 
M42 P12 S169 
M42 P13 S116 
G1 X19.91 Y-38.75 Z34.00 F3500 
M42 P11 S231 
M42 P12 S169 
M42 P13 S117 
G1 X20.49 Y-38.59 Z34.00 F3500 
M42 P11 S229 
M42 P12 S167 
M42 P13 S117 
G1 X20.79 Y-38.51 Z34.00 F3500 
M42 P11 S231 
M42 P12 S169 
M42 P13 S118 
G1 X21.65 Y-38.20 Z34.00 F3500 
M42 P11 S231 
M42 P12 S172 
M42 P13 S119 
G1 X22.07 Y-38.08 Z34.00 F3500 
M42 P11 S231 
M42 P12 S173 
M42 P13 S118 
G1 X22.35 Y-37.99 Z34.00 F3500 
M42 P11 S230 
M42 P12 S173 
M42 P13 S118 
G1 X22.85 Y-37.76 Z34.00 F3500 
M42 P11 S231 
M42 P12 S175 
M42 P13 S122 
G1 X23.36 Y-37.54 Z34.00 F3500 
M42 P11 S232 
M42 P12 S176 
M42 P13 S124 
G1 X23.61 Y-37.39 Z34.00 F3500 
M42 P11 S232 
M42 P12 S175 
M42 P13 S123 
G1 X24.18 Y-37.08 Z34.00 F3500 
M42 P11 S233 
M42 P12 S172 
M42 P13 S121 
G1 X24.86 Y-36.67 Z34.00 F3500 
M42 P11 S233 
M42 P12 S172 
M42 P13 S121 
G1 X25.81 Y-36.04 Z34.00 F3500 
M42 P11 S229 
M42 P12 S169 
M42 P13 S117 
G1 X25.94 Y-35.95 Z34.00 F3500 
M42 P11 S229 
M42 P12 S169 
M42 P13 S117 
G1 X27.18 Y-35.03 Z34.00 F3500 
M42 P11 S229 
M42 P12 S168 
M42 P13 S120 
G1 X27.32 Y-34.93 Z34.00 F3500 
M42 P11 S229 
M42 P12 S168 
M42 P13 S121 
G1 X27.53 Y-34.74 Z34.00 F3500 
M42 P11 S230 
M42 P12 S168 
M42 P13 S121 
G1 X28.26 Y-34.14 Z34.00 F3500 
M42 P11 S231 
M42 P12 S170 
M42 P13 S121 
G1 X29.24 Y-33.24 Z34.00 F3500 
M42 P11 S232 
M42 P12 S168 
M42 P13 S121 
G1 X31.87 Y-30.76 Z34.00 F3500 
M42 P11 S229 
M42 P12 S168 
M42 P13 S119 
G1 X32.38 Y-30.30 Z34.00 F3500 
M42 P11 S228 
M42 P12 S167 
M42 P13 S119 
G1 X32.92 Y-29.73 Z34.00 F3500 
M42 P11 S228 
M42 P12 S170 
M42 P13 S119 
G1 X34.12 Y-28.53 Z34.00 F3500 
M42 P11 S229 
M42 P12 S172 
M42 P13 S122 
G1 X34.77 Y-27.75 Z34.00 F3500 
M42 P11 S230 
M42 P12 S172 
M42 P13 S122 
G1 X34.82 Y-27.70 Z34.00 F3500 
M42 P11 S230 
M42 P12 S172 
M42 P13 S122 
G1 X34.88 Y-27.63 Z34.00 F3500 
M42 P11 S230 
M42 P12 S172 
M42 P13 S122 
G1 X35.70 Y-26.46 Z34.00 F3500 
M42 P11 S225 
M42 P12 S170 
M42 P13 S123 
G1 X36.12 Y-25.88 Z34.00 F3500 
M42 P11 S226 
M42 P12 S171 
M42 P13 S122 
G1 X36.24 Y-25.69 Z34.00 F3500 
M42 P11 S227 
M42 P12 S172 
M42 P13 S122 
G1 X36.37 Y-25.47 Z34.00 F3500 
M42 P11 S231 
M42 P12 S172 
M42 P13 S122 
G1 X36.84 Y-24.49 Z34.00 F3500 
M42 P11 S229 
M42 P12 S169 
M42 P13 S117 
G1 X36.92 Y-24.34 Z34.00 F3500 
M42 P11 S228 
M42 P12 S168 
M42 P13 S116 
G1 X36.95 Y-24.29 Z34.00 F3500 
M42 P11 S227 
M42 P12 S168 
M42 P13 S115 
G1 X36.97 Y-24.23 Z34.00 F3500 
M42 P11 S228 
M42 P12 S167 
M42 P13 S115 
G1 X37.10 Y-24.01 Z34.00 F3500 
M42 P11 S228 
M42 P12 S166 
M42 P13 S114 
G1 X37.57 Y-22.75 Z34.00 F3500 
M42 P11 S226 
M42 P12 S164 
M42 P13 S115 
G1 X37.59 Y-22.68 Z34.00 F3500 
M42 P11 S227 
M42 P12 S165 
M42 P13 S116 
G1 X37.72 Y-22.34 Z34.00 F3500 
M42 P11 S227 
M42 P12 S167 
M42 P13 S116 
G1 X38.25 Y-20.58 Z34.00 F3500 
M42 P11 S230 
M42 P12 S171 
M42 P13 S120 
G1 X38.77 Y-18.78 Z34.00 F3500 
M42 P11 S231 
M42 P12 S171 
M42 P13 S120 
G1 X39.03 Y-18.09 Z34.00 F3500 
M42 P11 S230 
M42 P12 S168 
M42 P13 S117 
G1 X39.31 Y-17.17 Z34.00 F3500 
M42 P11 S231 
M42 P12 S170 
M42 P13 S117 
G1 X39.59 Y-16.35 Z34.00 F3500 
M42 P11 S234 
M42 P12 S173 
M42 P13 S119 
G1 X40.23 Y-14.49 Z34.00 F3500 
M42 P11 S234 
M42 P12 S174 
M42 P13 S120 
G1 X40.38 Y-14.11 Z34.00 F3500 
M42 P11 S235 
M42 P12 S176 
M42 P13 S121 
G1 X40.60 Y-13.65 Z34.00 F3500 
M42 P11 S234 
M42 P12 S173 
M42 P13 S120 
G1 X40.64 Y-13.57 Z34.00 F3500 
M42 P11 S234 
M42 P12 S174 
M42 P13 S120 
G1 X40.73 Y-13.34 Z34.00 F3500 
M42 P11 S234 
M42 P12 S173 
M42 P13 S119 
G1 X41.17 Y-12.23 Z34.00 F3500 
M42 P11 S232 
M42 P12 S170 
M42 P13 S116 
G1 X41.17 Y-12.18 Z34.00 F3500 
M42 P11 S231 
M42 P12 S169 
M42 P13 S115 
G1 X41.68 Y-10.42 Z34.00 F3500 
M42 P11 S234 
M42 P12 S170 
M42 P13 S116 
G1 X41.85 Y-9.86 Z34.00 F3500 
M42 P11 S235 
M42 P12 S172 
M42 P13 S118 
G1 X41.99 Y-9.21 Z34.00 F3500 
M42 P11 S230 
M42 P12 S172 
M42 P13 S117 
G1 X42.03 Y-9.00 Z34.00 F3500 
M42 P11 S230 
M42 P12 S172 
M42 P13 S117 
G1 X42.21 Y-7.79 Z34.00 F3500 
M42 P11 S232 
M42 P12 S167 
M42 P13 S113 
G1 X42.22 Y-7.75 Z34.00 F3500 
M42 P11 S232 
M42 P12 S167 
M42 P13 S113 
G1 X42.22 Y-7.71 Z34.00 F3500 
M42 P11 S232 
M42 P12 S167 
M42 P13 S113 
G1 X42.30 Y-5.79 Z34.00 F3500 
M42 P11 S235 
M42 P12 S174 
M42 P13 S119 
G1 X42.30 Y-5.52 Z34.00 F3500 
M42 P11 S235 
M42 P12 S173 
M42 P13 S119 
G1 X42.30 Y-5.29 Z34.00 F3500 
M42 P11 S235 
M42 P12 S174 
M42 P13 S120 
G1 X42.22 Y-3.92 Z34.00 F3500 
M42 P11 S236 
M42 P12 S175 
M42 P13 S121 
G1 X42.14 Y-2.83 Z34.00 F3500 
M42 P11 S234 
M42 P12 S171 
M42 P13 S117 
G1 X42.07 Y-2.51 Z34.00 F3500 
M42 P11 S235 
M42 P12 S176 
M42 P13 S121 
G1 X41.96 Y-1.70 Z34.00 F3500 
M42 P11 S235 
M42 P12 S176 
M42 P13 S122 
G1 X41.59 Y0.09 Z34.00 F3500 
M42 P11 S234 
M42 P12 S168 
M42 P13 S116 
G1 X41.57 Y0.18 Z34.00 F3500 
M42 P11 S234 
M42 P12 S168 
M42 P13 S116 
G1 X41.45 Y0.63 Z34.00 F3500 
M42 P11 S235 
M42 P12 S170 
M42 P13 S119 
G1 X41.26 Y1.28 Z34.00 F3500 
M42 P11 S236 
M42 P12 S174 
M42 P13 S123 
G1 X41.22 Y1.44 Z34.00 F3500 
M42 P11 S236 
M42 P12 S174 
M42 P13 S123 
G1 X41.01 Y2.08 Z34.00 F3500 
M42 P11 S235 
M42 P12 S173 
M42 P13 S121 
G1 X40.81 Y2.67 Z34.00 F3500 
M42 P11 S234 
M42 P12 S173 
M42 P13 S119 
G1 X40.78 Y2.76 Z34.00 F3500 
M42 P11 S234 
M42 P12 S173 
M42 P13 S119 
G1 X40.72 Y2.91 Z34.00 F3500 
M42 P11 S233 
M42 P12 S172 
M42 P13 S118 
G1 X40.20 Y4.23 Z34.00 F3500 
M42 P11 S228 
M42 P12 S166 
M42 P13 S114 
G1 X39.73 Y5.24 Z34.00 F3500 
M42 P11 S226 
M42 P12 S163 
M42 P13 S112 
G1 X39.34 Y6.09 Z34.00 F3500 
M42 P11 S228 
M42 P12 S162 
M42 P13 S112 
G1 X39.20 Y6.39 Z34.00 F3500 
M42 P11 S228 
M42 P12 S162 
M42 P13 S112 
G1 X39.16 Y6.47 Z34.00 F3500 
M42 P11 S228 
M42 P12 S162 
M42 P13 S112 
G1 X39.06 Y6.64 Z34.00 F3500 
M42 P11 S227 
M42 P12 S161 
M42 P13 S112 
G1 X38.53 Y7.56 Z34.00 F3500 
M42 P11 S221 
M42 P12 S158 
M42 P13 S110 
G1 X38.23 Y8.08 Z34.00 F3500 
M42 P11 S217 
M42 P12 S155 
M42 P13 S109 
G1 X38.09 Y8.31 Z34.00 F3500 
M42 P11 S216 
M42 P12 S153 
M42 P13 S109 
G1 X37.95 Y8.52 Z34.00 F3500 
M42 P11 S215 
M42 P12 S153 
M42 P13 S109 
G1 X37.29 Y9.44 Z34.00 F3500 
M42 P11 S212 
M42 P12 S151 
M42 P13 S107 
G1 X36.52 Y10.46 Z34.00 F3500 
M42 P11 S214 
M42 P12 S150 
M42 P13 S105 
G1 X35.99 Y11.13 Z34.00 F3500 
M42 P11 S212 
M42 P12 S148 
M42 P13 S104 
G1 X35.79 Y11.37 Z34.00 F3500 
M42 P11 S212 
M42 P12 S149 
M42 P13 S103 
G1 X34.96 Y12.33 Z34.00 F3500 
M42 P11 S201 
M42 P12 S143 
M42 P13 S100 
G1 X34.20 Y13.17 Z34.00 F3500 
M42 P11 S202 
M42 P12 S143 
M42 P13 S98 
G1 X33.89 Y13.51 Z34.00 F3500 
M42 P11 S202 
M42 P12 S142 
M42 P13 S99 
G1 X33.07 Y14.34 Z34.00 F3500 
M42 P11 S196 
M42 P12 S139 
M42 P13 S96 
G1 X32.06 Y15.32 Z34.00 F3500 
M42 P11 S192 
M42 P12 S134 
M42 P13 S94 
G1 X31.31 Y16.05 Z34.00 F3500 
M42 P11 S191 
M42 P12 S134 
M42 P13 S91 
G1 X29.90 Y17.33 Z34.00 F3500 
M42 P11 S189 
M42 P12 S131 
M42 P13 S88 
G1 X27.76 Y19.22 Z34.00 F3500 
M42 P11 S184 
M42 P12 S124 
M42 P13 S86 
G1 X26.81 Y20.09 Z34.00 F3500 
M42 P11 S185 
M42 P12 S124 
M42 P13 S87 
G1 X25.30 Y21.40 Z34.00 F3500 
M42 P11 S182 
M42 P12 S123 
M42 P13 S86 
G1 X24.49 Y22.17 Z34.00 F3500 
M42 P11 S183 
M42 P12 S123 
M42 P13 S87 
G1 X22.45 Y23.99 Z34.00 F3500 
M42 P11 S186 
M42 P12 S125 
M42 P13 S88 
G1 X21.93 Y24.49 Z34.00 F3500 
M42 P11 S186 
M42 P12 S125 
M42 P13 S88 
G1 X21.12 Y25.22 Z34.00 F3500 
M42 P11 S185 
M42 P12 S124 
M42 P13 S87 
G1 X20.44 Y25.83 Z34.00 F3500 
M42 P11 S183 
M42 P12 S123 
M42 P13 S86 
G1 X19.86 Y26.33 Z34.00 F3500 
M42 P11 S184 
M42 P12 S124 
M42 P13 S87 
G1 X19.45 Y26.66 Z34.00 F3500 
M42 P11 S183 
M42 P12 S124 
M42 P13 S87 
G1 X18.65 Y27.37 Z34.00 F3500 
M42 P11 S183 
M42 P12 S124 
M42 P13 S86 
G1 X17.68 Y28.18 Z34.00 F3500 
M42 P11 S183 
M42 P12 S122 
M42 P13 S85 
G1 X17.35 Y28.45 Z34.00 F3500 
M42 P11 S182 
M42 P12 S121 
M42 P13 S84 
G1 X17.28 Y28.51 Z34.00 F3500 
M42 P11 S183 
M42 P12 S121 
M42 P13 S84 
G1 X17.23 Y28.53 Z34.00 F3500 
M42 P11 S182 
M42 P12 S121 
M42 P13 S83 
G1 X17.02 Y28.62 Z34.00 F3500 
M42 P11 S179 
M42 P12 S122 
M42 P13 S83 
G1 X16.96 Y28.63 Z34.00 F3500 
M42 P11 S179 
M42 P12 S122 
M42 P13 S82 
G1 X16.95 Y28.63 Z34.00 F3500 
M42 P11 S181 
M42 P12 S121 
M42 P13 S82 
M42 P4 S0 
M42 P5 S0 
M42 P6 S0 
G1 X-28.65 Y-19.38 Z36.00 F3500 
M42 P11 S190 
M42 P12 S125 
M42 P13 S89 
G1 X-28.64 Y-19.68 Z36.00 F3500 
M42 P11 S185 
M42 P12 S123 
M42 P13 S87 
G1 X-28.55 Y-20.09 Z36.00 F3500 
M42 P11 S187 
M42 P12 S126 
M42 P13 S87 
G1 X-28.53 Y-20.21 Z36.00 F3500 
M42 P11 S186 
M42 P12 S128 
M42 P13 S87 
G1 X-28.50 Y-20.28 Z36.00 F3500 
M42 P11 S186 
M42 P12 S128 
M42 P13 S88 
G1 X-28.22 Y-20.68 Z36.00 F3500 
M42 P11 S188 
M42 P12 S129 
M42 P13 S92 
G1 X-27.94 Y-21.13 Z36.00 F3500 
M42 P11 S191 
M42 P12 S127 
M42 P13 S91 
G1 X-27.71 Y-21.41 Z36.00 F3500 
M42 P11 S186 
M42 P12 S126 
M42 P13 S89 
G1 X-27.54 Y-21.60 Z36.00 F3500 
M42 P11 S186 
M42 P12 S126 
M42 P13 S89 
G1 X-27.47 Y-21.69 Z36.00 F3500 
M42 P11 S186 
M42 P12 S126 
M42 P13 S90 
G1 X-26.71 Y-22.49 Z36.00 F3500 
M42 P11 S188 
M42 P12 S128 
M42 P13 S93 
G1 X-25.25 Y-24.05 Z36.00 F3500 
M42 P11 S182 
M42 P12 S130 
M42 P13 S91 
G1 X-24.97 Y-24.34 Z36.00 F3500 
M42 P11 S183 
M42 P12 S130 
M42 P13 S91 
G1 X-23.30 Y-26.02 Z36.00 F3500 
M42 P11 S190 
M42 P12 S130 
M42 P13 S89 
G1 X-23.14 Y-26.13 Z36.00 F3500 
M42 P11 S190 
M42 P12 S130 
M42 P13 S93 
G1 X-21.41 Y-27.89 Z36.00 F3500 
M42 P11 S194 
M42 P12 S133 
M42 P13 S94 
G1 X-20.44 Y-28.80 Z36.00 F3500 
M42 P11 S197 
M42 P12 S137 
M42 P13 S100 
G1 X-20.24 Y-28.99 Z36.00 F3500 
M42 P11 S196 
M42 P12 S138 
M42 P13 S100 
G1 X-19.73 Y-29.45 Z36.00 F3500 
M42 P11 S194 
M42 P12 S136 
M42 P13 S98 
G1 X-17.47 Y-31.58 Z36.00 F3500 
M42 P11 S187 
M42 P12 S132 
M42 P13 S90 
G1 X-16.41 Y-32.57 Z36.00 F3500 
M42 P11 S189 
M42 P12 S134 
M42 P13 S92 
G1 X-14.06 Y-34.70 Z36.00 F3500 
M42 P11 S192 
M42 P12 S133 
M42 P13 S92 
G1 X-12.19 Y-36.38 Z36.00 F3500 
M42 P11 S194 
M42 P12 S137 
M42 P13 S96 
G1 X-11.59 Y-36.92 Z36.00 F3500 
M42 P11 S199 
M42 P12 S136 
M42 P13 S93 
G1 X-11.49 Y-37.00 Z36.00 F3500 
M42 P11 S199 
M42 P12 S136 
M42 P13 S93 
G1 X-10.72 Y-37.62 Z36.00 F3500 
M42 P11 S197 
M42 P12 S137 
M42 P13 S95 
G1 X-10.31 Y-37.94 Z36.00 F3500 
M42 P11 S196 
M42 P12 S137 
M42 P13 S97 
G1 X-10.23 Y-38.01 Z36.00 F3500 
M42 P11 S196 
M42 P12 S137 
M42 P13 S97 
G1 X-10.21 Y-38.02 Z36.00 F3500 
M42 P11 S196 
M42 P12 S137 
M42 P13 S97 
G1 X-10.15 Y-38.07 Z36.00 F3500 
M42 P11 S196 
M42 P12 S137 
M42 P13 S97 
G1 X-9.18 Y-38.74 Z36.00 F3500 
M42 P11 S200 
M42 P12 S138 
M42 P13 S94 
G1 X-9.09 Y-38.80 Z36.00 F3500 
M42 P11 S200 
M42 P12 S138 
M42 P13 S93 
G1 X-7.43 Y-39.78 Z36.00 F3500 
M42 P11 S206 
M42 P12 S142 
M42 P13 S100 
G1 X-7.11 Y-39.97 Z36.00 F3500 
M42 P11 S209 
M42 P12 S144 
M42 P13 S100 
G1 X-6.67 Y-40.18 Z36.00 F3500 
M42 P11 S215 
M42 P12 S146 
M42 P13 S102 
G1 X-4.95 Y-41.00 Z36.00 F3500 
M42 P11 S219 
M42 P12 S153 
M42 P13 S108 
G1 X-4.88 Y-41.05 Z36.00 F3500 
M42 P11 S217 
M42 P12 S153 
M42 P13 S108 
G1 X-4.69 Y-41.12 Z36.00 F3500 
M42 P11 S219 
M42 P12 S155 
M42 P13 S109 
G1 X-4.07 Y-41.34 Z36.00 F3500 
M42 P11 S221 
M42 P12 S156 
M42 P13 S110 
G1 X-3.45 Y-41.55 Z36.00 F3500 
M42 P11 S224 
M42 P12 S157 
M42 P13 S109 
G1 X-3.07 Y-41.66 Z36.00 F3500 
M42 P11 S224 
M42 P12 S158 
M42 P13 S110 
G1 X-2.51 Y-41.81 Z36.00 F3500 
M42 P11 S222 
M42 P12 S157 
M42 P13 S109 
G1 X-1.05 Y-42.14 Z36.00 F3500 
M42 P11 S224 
M42 P12 S160 
M42 P13 S112 
G1 X-0.96 Y-42.16 Z36.00 F3500 
M42 P11 S224 
M42 P12 S160 
M42 P13 S112 
G1 X0.28 Y-42.36 Z36.00 F3500 
M42 P11 S224 
M42 P12 S159 
M42 P13 S109 
G1 X0.67 Y-42.42 Z36.00 F3500 
M42 P11 S222 
M42 P12 S158 
M42 P13 S109 
G1 X1.28 Y-42.49 Z36.00 F3500 
M42 P11 S221 
M42 P12 S158 
M42 P13 S109 
G1 X2.26 Y-42.58 Z36.00 F3500 
M42 P11 S221 
M42 P12 S154 
M42 P13 S109 
G1 X2.50 Y-42.59 Z36.00 F3500 
M42 P11 S221 
M42 P12 S154 
M42 P13 S109 
G1 X4.12 Y-42.58 Z36.00 F3500 
M42 P11 S224 
M42 P12 S162 
M42 P13 S110 
G1 X4.57 Y-42.59 Z36.00 F3500 
M42 P11 S226 
M42 P12 S164 
M42 P13 S112 
G1 X5.32 Y-42.54 Z36.00 F3500 
M42 P11 S227 
M42 P12 S164 
M42 P13 S114 
G1 X5.73 Y-42.51 Z36.00 F3500 
M42 P11 S226 
M42 P12 S165 
M42 P13 S113 
G1 X6.93 Y-42.34 Z36.00 F3500 
M42 P11 S227 
M42 P12 S166 
M42 P13 S114 
G1 X7.44 Y-42.25 Z36.00 F3500 
M42 P11 S228 
M42 P12 S166 
M42 P13 S115 
G1 X7.52 Y-42.24 Z36.00 F3500 
M42 P11 S228 
M42 P12 S166 
M42 P13 S115 
G1 X7.77 Y-42.18 Z36.00 F3500 
M42 P11 S229 
M42 P12 S168 
M42 P13 S116 
G1 X7.99 Y-42.11 Z36.00 F3500 
M42 P11 S229 
M42 P12 S168 
M42 P13 S116 
G1 X8.76 Y-41.91 Z36.00 F3500 
M42 P11 S231 
M42 P12 S171 
M42 P13 S118 
G1 X8.93 Y-41.86 Z36.00 F3500 
M42 P11 S232 
M42 P12 S172 
M42 P13 S118 
G1 X9.24 Y-41.74 Z36.00 F3500 
M42 P11 S232 
M42 P12 S171 
M42 P13 S118 
G1 X9.66 Y-41.61 Z36.00 F3500 
M42 P11 S233 
M42 P12 S173 
M42 P13 S119 
G1 X10.20 Y-41.44 Z36.00 F3500 
M42 P11 S234 
M42 P12 S174 
M42 P13 S120 
G1 X10.93 Y-41.18 Z36.00 F3500 
M42 P11 S234 
M42 P12 S173 
M42 P13 S119 
G1 X11.00 Y-41.15 Z36.00 F3500 
M42 P11 S234 
M42 P12 S173 
M42 P13 S119 
G1 X11.91 Y-40.82 Z36.00 F3500 
M42 P11 S234 
M42 P12 S174 
M42 P13 S120 
G1 X13.88 Y-40.27 Z36.00 F3500 
M42 P11 S236 
M42 P12 S176 
M42 P13 S122 
G1 X14.25 Y-40.17 Z36.00 F3500 
M42 P11 S236 
M42 P12 S176 
M42 P13 S122 
G1 X14.31 Y-40.15 Z36.00 F3500 
M42 P11 S236 
M42 P12 S176 
M42 P13 S122 
G1 X15.05 Y-39.95 Z36.00 F3500 
M42 P11 S240 
M42 P12 S180 
M42 P13 S126 
G1 X15.59 Y-39.83 Z36.00 F3500 
M42 P11 S238 
M42 P12 S180 
M42 P13 S126 
G1 X16.93 Y-39.62 Z36.00 F3500 
M42 P11 S231 
M42 P12 S170 
M42 P13 S118 
G1 X18.36 Y-39.34 Z36.00 F3500 
M42 P11 S228 
M42 P12 S166 
M42 P13 S115 
G1 X19.10 Y-39.16 Z36.00 F3500 
M42 P11 S227 
M42 P12 S165 
M42 P13 S114 
G1 X20.14 Y-38.93 Z36.00 F3500 
M42 P11 S225 
M42 P12 S163 
M42 P13 S112 
G1 X20.46 Y-38.89 Z36.00 F3500 
M42 P11 S224 
M42 P12 S162 
M42 P13 S112 
G1 X22.04 Y-38.53 Z36.00 F3500 
M42 P11 S217 
M42 P12 S159 
M42 P13 S109 
G1 X22.04 Y-38.53 Z36.00 F3500 
M42 P11 S217 
M42 P12 S159 
M42 P13 S109 
G1 X22.04 Y-38.53 Z36.00 F3500 
M42 P11 S217 
M42 P12 S159 
M42 P13 S109 
G1 X22.04 Y-38.53 Z36.00 F3500 
M42 P11 S217 
M42 P12 S159 
M42 P13 S109 
G1 X23.54 Y-38.17 Z36.00 F3500 
M42 P11 S216 
M42 P12 S158 
M42 P13 S112 
G1 X23.64 Y-38.12 Z36.00 F3500 
M42 P11 S216 
M42 P12 S158 
M42 P13 S111 
G1 X23.87 Y-38.03 Z36.00 F3500 
M42 P11 S214 
M42 P12 S157 
M42 P13 S111 
G1 X24.95 Y-37.67 Z36.00 F3500 
M42 P11 S210 
M42 P12 S153 
M42 P13 S109 
G1 X25.83 Y-37.24 Z36.00 F3500 
M42 P11 S203 
M42 P12 S150 
M42 P13 S106 
G1 X25.84 Y-37.24 Z36.00 F3500 
M42 P11 S203 
M42 P12 S150 
M42 P13 S106 
G1 X25.85 Y-37.23 Z36.00 F3500 
M42 P11 S203 
M42 P12 S150 
M42 P13 S106 
G1 X26.28 Y-37.02 Z36.00 F3500 
M42 P11 S202 
M42 P12 S149 
M42 P13 S107 
G1 X26.49 Y-36.87 Z36.00 F3500 
M42 P11 S200 
M42 P12 S146 
M42 P13 S107 
G1 X27.09 Y-36.50 Z36.00 F3500 
M42 P11 S197 
M42 P12 S142 
M42 P13 S102 
G1 X27.49 Y-36.18 Z36.00 F3500 
M42 P11 S191 
M42 P12 S137 
M42 P13 S98 
G1 X28.01 Y-35.70 Z36.00 F3500 
M42 P11 S192 
M42 P12 S137 
M42 P13 S99 
G1 X28.75 Y-34.93 Z36.00 F3500 
M42 P11 S192 
M42 P12 S138 
M42 P13 S99 
G1 X29.53 Y-34.03 Z36.00 F3500 
M42 P11 S184 
M42 P12 S134 
M42 P13 S97 
G1 X29.66 Y-33.89 Z36.00 F3500 
M42 P11 S184 
M42 P12 S134 
M42 P13 S97 
G1 X29.72 Y-33.83 Z36.00 F3500 
M42 P11 S184 
M42 P12 S133 
M42 P13 S96 
G1 X30.22 Y-33.39 Z36.00 F3500 
M42 P11 S186 
M42 P12 S132 
M42 P13 S94 
G1 X30.46 Y-33.18 Z36.00 F3500 
M42 P11 S186 
M42 P12 S131 
M42 P13 S93 
G1 X31.60 Y-32.40 Z36.00 F3500 
M42 P11 S174 
M42 P12 S120 
M42 P13 S86 
G1 X31.69 Y-32.34 Z36.00 F3500 
M42 P11 S174 
M42 P12 S121 
M42 P13 S86 
G1 X32.75 Y-31.60 Z36.00 F3500 
M42 P11 S184 
M42 P12 S131 
M42 P13 S96 
G1 X34.03 Y-30.43 Z36.00 F3500 
M42 P11 S190 
M42 P12 S135 
M42 P13 S98 
G1 X34.29 Y-30.19 Z36.00 F3500 
M42 P11 S192 
M42 P12 S136 
M42 P13 S99 
G1 X34.38 Y-30.08 Z36.00 F3500 
M42 P11 S192 
M42 P12 S136 
M42 P13 S99 
G1 X34.76 Y-29.64 Z36.00 F3500 
M42 P11 S196 
M42 P12 S140 
M42 P13 S102 
G1 X34.97 Y-29.34 Z36.00 F3500 
M42 P11 S200 
M42 P12 S144 
M42 P13 S105 
G1 X35.17 Y-29.05 Z36.00 F3500 
M42 P11 S204 
M42 P12 S148 
M42 P13 S107 
G1 X35.39 Y-28.68 Z36.00 F3500 
M42 P11 S202 
M42 P12 S147 
M42 P13 S107 
G1 X35.55 Y-28.43 Z36.00 F3500 
M42 P11 S201 
M42 P12 S143 
M42 P13 S104 
G1 X35.80 Y-27.83 Z36.00 F3500 
M42 P11 S207 
M42 P12 S150 
M42 P13 S109 
G1 X36.41 Y-26.64 Z36.00 F3500 
M42 P11 S208 
M42 P12 S150 
M42 P13 S108 
G1 X36.44 Y-26.57 Z36.00 F3500 
M42 P11 S208 
M42 P12 S150 
M42 P13 S107 
G1 X36.55 Y-26.26 Z36.00 F3500 
M42 P11 S209 
M42 P12 S151 
M42 P13 S108 
G1 X36.84 Y-25.63 Z36.00 F3500 
M42 P11 S215 
M42 P12 S155 
M42 P13 S110 
G1 X37.04 Y-25.23 Z36.00 F3500 
M42 P11 S220 
M42 P12 S159 
M42 P13 S112 
G1 X37.39 Y-24.23 Z36.00 F3500 
M42 P11 S220 
M42 P12 S159 
M42 P13 S112 
G1 X37.54 Y-23.90 Z36.00 F3500 
M42 P11 S220 
M42 P12 S159 
M42 P13 S111 
G1 X37.56 Y-23.86 Z36.00 F3500 
M42 P11 S220 
M42 P12 S159 
M42 P13 S111 
G1 X37.64 Y-23.65 Z36.00 F3500 
M42 P11 S220 
M42 P12 S158 
M42 P13 S111 
G1 X37.87 Y-22.92 Z36.00 F3500 
M42 P11 S223 
M42 P12 S163 
M42 P13 S113 
G1 X37.88 Y-22.90 Z36.00 F3500 
M42 P11 S223 
M42 P12 S163 
M42 P13 S113 
G1 X38.16 Y-21.98 Z36.00 F3500 
M42 P11 S225 
M42 P12 S166 
M42 P13 S116 
G1 X38.77 Y-19.92 Z36.00 F3500 
M42 P11 S229 
M42 P12 S170 
M42 P13 S121 
G1 X38.84 Y-19.65 Z36.00 F3500 
M42 P11 S230 
M42 P12 S172 
M42 P13 S122 
G1 X38.87 Y-19.52 Z36.00 F3500 
M42 P11 S230 
M42 P12 S172 
M42 P13 S121 
G1 X39.05 Y-19.05 Z36.00 F3500 
M42 P11 S231 
M42 P12 S172 
M42 P13 S120 
G1 X39.31 Y-18.30 Z36.00 F3500 
M42 P11 S233 
M42 P12 S172 
M42 P13 S118 
G1 X39.60 Y-17.59 Z36.00 F3500 
M42 P11 S233 
M42 P12 S170 
M42 P13 S116 
G1 X40.18 Y-16.22 Z36.00 F3500 
M42 P11 S234 
M42 P12 S174 
M42 P13 S120 
G1 X40.38 Y-15.72 Z36.00 F3500 
M42 P11 S234 
M42 P12 S175 
M42 P13 S121 
G1 X40.65 Y-15.16 Z36.00 F3500 
M42 P11 S234 
M42 P12 S174 
M42 P13 S120 
G1 X40.90 Y-14.65 Z36.00 F3500 
M42 P11 S237 
M42 P12 S179 
M42 P13 S124 
G1 X41.10 Y-14.28 Z36.00 F3500 
M42 P11 S235 
M42 P12 S175 
M42 P13 S121 
G1 X41.16 Y-14.18 Z36.00 F3500 
M42 P11 S235 
M42 P12 S175 
M42 P13 S121 
G1 X41.25 Y-14.02 Z36.00 F3500 
M42 P11 S235 
M42 P12 S174 
M42 P13 S121 
G1 X41.42 Y-13.79 Z36.00 F3500 
M42 P11 S235 
M42 P12 S177 
M42 P13 S122 
G1 X41.83 Y-12.94 Z36.00 F3500 
M42 P11 S233 
M42 P12 S171 
M42 P13 S119 
G1 X42.03 Y-12.50 Z36.00 F3500 
M42 P11 S235 
M42 P12 S175 
M42 P13 S121 
G1 X42.52 Y-11.26 Z36.00 F3500 
M42 P11 S232 
M42 P12 S169 
M42 P13 S115 
G1 X42.53 Y-11.23 Z36.00 F3500 
M42 P11 S232 
M42 P12 S169 
M42 P13 S115 
G1 X42.53 Y-11.23 Z36.00 F3500 
M42 P11 S232 
M42 P12 S169 
M42 P13 S115 
G1 X42.55 Y-11.18 Z36.00 F3500 
M42 P11 S232 
M42 P12 S169 
M42 P13 S115 
G1 X42.57 Y-11.11 Z36.00 F3500 
M42 P11 S232 
M42 P12 S169 
M42 P13 S115 
G1 X43.01 Y-9.54 Z36.00 F3500 
M42 P11 S235 
M42 P12 S174 
M42 P13 S120 
G1 X43.01 Y-9.53 Z36.00 F3500 
M42 P11 S235 
M42 P12 S174 
M42 P13 S120 
G1 X43.21 Y-8.39 Z36.00 F3500 
M42 P11 S236 
M42 P12 S176 
M42 P13 S119 
G1 X43.28 Y-7.96 Z36.00 F3500 
M42 P11 S237 
M42 P12 S175 
M42 P13 S120 
G1 X43.35 Y-7.18 Z36.00 F3500 
M42 P11 S238 
M42 P12 S176 
M42 P13 S121 
G1 X43.40 Y-6.77 Z36.00 F3500 
M42 P11 S239 
M42 P12 S179 
M42 P13 S120 
G1 X43.41 Y-6.47 Z36.00 F3500 
M42 P11 S240 
M42 P12 S180 
M42 P13 S121 
G1 X43.42 Y-5.38 Z36.00 F3500 
M42 P11 S240 
M42 P12 S178 
M42 P13 S123 
G1 X43.42 Y-4.78 Z36.00 F3500 
M42 P11 S240 
M42 P12 S178 
M42 P13 S124 
G1 X43.42 Y-4.65 Z36.00 F3500 
M42 P11 S241 
M42 P12 S178 
M42 P13 S124 
G1 X43.41 Y-4.34 Z36.00 F3500 
M42 P11 S240 
M42 P12 S177 
M42 P13 S123 
G1 X43.32 Y-3.25 Z36.00 F3500 
M42 P11 S239 
M42 P12 S176 
M42 P13 S122 
G1 X43.22 Y-2.14 Z36.00 F3500 
M42 P11 S240 
M42 P12 S179 
M42 P13 S123 
G1 X42.98 Y-0.68 Z36.00 F3500 
M42 P11 S242 
M42 P12 S183 
M42 P13 S125 
G1 X42.85 Y-0.09 Z36.00 F3500 
M42 P11 S242 
M42 P12 S183 
M42 P13 S125 
G1 X42.68 Y0.58 Z36.00 F3500 
M42 P11 S239 
M42 P12 S178 
M42 P13 S123 
G1 X42.30 Y2.02 Z36.00 F3500 
M42 P11 S237 
M42 P12 S174 
M42 P13 S121 
G1 X42.10 Y2.70 Z36.00 F3500 
M42 P11 S237 
M42 P12 S175 
M42 P13 S122 
G1 X41.80 Y3.63 Z36.00 F3500 
M42 P11 S237 
M42 P12 S176 
M42 P13 S122 
G1 X41.56 Y4.34 Z36.00 F3500 
M42 P11 S236 
M42 P12 S176 
M42 P13 S122 
G1 X41.33 Y4.90 Z36.00 F3500 
M42 P11 S237 
M42 P12 S176 
M42 P13 S122 
G1 X40.93 Y5.83 Z36.00 F3500 
M42 P11 S234 
M42 P12 S173 
M42 P13 S119 
G1 X40.35 Y7.02 Z36.00 F3500 
M42 P11 S227 
M42 P12 S165 
M42 P13 S113 
G1 X40.06 Y7.61 Z36.00 F3500 
M42 P11 S222 
M42 P12 S158 
M42 P13 S110 
G1 X39.75 Y8.22 Z36.00 F3500 
M42 P11 S219 
M42 P12 S153 
M42 P13 S108 
G1 X39.59 Y8.51 Z36.00 F3500 
M42 P11 S219 
M42 P12 S151 
M42 P13 S106 
G1 X39.40 Y8.81 Z36.00 F3500 
M42 P11 S220 
M42 P12 S152 
M42 P13 S105 
G1 X39.22 Y9.09 Z36.00 F3500 
M42 P11 S218 
M42 P12 S151 
M42 P13 S104 
G1 X38.97 Y9.47 Z36.00 F3500 
M42 P11 S218 
M42 P12 S152 
M42 P13 S103 
G1 X38.31 Y10.42 Z36.00 F3500 
M42 P11 S216 
M42 P12 S153 
M42 P13 S105 
G1 X37.70 Y11.25 Z36.00 F3500 
M42 P11 S217 
M42 P12 S151 
M42 P13 S102 
G1 X37.04 Y12.07 Z36.00 F3500 
M42 P11 S214 
M42 P12 S148 
M42 P13 S102 
G1 X36.24 Y13.00 Z36.00 F3500 
M42 P11 S208 
M42 P12 S145 
M42 P13 S101 
G1 X35.15 Y14.24 Z36.00 F3500 
M42 P11 S209 
M42 P12 S146 
M42 P13 S102 
G1 X34.74 Y14.67 Z36.00 F3500 
M42 P11 S208 
M42 P12 S147 
M42 P13 S102 
G1 X34.43 Y15.01 Z36.00 F3500 
M42 P11 S205 
M42 P12 S143 
M42 P13 S99 
G1 X33.80 Y15.64 Z36.00 F3500 
M42 P11 S199 
M42 P12 S136 
M42 P13 S95 
G1 X33.39 Y16.03 Z36.00 F3500 
M42 P11 S197 
M42 P12 S135 
M42 P13 S95 
G1 X31.34 Y17.97 Z36.00 F3500 
M42 P11 S191 
M42 P12 S132 
M42 P13 S92 
G1 X31.18 Y18.11 Z36.00 F3500 
M42 P11 S191 
M42 P12 S132 
M42 P13 S92 
G1 X30.82 Y18.44 Z36.00 F3500 
M42 P11 S188 
M42 P12 S130 
M42 P13 S90 
G1 X28.86 Y20.16 Z36.00 F3500 
M42 P11 S179 
M42 P12 S121 
M42 P13 S84 
G1 X27.93 Y20.95 Z36.00 F3500 
M42 P11 S178 
M42 P12 S121 
M42 P13 S83 
G1 X27.20 Y21.61 Z36.00 F3500 
M42 P11 S179 
M42 P12 S122 
M42 P13 S84 
G1 X26.01 Y22.62 Z36.00 F3500 
M42 P11 S183 
M42 P12 S122 
M42 P13 S86 
G1 X25.38 Y23.19 Z36.00 F3500 
M42 P11 S181 
M42 P12 S121 
M42 P13 S85 
G1 X22.58 Y25.59 Z36.00 F3500 
M42 P11 S186 
M42 P12 S126 
M42 P13 S89 
G1 X22.35 Y25.78 Z36.00 F3500 
M42 P11 S186 
M42 P12 S126 
M42 P13 S89 
G1 X22.09 Y26.00 Z36.00 F3500 
M42 P11 S186 
M42 P12 S126 
M42 P13 S89 
G1 X20.87 Y26.99 Z36.00 F3500 
M42 P11 S183 
M42 P12 S125 
M42 P13 S87 
G1 X19.73 Y27.87 Z36.00 F3500 
M42 P11 S184 
M42 P12 S126 
M42 P13 S86 
G1 X17.51 Y29.71 Z36.00 F3500 
M42 P11 S177 
M42 P12 S121 
M42 P13 S83 
G1 X17.26 Y29.91 Z36.00 F3500 
M42 P11 S176 
M42 P12 S120 
M42 P13 S83 
G1 X17.07 Y30.07 Z36.00 F3500 
M42 P11 S176 
M42 P12 S120 
M42 P13 S83 
G1 X17.06 Y30.08 Z36.00 F3500 
M42 P11 S176 
M42 P12 S120 
M42 P13 S83 
G1 X16.44 Y30.60 Z36.00 F3500 
M42 P11 S181 
M42 P12 S122 
M42 P13 S85 
G1 X16.32 Y30.66 Z36.00 F3500 
M42 P11 S178 
M42 P12 S120 
M42 P13 S83 
G1 X16.30 Y30.68 Z36.00 F3500 
M42 P11 S178 
M42 P12 S123 
M42 P13 S84 
G1 X16.22 Y30.72 Z36.00 F3500 
M42 P11 S179 
M42 P12 S124 
M42 P13 S85 
M42 P4 S0 
M42 P5 S0 
M42 P6 S0 
G1 X-30.18 Y-19.02 Z38.00 F3500 
M42 P11 S162 
M42 P12 S108 
M42 P13 S76 
G1 X-30.15 Y-19.10 Z38.00 F3500 
M42 P11 S159 
M42 P12 S106 
M42 P13 S74 
G1 X-29.99 Y-19.52 Z38.00 F3500 
M42 P11 S174 
M42 P12 S118 
M42 P13 S84 
G1 X-29.79 Y-19.98 Z38.00 F3500 
M42 P11 S190 
M42 P12 S133 
M42 P13 S95 
G1 X-29.21 Y-20.64 Z38.00 F3500 
M42 P11 S190 
M42 P12 S129 
M42 P13 S93 
G1 X-29.05 Y-20.86 Z38.00 F3500 
M42 P11 S191 
M42 P12 S131 
M42 P13 S92 
G1 X-28.72 Y-21.29 Z38.00 F3500 
M42 P11 S193 
M42 P12 S133 
M42 P13 S92 
G1 X-26.82 Y-23.38 Z38.00 F3500 
M42 P11 S192 
M42 P12 S133 
M42 P13 S96 
G1 X-26.72 Y-23.50 Z38.00 F3500 
M42 P11 S192 
M42 P12 S134 
M42 P13 S97 
G1 X-26.56 Y-23.66 Z38.00 F3500 
M42 P11 S192 
M42 P12 S134 
M42 P13 S97 
G1 X-25.60 Y-24.74 Z38.00 F3500 
M42 P11 S188 
M42 P12 S130 
M42 P13 S92 
G1 X-25.16 Y-25.26 Z38.00 F3500 
M42 P11 S185 
M42 P12 S129 
M42 P13 S91 
G1 X-23.84 Y-26.71 Z38.00 F3500 
M42 P11 S190 
M42 P12 S132 
M42 P13 S94 
G1 X-23.45 Y-27.11 Z38.00 F3500 
M42 P11 S192 
M42 P12 S132 
M42 P13 S94 
G1 X-23.41 Y-27.13 Z38.00 F3500 
M42 P11 S192 
M42 P12 S132 
M42 P13 S95 
G1 X-19.87 Y-30.72 Z38.00 F3500 
M42 P11 S199 
M42 P12 S137 
M42 P13 S96 
G1 X-19.58 Y-31.00 Z38.00 F3500 
M42 P11 S200 
M42 P12 S138 
M42 P13 S98 
G1 X-17.72 Y-32.83 Z38.00 F3500 
M42 P11 S196 
M42 P12 S137 
M42 P13 S97 
G1 X-14.98 Y-35.48 Z38.00 F3500 
M42 P11 S199 
M42 P12 S136 
M42 P13 S93 
G1 X-14.45 Y-35.98 Z38.00 F3500 
M42 P11 S197 
M42 P12 S135 
M42 P13 S92 
G1 X-13.77 Y-36.61 Z38.00 F3500 
M42 P11 S199 
M42 P12 S136 
M42 P13 S92 
G1 X-12.30 Y-37.90 Z38.00 F3500 
M42 P11 S205 
M42 P12 S143 
M42 P13 S99 
G1 X-12.00 Y-38.17 Z38.00 F3500 
M42 P11 S207 
M42 P12 S141 
M42 P13 S100 
G1 X-11.19 Y-38.77 Z38.00 F3500 
M42 P11 S211 
M42 P12 S145 
M42 P13 S102 
G1 X-10.18 Y-39.46 Z38.00 F3500 
M42 P11 S215 
M42 P12 S149 
M42 P13 S105 
G1 X-9.80 Y-39.71 Z38.00 F3500 
M42 P11 S212 
M42 P12 S148 
M42 P13 S106 
G1 X-9.59 Y-39.85 Z38.00 F3500 
M42 P11 S211 
M42 P12 S145 
M42 P13 S103 
G1 X-8.56 Y-40.48 Z38.00 F3500 
M42 P11 S215 
M42 P12 S151 
M42 P13 S105 
G1 X-8.51 Y-40.51 Z38.00 F3500 
M42 P11 S215 
M42 P12 S151 
M42 P13 S105 
G1 X-8.46 Y-40.53 Z38.00 F3500 
M42 P11 S215 
M42 P12 S151 
M42 P13 S105 
G1 X-7.11 Y-41.22 Z38.00 F3500 
M42 P11 S220 
M42 P12 S155 
M42 P13 S107 
G1 X-6.60 Y-41.47 Z38.00 F3500 
M42 P11 S219 
M42 P12 S154 
M42 P13 S106 
G1 X-5.90 Y-41.79 Z38.00 F3500 
M42 P11 S222 
M42 P12 S158 
M42 P13 S108 
G1 X-5.66 Y-41.89 Z38.00 F3500 
M42 P11 S223 
M42 P12 S160 
M42 P13 S109 
G1 X-4.74 Y-42.22 Z38.00 F3500 
M42 P11 S227 
M42 P12 S162 
M42 P13 S111 
G1 X-3.58 Y-42.63 Z38.00 F3500 
M42 P11 S227 
M42 P12 S164 
M42 P13 S114 
G1 X-3.45 Y-42.67 Z38.00 F3500 
M42 P11 S227 
M42 P12 S165 
M42 P13 S114 
G1 X-2.55 Y-42.89 Z38.00 F3500 
M42 P11 S230 
M42 P12 S166 
M42 P13 S116 
G1 X-2.30 Y-42.94 Z38.00 F3500 
M42 P11 S230 
M42 P12 S166 
M42 P13 S115 
G1 X-1.87 Y-43.02 Z38.00 F3500 
M42 P11 S230 
M42 P12 S167 
M42 P13 S115 
G1 X-0.51 Y-43.25 Z38.00 F3500 
M42 P11 S231 
M42 P12 S167 
M42 P13 S113 
G1 X-0.19 Y-43.28 Z38.00 F3500 
M42 P11 S231 
M42 P12 S167 
M42 P13 S113 
G1 X1.60 Y-43.46 Z38.00 F3500 
M42 P11 S226 
M42 P12 S163 
M42 P13 S114 
G1 X2.36 Y-43.49 Z38.00 F3500 
M42 P11 S226 
M42 P12 S163 
M42 P13 S113 
G1 X3.18 Y-43.52 Z38.00 F3500 
M42 P11 S228 
M42 P12 S165 
M42 P13 S114 
G1 X3.95 Y-43.49 Z38.00 F3500 
M42 P11 S228 
M42 P12 S166 
M42 P13 S114 
G1 X4.81 Y-43.46 Z38.00 F3500 
M42 P11 S228 
M42 P12 S166 
M42 P13 S113 
G1 X5.17 Y-43.45 Z38.00 F3500 
M42 P11 S228 
M42 P12 S166 
M42 P13 S114 
G1 X5.79 Y-43.38 Z38.00 F3500 
M42 P11 S229 
M42 P12 S169 
M42 P13 S115 
G1 X6.31 Y-43.30 Z38.00 F3500 
M42 P11 S230 
M42 P12 S170 
M42 P13 S116 
G1 X6.98 Y-43.16 Z38.00 F3500 
M42 P11 S231 
M42 P12 S170 
M42 P13 S117 
G1 X7.67 Y-43.02 Z38.00 F3500 
M42 P11 S233 
M42 P12 S171 
M42 P13 S120 
G1 X7.80 Y-42.99 Z38.00 F3500 
M42 P11 S234 
M42 P12 S172 
M42 P13 S121 
G1 X8.82 Y-42.68 Z38.00 F3500 
M42 P11 S234 
M42 P12 S174 
M42 P13 S120 
G1 X9.10 Y-42.57 Z38.00 F3500 
M42 P11 S235 
M42 P12 S174 
M42 P13 S120 
G1 X10.11 Y-42.15 Z38.00 F3500 
M42 P11 S235 
M42 P12 S173 
M42 P13 S121 
G1 X11.00 Y-41.71 Z38.00 F3500 
M42 P11 S233 
M42 P12 S175 
M42 P13 S122 
G1 X11.36 Y-41.50 Z38.00 F3500 
M42 P11 S232 
M42 P12 S175 
M42 P13 S121 
G1 X12.49 Y-41.00 Z38.00 F3500 
M42 P11 S234 
M42 P12 S174 
M42 P13 S120 
G1 X12.85 Y-40.79 Z38.00 F3500 
M42 P11 S233 
M42 P12 S173 
M42 P13 S119 
G1 X13.20 Y-40.66 Z38.00 F3500 
M42 P11 S234 
M42 P12 S173 
M42 P13 S120 
G1 X13.37 Y-40.57 Z38.00 F3500 
M42 P11 S234 
M42 P12 S172 
M42 P13 S121 
G1 X13.70 Y-40.43 Z38.00 F3500 
M42 P11 S234 
M42 P12 S173 
M42 P13 S121 
G1 X14.35 Y-40.20 Z38.00 F3500 
M42 P11 S232 
M42 P12 S174 
M42 P13 S121 
G1 X14.76 Y-40.09 Z38.00 F3500 
M42 P11 S236 
M42 P12 S176 
M42 P13 S123 
G1 X15.59 Y-39.83 Z38.00 F3500 
M42 P11 S237 
M42 P12 S177 
M42 P13 S123 
G1 X16.12 Y-39.72 Z38.00 F3500 
M42 P11 S235 
M42 P12 S177 
M42 P13 S122 
G1 X16.35 Y-39.69 Z38.00 F3500 
M42 P11 S234 
M42 P12 S176 
M42 P13 S124 
G1 X16.70 Y-39.65 Z38.00 F3500 
M42 P11 S234 
M42 P12 S176 
M42 P13 S123 
G1 X17.17 Y-39.60 Z38.00 F3500 
M42 P11 S232 
M42 P12 S174 
M42 P13 S121 
G1 X18.19 Y-39.46 Z38.00 F3500 
M42 P11 S226 
M42 P12 S165 
M42 P13 S115 
G1 X18.88 Y-39.42 Z38.00 F3500 
M42 P11 S225 
M42 P12 S163 
M42 P13 S116 
G1 X19.20 Y-39.39 Z38.00 F3500 
M42 P11 S224 
M42 P12 S162 
M42 P13 S115 
G1 X21.41 Y-39.25 Z38.00 F3500 
M42 P11 S217 
M42 P12 S154 
M42 P13 S110 
G1 X21.56 Y-39.27 Z38.00 F3500 
M42 P11 S216 
M42 P12 S154 
M42 P13 S110 
G1 X22.15 Y-39.18 Z38.00 F3500 
M42 P11 S214 
M42 P12 S152 
M42 P13 S110 
G1 X23.10 Y-39.07 Z38.00 F3500 
M42 P11 S210 
M42 P12 S153 
M42 P13 S108 
G1 X23.16 Y-39.06 Z38.00 F3500 
M42 P11 S210 
M42 P12 S153 
M42 P13 S108 
G1 X23.35 Y-39.03 Z38.00 F3500 
M42 P11 S209 
M42 P12 S152 
M42 P13 S107 
G1 X24.42 Y-38.90 Z38.00 F3500 
M42 P11 S194 
M42 P12 S131 
M42 P13 S95 
G1 X24.66 Y-38.87 Z38.00 F3500 
M42 P11 S190 
M42 P12 S128 
M42 P13 S92 
G1 X25.48 Y-38.70 Z38.00 F3500 
M42 P11 S179 
M42 P12 S114 
M42 P13 S82 
G1 X26.40 Y-38.63 Z38.00 F3500 
M42 P11 S157 
M42 P12 S93 
M42 P13 S65 
G1 X26.44 Y-38.63 Z38.00 F3500 
M42 P11 S156 
M42 P12 S92 
M42 P13 S65 
G1 X27.52 Y-38.34 Z38.00 F3500 
M42 P11 S152 
M42 P12 S85 
M42 P13 S60 
G1 X28.58 Y-38.05 Z38.00 F3500 
M42 P11 S151 
M42 P12 S80 
M42 P13 S58 
G1 X29.69 Y-37.56 Z38.00 F3500 
M42 P11 S149 
M42 P12 S81 
M42 P13 S60 
G1 X29.75 Y-37.53 Z38.00 F3500 
M42 P11 S149 
M42 P12 S81 
M42 P13 S60 
G1 X29.83 Y-37.47 Z38.00 F3500 
M42 P11 S150 
M42 P12 S81 
M42 P13 S60 
G1 X30.02 Y-37.33 Z38.00 F3500 
M42 P11 S149 
M42 P12 S79 
M42 P13 S58 
G1 X31.25 Y-36.40 Z38.00 F3500 
M42 P11 S149 
M42 P12 S75 
M42 P13 S54 
G1 X32.40 Y-35.40 Z38.00 F3500 
M42 P11 S155 
M42 P12 S77 
M42 P13 S57 
G1 X32.43 Y-35.37 Z38.00 F3500 
M42 P11 S155 
M42 P12 S77 
M42 P13 S57 
G1 X32.43 Y-35.37 Z38.00 F3500 
M42 P11 S155 
M42 P12 S77 
M42 P13 S57 
G1 X32.44 Y-35.36 Z38.00 F3500 
M42 P11 S155 
M42 P12 S77 
M42 P13 S57 
G1 X32.45 Y-35.36 Z38.00 F3500 
M42 P11 S155 
M42 P12 S77 
M42 P13 S57 
G1 X33.30 Y-34.43 Z38.00 F3500 
M42 P11 S157 
M42 P12 S81 
M42 P13 S58 
G1 X34.18 Y-33.48 Z38.00 F3500 
M42 P11 S155 
M42 P12 S74 
M42 P13 S55 
G1 X34.20 Y-33.45 Z38.00 F3500 
M42 P11 S156 
M42 P12 S74 
M42 P13 S55 
G1 X34.24 Y-33.40 Z38.00 F3500 
M42 P11 S155 
M42 P12 S74 
M42 P13 S55 
G1 X35.03 Y-32.32 Z38.00 F3500 
M42 P11 S158 
M42 P12 S79 
M42 P13 S58 
G1 X35.39 Y-31.82 Z38.00 F3500 
M42 P11 S156 
M42 P12 S78 
M42 P13 S58 
G1 X35.48 Y-31.67 Z38.00 F3500 
M42 P11 S157 
M42 P12 S79 
M42 P13 S59 
G1 X35.52 Y-31.61 Z38.00 F3500 
M42 P11 S157 
M42 P12 S79 
M42 P13 S59 
G1 X35.55 Y-31.55 Z38.00 F3500 
M42 P11 S158 
M42 P12 S80 
M42 P13 S60 
G1 X36.08 Y-30.41 Z38.00 F3500 
M42 P11 S173 
M42 P12 S97 
M42 P13 S72 
G1 X36.35 Y-29.77 Z38.00 F3500 
M42 P11 S175 
M42 P12 S98 
M42 P13 S73 
G1 X36.38 Y-29.69 Z38.00 F3500 
M42 P11 S175 
M42 P12 S99 
M42 P13 S73 
G1 X36.49 Y-29.38 Z38.00 F3500 
M42 P11 S177 
M42 P12 S101 
M42 P13 S75 
G1 X36.94 Y-27.96 Z38.00 F3500 
M42 P11 S188 
M42 P12 S116 
M42 P13 S86 
G1 X37.11 Y-27.42 Z38.00 F3500 
M42 P11 S191 
M42 P12 S123 
M42 P13 S90 
G1 X37.20 Y-27.11 Z38.00 F3500 
M42 P11 S191 
M42 P12 S120 
M42 P13 S88 
G1 X37.57 Y-25.58 Z38.00 F3500 
M42 P11 S197 
M42 P12 S132 
M42 P13 S94 
G1 X37.93 Y-23.97 Z38.00 F3500 
M42 P11 S220 
M42 P12 S158 
M42 P13 S114 
G1 X38.00 Y-23.73 Z38.00 F3500 
M42 P11 S221 
M42 P12 S158 
M42 P13 S114 
G1 X38.26 Y-22.62 Z38.00 F3500 
M42 P11 S222 
M42 P12 S159 
M42 P13 S113 
G1 X38.40 Y-21.99 Z38.00 F3500 
M42 P11 S222 
M42 P12 S160 
M42 P13 S113 
G1 X38.44 Y-21.79 Z38.00 F3500 
M42 P11 S221 
M42 P12 S159 
M42 P13 S113 
G1 X38.51 Y-21.48 Z38.00 F3500 
M42 P11 S223 
M42 P12 S161 
M42 P13 S113 
G1 X38.92 Y-19.74 Z38.00 F3500 
M42 P11 S227 
M42 P12 S168 
M42 P13 S118 
G1 X39.08 Y-19.28 Z38.00 F3500 
M42 P11 S227 
M42 P12 S170 
M42 P13 S118 
G1 X39.12 Y-19.12 Z38.00 F3500 
M42 P11 S227 
M42 P12 S170 
M42 P13 S118 
G1 X39.19 Y-18.92 Z38.00 F3500 
M42 P11 S228 
M42 P12 S170 
M42 P13 S117 
G1 X39.69 Y-17.72 Z38.00 F3500 
M42 P11 S229 
M42 P12 S167 
M42 P13 S117 
G1 X39.99 Y-17.08 Z38.00 F3500 
M42 P11 S229 
M42 P12 S166 
M42 P13 S116 
G1 X40.31 Y-16.52 Z38.00 F3500 
M42 P11 S230 
M42 P12 S168 
M42 P13 S116 
G1 X40.52 Y-16.11 Z38.00 F3500 
M42 P11 S230 
M42 P12 S168 
M42 P13 S115 
G1 X40.71 Y-15.83 Z38.00 F3500 
M42 P11 S231 
M42 P12 S170 
M42 P13 S116 
G1 X40.85 Y-15.67 Z38.00 F3500 
M42 P11 S229 
M42 P12 S168 
M42 P13 S115 
G1 X41.23 Y-15.13 Z38.00 F3500 
M42 P11 S231 
M42 P12 S171 
M42 P13 S118 
G1 X41.38 Y-14.97 Z38.00 F3500 
M42 P11 S234 
M42 P12 S174 
M42 P13 S120 
G1 X41.59 Y-14.70 Z38.00 F3500 
M42 P11 S235 
M42 P12 S175 
M42 P13 S121 
G1 X41.77 Y-14.43 Z38.00 F3500 
M42 P11 S235 
M42 P12 S175 
M42 P13 S121 
G1 X42.32 Y-13.62 Z38.00 F3500 
M42 P11 S237 
M42 P12 S176 
M42 P13 S122 
G1 X42.73 Y-12.85 Z38.00 F3500 
M42 P11 S235 
M42 P12 S173 
M42 P13 S121 
G1 X42.78 Y-12.75 Z38.00 F3500 
M42 P11 S234 
M42 P12 S171 
M42 P13 S119 
G1 X43.06 Y-12.18 Z38.00 F3500 
M42 P11 S232 
M42 P12 S171 
M42 P13 S117 
G1 X43.10 Y-12.08 Z38.00 F3500 
M42 P11 S233 
M42 P12 S172 
M42 P13 S118 
G1 X43.36 Y-11.36 Z38.00 F3500 
M42 P11 S237 
M42 P12 S176 
M42 P13 S122 
G1 X43.56 Y-10.81 Z38.00 F3500 
M42 P11 S235 
M42 P12 S174 
M42 P13 S120 
G1 X43.74 Y-10.23 Z38.00 F3500 
M42 P11 S237 
M42 P12 S176 
M42 P13 S121 
G1 X43.84 Y-9.83 Z38.00 F3500 
M42 P11 S238 
M42 P12 S177 
M42 P13 S122 
G1 X43.96 Y-9.25 Z38.00 F3500 
M42 P11 S238 
M42 P12 S177 
M42 P13 S120 
G1 X44.01 Y-9.03 Z38.00 F3500 
M42 P11 S238 
M42 P12 S176 
M42 P13 S121 
G1 X44.11 Y-8.45 Z38.00 F3500 
M42 P11 S239 
M42 P12 S177 
M42 P13 S121 
G1 X44.24 Y-7.62 Z38.00 F3500 
M42 P11 S240 
M42 P12 S178 
M42 P13 S119 
G1 X44.25 Y-7.55 Z38.00 F3500 
M42 P11 S240 
M42 P12 S178 
M42 P13 S119 
G1 X44.26 Y-7.51 Z38.00 F3500 
M42 P11 S240 
M42 P12 S178 
M42 P13 S119 
G1 X44.30 Y-7.02 Z38.00 F3500 
M42 P11 S241 
M42 P12 S179 
M42 P13 S121 
G1 X44.39 Y-5.90 Z38.00 F3500 
M42 P11 S243 
M42 P12 S182 
