;code generated for light painting
;by grass hopper
G28
G90
G21
G1 X2.75 Y34.41 Z12.00 F3500 
M42 P11 S255 
G1 X11.81 Y35.52 Z12.00 F3500 
M42 P11 S0 
G1 X20.77 Y33.62 Z12.00 F3500 
M42 P11 S255 
G1 X28.83 Y29.26 Z12.00 F3500 
M42 P11 S0 
G1 X35.35 Y22.83 Z12.00 F3500 
M42 P11 S255 
G1 X40.17 Y15.02 Z12.00 F3500 
M42 P11 S0 
G1 X43.50 Y6.46 Z12.00 F3500 
M42 P11 S255 
G1 X45.15 Y-2.56 Z12.00 F3500 
M42 P11 S0 
G1 X43.98 Y-11.59 Z12.00 F3500 
M42 P11 S255 
G1 X37.40 Y-17.46 Z12.00 F3500 
M42 P11 S0 
G1 X28.38 Y-16.48 Z12.00 F3500 
M42 P11 S255 
G1 X19.82 Y-13.12 Z12.00 F3500 
M42 P11 S0 
G1 X11.12 Y-10.22 Z12.00 F3500 
M42 P11 S255 
G1 X4.81 Y-15.25 Z12.00 F3500 
M42 P11 S0 
G1 X2.68 Y-24.19 Z12.00 F3500 
M42 P11 S255 
G1 X-2.35 Y-31.68 Z12.00 F3500 
M42 P11 S0 
G1 X-10.87 Y-34.88 Z12.00 F3500 
M42 P11 S255 
G1 X-20.02 Y-34.76 Z12.00 F3500 
M42 P11 S0 
G1 X-28.67 Y-31.79 Z12.00 F3500 
M42 P11 S255 
G1 X-35.70 Y-25.95 Z12.00 F3500 
M42 P11 S0 
G1 X-40.66 Y-18.24 Z12.00 F3500 
M42 P11 S255 
G1 X-43.75 Y-9.60 Z12.00 F3500 
M42 P11 S0 
G1 X-43.78 Y-0.58 Z12.00 F3500 
M42 P11 S255 
G1 X-35.54 Y1.04 Z12.00 F3500 
M42 P11 S0 
G1 X-26.79 Y-1.77 Z12.00 F3500 
M42 P11 S255 
G1 X-17.78 Y-3.27 Z12.00 F3500 
M42 P11 S0 
G1 X-11.95 Y3.02 Z12.00 F3500 
M42 P11 S255 
G1 X-10.36 Y12.06 Z12.00 F3500 
M42 P11 S0 
G1 X-8.78 Y21.11 Z12.00 F3500 
M42 P11 S255 
G1 X-4.73 Y29.28 Z12.00 F3500 
M42 P11 S0 
G1 X2.87 Y34.04 Z15.00 F3500 
M42 P11 S255 
G1 X11.79 Y35.30 Z15.00 F3500 
M42 P11 S0 
G1 X20.64 Y33.52 Z15.00 F3500 
M42 P11 S255 
G1 X28.62 Y29.28 Z15.00 F3500 
M42 P11 S0 
G1 X35.10 Y22.98 Z15.00 F3500 
M42 P11 S255 
G1 X39.92 Y15.32 Z15.00 F3500 
M42 P11 S0 
G1 X43.24 Y6.90 Z15.00 F3500 
M42 P11 S255 
G1 X44.92 Y-1.99 Z15.00 F3500 
M42 P11 S0 
G1 X44.01 Y-10.95 Z15.00 F3500 
M42 P11 S255 
G1 X38.23 Y-17.56 Z15.00 F3500 
M42 P11 S0 
G1 X29.33 Y-17.56 Z15.00 F3500 
M42 P11 S255 
G1 X20.81 Y-14.47 Z15.00 F3500 
M42 P11 S0 
G1 X12.31 Y-11.34 Z15.00 F3500 
M42 P11 S255 
G1 X5.09 Y-14.59 Z15.00 F3500 
M42 P11 S0 
G1 X2.59 Y-23.30 Z15.00 F3500 
M42 P11 S255 
G1 X-2.49 Y-30.63 Z15.00 F3500 
M42 P11 S0 
G1 X-10.84 Y-33.96 Z15.00 F3500 
M42 P11 S255 
G1 X-19.86 Y-34.06 Z15.00 F3500 
M42 P11 S0 
G1 X-28.44 Y-31.27 Z15.00 F3500 
M42 P11 S255 
G1 X-35.48 Y-25.63 Z15.00 F3500 
M42 P11 S0 
G1 X-40.51 Y-18.12 Z15.00 F3500 
M42 P11 S255 
G1 X-43.66 Y-9.64 Z15.00 F3500 
M42 P11 S0 
G1 X-44.14 Y-0.68 Z15.00 F3500 
M42 P11 S255 
G1 X-36.75 Y2.54 Z15.00 F3500 
M42 P11 S0 
G1 X-28.04 Y0.02 Z15.00 F3500 
M42 P11 S255 
G1 X-19.20 Y-1.84 Z15.00 F3500 
M42 P11 S0 
G1 X-12.63 Y3.31 Z15.00 F3500 
M42 P11 S255 
G1 X-10.67 Y12.15 Z15.00 F3500 
M42 P11 S0 
G1 X-8.78 Y21.01 Z15.00 F3500 
M42 P11 S255 
G1 X-4.50 Y28.93 Z15.00 F3500 
M42 P11 S0 
G1 X2.99 Y33.67 Z18.00 F3500 
M42 P11 S255 
G1 X11.77 Y35.08 Z18.00 F3500 
M42 P11 S0 
G1 X20.53 Y33.42 Z18.00 F3500 
M42 P11 S255 
G1 X28.43 Y29.28 Z18.00 F3500 
M42 P11 S0 
G1 X34.87 Y23.12 Z18.00 F3500 
M42 P11 S255 
G1 X39.67 Y15.58 Z18.00 F3500 
M42 P11 S0 
G1 X43.00 Y7.29 Z18.00 F3500 
M42 P11 S255 
G1 X44.70 Y-1.48 Z18.00 F3500 
M42 P11 S0 
G1 X43.98 Y-10.35 Z18.00 F3500 
M42 P11 S255 
G1 X38.93 Y-17.48 Z18.00 F3500 
M42 P11 S0 
G1 X30.26 Y-18.53 Z18.00 F3500 
M42 P11 S255 
G1 X21.76 Y-15.78 Z18.00 F3500 
M42 P11 S0 
G1 X13.42 Y-12.55 Z18.00 F3500 
M42 P11 S255 
G1 X5.50 Y-14.00 Z18.00 F3500 
M42 P11 S0 
G1 X2.51 Y-22.42 Z18.00 F3500 
M42 P11 S255 
G1 X-2.64 Y-29.58 Z18.00 F3500 
M42 P11 S0 
G1 X-10.81 Y-33.04 Z18.00 F3500 
M42 P11 S255 
G1 X-19.72 Y-33.36 Z18.00 F3500 
M42 P11 S0 
G1 X-28.22 Y-30.74 Z18.00 F3500 
M42 P11 S255 
G1 X-35.27 Y-25.29 Z18.00 F3500 
M42 P11 S0 
G1 X-40.37 Y-17.97 Z18.00 F3500 
M42 P11 S255 
G1 X-43.58 Y-9.64 Z18.00 F3500 
M42 P11 S0 
G1 X-44.37 Y-0.79 Z18.00 F3500 
M42 P11 S255 
G1 X-37.96 Y3.91 Z18.00 F3500 
M42 P11 S0 
G1 X-29.28 Y1.80 Z18.00 F3500 
M42 P11 S255 
G1 X-20.59 Y-0.28 Z18.00 F3500 
M42 P11 S0 
G1 X-13.36 Y3.63 Z18.00 F3500 
M42 P11 S255 
G1 X-10.98 Y12.24 Z18.00 F3500 
M42 P11 S0 
G1 X-8.76 Y20.90 Z18.00 F3500 
M42 P11 S255 
G1 X-4.26 Y28.58 Z18.00 F3500 
M42 P11 S0 
G1 X3.12 Y33.29 Z21.00 F3500 
M42 P11 S255 
G1 X11.76 Y34.85 Z21.00 F3500 
M42 P11 S0 
G1 X20.42 Y33.31 Z21.00 F3500 
M42 P11 S255 
G1 X28.25 Y29.27 Z21.00 F3500 
M42 P11 S0 
G1 X34.66 Y23.23 Z21.00 F3500 
M42 P11 S255 
G1 X39.45 Y15.81 Z21.00 F3500 
M42 P11 S0 
G1 X42.77 Y7.63 Z21.00 F3500 
M42 P11 S255 
G1 X44.47 Y-1.02 Z21.00 F3500 
M42 P11 S0 
G1 X43.90 Y-9.80 Z21.00 F3500 
M42 P11 S255 
G1 X39.48 Y-17.28 Z21.00 F3500 
M42 P11 S0 
G1 X31.14 Y-19.38 Z21.00 F3500 
M42 P11 S255 
G1 X22.64 Y-17.05 Z21.00 F3500 
M42 P11 S0 
G1 X14.42 Y-13.80 Z21.00 F3500 
M42 P11 S255 
G1 X6.10 Y-13.54 Z21.00 F3500 
M42 P11 S0 
G1 X2.44 Y-21.54 Z21.00 F3500 
M42 P11 S255 
G1 X-2.78 Y-28.53 Z21.00 F3500 
M42 P11 S0 
G1 X-10.80 Y-32.11 Z21.00 F3500 
M42 P11 S255 
G1 X-19.58 Y-32.65 Z21.00 F3500 
M42 P11 S0 
G1 X-28.02 Y-30.20 Z21.00 F3500 
M42 P11 S255 
G1 X-35.06 Y-24.93 Z21.00 F3500 
M42 P11 S0 
G1 X-40.23 Y-17.80 Z21.00 F3500 
M42 P11 S255 
G1 X-43.50 Y-9.60 Z21.00 F3500 
M42 P11 S0 
G1 X-44.51 Y-0.87 Z21.00 F3500 
M42 P11 S255 
G1 X-39.14 Y5.08 Z21.00 F3500 
M42 P11 S0 
G1 X-30.47 Y3.54 Z21.00 F3500 
M42 P11 S255 
G1 X-21.92 Y1.35 Z21.00 F3500 
M42 P11 S0 
G1 X-14.16 Y4.00 Z21.00 F3500 
M42 P11 S255 
G1 X-11.27 Y12.31 Z21.00 F3500 
M42 P11 S0 
G1 X-8.70 Y20.76 Z21.00 F3500 
M42 P11 S255 
G1 X-4.03 Y28.21 Z21.00 F3500 
M42 P11 S0 
G1 X3.24 Y32.92 Z24.00 F3500 
M42 P11 S255 
G1 X11.75 Y34.62 Z24.00 F3500 
M42 P11 S0 
G1 X20.33 Y33.20 Z24.00 F3500 
M42 P11 S255 
G1 X28.10 Y29.25 Z24.00 F3500 
M42 P11 S0 
G1 X34.47 Y23.30 Z24.00 F3500 
M42 P11 S255 
G1 X39.24 Y16.00 Z24.00 F3500 
M42 P11 S0 
G1 X42.55 Y7.93 Z24.00 F3500 
M42 P11 S255 
G1 X44.26 Y-0.63 Z24.00 F3500 
M42 P11 S0 
G1 X43.79 Y-9.32 Z24.00 F3500 
M42 P11 S255 
G1 X39.88 Y-17.01 Z24.00 F3500 
M42 P11 S0 
G1 X31.96 Y-20.10 Z24.00 F3500 
M42 P11 S255 
G1 X23.46 Y-18.25 Z24.00 F3500 
M42 P11 S0 
G1 X15.32 Y-15.06 Z24.00 F3500 
M42 P11 S255 
G1 X6.95 Y-13.39 Z24.00 F3500 
M42 P11 S0 
G1 X2.39 Y-20.65 Z24.00 F3500 
M42 P11 S255 
G1 X-2.92 Y-27.48 Z24.00 F3500 
M42 P11 S0 
G1 X-10.78 Y-31.18 Z24.00 F3500 
M42 P11 S255 
G1 X-19.45 Y-31.94 Z24.00 F3500 
M42 P11 S0 
G1 X-27.83 Y-29.65 Z24.00 F3500 
M42 P11 S255 
G1 X-34.88 Y-24.55 Z24.00 F3500 
M42 P11 S0 
G1 X-40.10 Y-17.58 Z24.00 F3500 
M42 P11 S255 
G1 X-43.44 Y-9.52 Z24.00 F3500 
M42 P11 S0 
G1 X-44.60 Y-0.90 Z24.00 F3500 
M42 P11 S255 
G1 X-40.25 Y6.01 Z24.00 F3500 
M42 P11 S0 
G1 X-31.64 Y5.24 Z24.00 F3500 
M42 P11 S255 
G1 X-23.18 Y3.03 Z24.00 F3500 
M42 P11 S0 
G1 X-15.04 Y4.43 Z24.00 F3500 
M42 P11 S255 
G1 X-11.55 Y12.37 Z24.00 F3500 
M42 P11 S0 
G1 X-8.63 Y20.60 Z24.00 F3500 
M42 P11 S255 
G1 X-3.80 Y27.84 Z24.00 F3500 
M42 P11 S0 
G1 X3.36 Y32.55 Z27.00 F3500 
M42 P11 S255 
G1 X11.75 Y34.39 Z27.00 F3500 
M42 P11 S0 
G1 X20.26 Y33.08 Z27.00 F3500 
M42 P11 S255 
G1 X27.97 Y29.21 Z27.00 F3500 
M42 P11 S0 
G1 X34.30 Y23.35 Z27.00 F3500 
M42 P11 S255 
G1 X39.06 Y16.14 Z27.00 F3500 
M42 P11 S0 
G1 X42.36 Y8.16 Z27.00 F3500 
M42 P11 S255 
G1 X44.05 Y-0.31 Z27.00 F3500 
M42 P11 S0 
G1 X43.65 Y-8.93 Z27.00 F3500 
M42 P11 S255 
G1 X40.13 Y-16.74 Z27.00 F3500 
M42 P11 S0 
G1 X32.69 Y-20.69 Z27.00 F3500 
M42 P11 S255 
G1 X24.19 Y-19.40 Z27.00 F3500 
M42 P11 S0 
G1 X16.11 Y-16.31 Z27.00 F3500 
M42 P11 S255 
G1 X7.92 Y-13.69 Z27.00 F3500 
M42 P11 S0 
G1 X2.36 Y-19.77 Z27.00 F3500 
M42 P11 S255 
G1 X-3.07 Y-26.43 Z27.00 F3500 
M42 P11 S0 
G1 X-10.78 Y-30.24 Z27.00 F3500 
M42 P11 S255 
G1 X-19.33 Y-31.23 Z27.00 F3500 
M42 P11 S0 
G1 X-27.66 Y-29.10 Z27.00 F3500 
M42 P11 S255 
G1 X-34.71 Y-24.14 Z27.00 F3500 
M42 P11 S0 
G1 X-39.99 Y-17.32 Z27.00 F3500 
M42 P11 S255 
G1 X-43.39 Y-9.39 Z27.00 F3500 
M42 P11 S0 
G1 X-44.66 Y-0.86 Z27.00 F3500 
M42 P11 S255 
G1 X-41.22 Y6.67 Z27.00 F3500 
M42 P11 S0 
G1 X-32.75 Y6.88 Z27.00 F3500 
M42 P11 S255 
G1 X-24.36 Y4.74 Z27.00 F3500 
M42 P11 S0 
G1 X-16.02 Y4.97 Z27.00 F3500 
M42 P11 S255 
G1 X-11.81 Y12.41 Z27.00 F3500 
M42 P11 S0 
G1 X-8.54 Y20.41 Z27.00 F3500 
M42 P11 S255 
G1 X-3.57 Y27.46 Z27.00 F3500 
M42 P11 S0 
G1 X3.48 Y32.18 Z30.00 F3500 
M42 P11 S255 
G1 X11.77 Y34.16 Z30.00 F3500 
M42 P11 S0 
G1 X20.22 Y32.95 Z30.00 F3500 
M42 P11 S255 
G1 X27.87 Y29.14 Z30.00 F3500 
M42 P11 S0 
G1 X34.17 Y23.36 Z30.00 F3500 
M42 P11 S255 
G1 X38.91 Y16.23 Z30.00 F3500 
M42 P11 S0 
G1 X42.18 Y8.31 Z30.00 F3500 
M42 P11 S255 
G1 X43.85 Y-0.09 Z30.00 F3500 
M42 P11 S0 
G1 X43.48 Y-8.63 Z30.00 F3500 
M42 P11 S255 
G1 X40.25 Y-16.51 Z30.00 F3500 
M42 P11 S0 
G1 X33.29 Y-21.16 Z30.00 F3500 
M42 P11 S255 
G1 X24.81 Y-20.47 Z30.00 F3500 
M42 P11 S0 
G1 X16.76 Y-17.52 Z30.00 F3500 
M42 P11 S255 
G1 X8.80 Y-14.36 Z30.00 F3500 
M42 P11 S0 
G1 X2.35 Y-18.90 Z30.00 F3500 
M42 P11 S255 
G1 X-3.20 Y-25.37 Z30.00 F3500 
M42 P11 S0 
G1 X-10.78 Y-29.31 Z30.00 F3500 
M42 P11 S255 
G1 X-19.23 Y-30.51 Z30.00 F3500 
M42 P11 S0 
G1 X-27.52 Y-28.52 Z30.00 F3500 
M42 P11 S255 
G1 X-34.56 Y-23.70 Z30.00 F3500 
M42 P11 S0 
G1 X-39.90 Y-17.02 Z30.00 F3500 
M42 P11 S255 
G1 X-43.35 Y-9.19 Z30.00 F3500 
M42 P11 S0 
G1 X-44.70 Y-0.75 Z30.00 F3500 
M42 P11 S255 
G1 X-41.98 Y7.13 Z30.00 F3500 
M42 P11 S0 
G1 X-33.80 Y8.44 Z30.00 F3500 
M42 P11 S255 
G1 X-25.45 Y6.45 Z30.00 F3500 
M42 P11 S0 
G1 X-17.07 Y5.70 Z30.00 F3500 
M42 P11 S255 
G1 X-12.07 Y12.43 Z30.00 F3500 
M42 P11 S0 
G1 X-8.44 Y20.19 Z30.00 F3500 
M42 P11 S255 
G1 X-3.35 Y27.08 Z30.00 F3500 
M42 P11 S0 
G1 X3.61 Y31.81 Z33.00 F3500 
M42 P11 S255 
G1 X11.79 Y33.93 Z33.00 F3500 
M42 P11 S0 
G1 X20.19 Y32.81 Z33.00 F3500 
M42 P11 S255 
G1 X27.81 Y29.05 Z33.00 F3500 
M42 P11 S0 
G1 X34.07 Y23.32 Z33.00 F3500 
M42 P11 S255 
G1 X38.79 Y16.25 Z33.00 F3500 
M42 P11 S0 
G1 X42.04 Y8.38 Z33.00 F3500 
M42 P11 S255 
G1 X43.66 Y0.03 Z33.00 F3500 
M42 P11 S0 
G1 X43.28 Y-8.45 Z33.00 F3500 
M42 P11 S255 
G1 X40.26 Y-16.36 Z33.00 F3500 
M42 P11 S0 
G1 X33.72 Y-21.55 Z33.00 F3500 
M42 P11 S255 
G1 X25.31 Y-21.46 Z33.00 F3500 
M42 P11 S0 
G1 X17.27 Y-18.67 Z33.00 F3500 
M42 P11 S255 
G1 X9.50 Y-15.18 Z33.00 F3500 
M42 P11 S0 
G1 X2.37 Y-18.03 Z33.00 F3500 
M42 P11 S255 
G1 X-3.34 Y-24.31 Z33.00 F3500 
M42 P11 S0 
G1 X-10.79 Y-28.37 Z33.00 F3500 
M42 P11 S255 
G1 X-19.14 Y-29.79 Z33.00 F3500 
M42 P11 S0 
G1 X-27.40 Y-27.94 Z33.00 F3500 
M42 P11 S255 
G1 X-34.45 Y-23.22 Z33.00 F3500 
M42 P11 S0 
G1 X-39.84 Y-16.65 Z33.00 F3500 
M42 P11 S255 
G1 X-43.34 Y-8.92 Z33.00 F3500 
M42 P11 S0 
G1 X-44.74 Y-0.54 Z33.00 F3500 
M42 P11 S255 
G1 X-42.53 Y7.52 Z33.00 F3500 
M42 P11 S0 
G1 X-34.76 Y9.92 Z33.00 F3500 
M42 P11 S255 
G1 X-26.44 Y8.15 Z33.00 F3500 
M42 P11 S0 
G1 X-18.12 Y6.62 Z33.00 F3500 
M42 P11 S255 
G1 X-12.32 Y12.41 Z33.00 F3500 
M42 P11 S0 
G1 X-8.33 Y19.94 Z33.00 F3500 
M42 P11 S255 
G1 X-3.15 Y26.68 Z33.00 F3500 
M42 P11 S0 
G1 X3.73 Y31.44 Z36.00 F3500 
M42 P11 S255 
G1 X11.84 Y33.69 Z36.00 F3500 
M42 P11 S0 
G1 X20.20 Y32.66 Z36.00 F3500 
M42 P11 S255 
G1 X27.78 Y28.94 Z36.00 F3500 
M42 P11 S0 
G1 X34.02 Y23.23 Z36.00 F3500 
M42 P11 S255 
G1 X38.72 Y16.19 Z36.00 F3500 
M42 P11 S0 
G1 X41.92 Y8.35 Z36.00 F3500 
M42 P11 S255 
G1 X43.47 Y0.04 Z36.00 F3500 
M42 P11 S0 
G1 X43.06 Y-8.41 Z36.00 F3500 
M42 P11 S255 
G1 X40.17 Y-16.33 Z36.00 F3500 
M42 P11 S0 
G1 X33.99 Y-21.92 Z36.00 F3500 
M42 P11 S255 
G1 X25.65 Y-22.39 Z36.00 F3500 
M42 P11 S0 
G1 X17.61 Y-19.75 Z36.00 F3500 
M42 P11 S255 
G1 X9.99 Y-16.03 Z36.00 F3500 
M42 P11 S0 
G1 X2.43 Y-17.19 Z36.00 F3500 
M42 P11 S255 
G1 X-3.47 Y-23.25 Z36.00 F3500 
M42 P11 S0 
G1 X-10.81 Y-27.44 Z36.00 F3500 
M42 P11 S255 
G1 X-19.08 Y-29.07 Z36.00 F3500 
M42 P11 S0 
G1 X-27.32 Y-27.33 Z36.00 F3500 
M42 P11 S255 
G1 X-34.38 Y-22.71 Z36.00 F3500 
M42 P11 S0 
G1 X-39.81 Y-16.23 Z36.00 F3500 
M42 P11 S255 
G1 X-43.36 Y-8.55 Z36.00 F3500 
M42 P11 S0 
G1 X-44.78 Y-0.22 Z36.00 F3500 
M42 P11 S255 
G1 X-42.92 Y7.93 Z36.00 F3500 
M42 P11 S0 
G1 X-35.61 Y11.32 Z36.00 F3500 
M42 P11 S255 
G1 X-27.29 Y9.82 Z36.00 F3500 
M42 P11 S0 
G1 X-19.11 Y7.70 Z36.00 F3500 
M42 P11 S255 
G1 X-12.56 Y12.36 Z36.00 F3500 
M42 P11 S0 
G1 X-8.22 Y19.64 Z36.00 F3500 
M42 P11 S255 
G1 X-2.95 Y26.27 Z36.00 F3500 
M42 P11 S0 
G1 X3.85 Y31.07 Z39.00 F3500 
M42 P11 S255 
G1 X11.89 Y33.46 Z39.00 F3500 
M42 P11 S0 
G1 X20.25 Y32.50 Z39.00 F3500 
M42 P11 S255 
G1 X27.81 Y28.79 Z39.00 F3500 
M42 P11 S0 
G1 X34.01 Y23.08 Z39.00 F3500 
M42 P11 S255 
G1 X38.68 Y16.05 Z39.00 F3500 
M42 P11 S0 
G1 X41.83 Y8.22 Z39.00 F3500 
M42 P11 S255 
G1 X43.30 Y-0.09 Z39.00 F3500 
M42 P11 S0 
G1 X42.82 Y-8.51 Z39.00 F3500 
M42 P11 S255 
G1 X39.98 Y-16.43 Z39.00 F3500 
M42 P11 S0 
G1 X34.07 Y-22.31 Z39.00 F3500 
M42 P11 S255 
G1 X25.81 Y-23.26 Z39.00 F3500 
M42 P11 S0 
G1 X17.76 Y-20.76 Z39.00 F3500 
M42 P11 S255 
G1 X10.28 Y-16.82 Z39.00 F3500 
M42 P11 S0 
G1 X2.52 Y-16.39 Z39.00 F3500 
M42 P11 S255 
G1 X-3.62 Y-22.20 Z39.00 F3500 
M42 P11 S0 
G1 X-10.86 Y-26.51 Z39.00 F3500 
M42 P11 S255 
G1 X-19.06 Y-28.35 Z39.00 F3500 
M42 P11 S0 
G1 X-27.30 Y-26.71 Z39.00 F3500 
M42 P11 S255 
G1 X-34.37 Y-22.14 Z39.00 F3500 
M42 P11 S0 
G1 X-39.83 Y-15.72 Z39.00 F3500 
M42 P11 S255 
G1 X-43.40 Y-8.09 Z39.00 F3500 
M42 P11 S0 
G1 X-44.82 Y0.22 Z39.00 F3500 
M42 P11 S255 
G1 X-43.17 Y8.42 Z39.00 F3500 
M42 P11 S0 
G1 X-36.33 Y12.65 Z39.00 F3500 
M42 P11 S255 
G1 X-28.00 Y11.45 Z39.00 F3500 
M42 P11 S0 
G1 X-19.96 Y8.86 Z39.00 F3500 
M42 P11 S255 
G1 X-12.80 Y12.28 Z39.00 F3500 
M42 P11 S0 
G1 X-8.12 Y19.31 Z39.00 F3500 
M42 P11 S255 
G1 X-2.76 Y25.84 Z39.00 F3500 
M42 P11 S0 
G1 X3.97 Y30.70 Z42.00 F3500 
M42 P11 S255 
G1 X11.97 Y33.22 Z42.00 F3500 
M42 P11 S0 
G1 X20.32 Y32.33 Z42.00 F3500 
M42 P11 S255 
G1 X27.87 Y28.61 Z42.00 F3500 
M42 P11 S0 
G1 X34.06 Y22.88 Z42.00 F3500 
M42 P11 S255 
G1 X38.69 Y15.83 Z42.00 F3500 
M42 P11 S0 
G1 X41.77 Y7.98 Z42.00 F3500 
M42 P11 S255 
G1 X43.13 Y-0.35 Z42.00 F3500 
M42 P11 S0 
G1 X42.54 Y-8.76 Z42.00 F3500 
M42 P11 S255 
G1 X39.71 Y-16.69 Z42.00 F3500 
M42 P11 S0 
G1 X33.98 Y-22.75 Z42.00 F3500 
M42 P11 S255 
G1 X25.78 Y-24.10 Z42.00 F3500 
M42 P11 S0 
G1 X17.71 Y-21.67 Z42.00 F3500 
M42 P11 S255 
G1 X10.37 Y-17.50 Z42.00 F3500 
M42 P11 S0 
G1 X2.63 Y-15.66 Z42.00 F3500 
M42 P11 S255 
G1 X-3.77 Y-21.16 Z42.00 F3500 
M42 P11 S0 
G1 X-10.94 Y-25.59 Z42.00 F3500 
M42 P11 S255 
G1 X-19.09 Y-27.63 Z42.00 F3500 
M42 P11 S0 
G1 X-27.33 Y-26.06 Z42.00 F3500 
M42 P11 S255 
G1 X-34.42 Y-21.52 Z42.00 F3500 
M42 P11 S0 
G1 X-39.91 Y-15.13 Z42.00 F3500 
M42 P11 S255 
G1 X-43.49 Y-7.50 Z42.00 F3500 
M42 P11 S0 
G1 X-44.86 Y0.81 Z42.00 F3500 
M42 P11 S255 
G1 X-43.31 Y9.05 Z42.00 F3500 
M42 P11 S0 
G1 X-36.88 Y13.93 Z42.00 F3500 
M42 P11 S255 
G1 X-28.54 Y13.03 Z42.00 F3500 
M42 P11 S0 
G1 X-20.64 Y10.04 Z42.00 F3500 
M42 P11 S255 
G1 X-13.06 Y12.16 Z42.00 F3500 
M42 P11 S0 
G1 X-8.02 Y18.94 Z42.00 F3500 
M42 P11 S255 
G1 X-2.59 Y25.41 Z42.00 F3500 
M42 P11 S0 
G1 X4.10 Y30.32 Z45.00 F3500 
M42 P11 S255 
G1 X12.06 Y32.99 Z45.00 F3500 
M42 P11 S0 
G1 X20.44 Y32.15 Z45.00 F3500 
M42 P11 S255 
G1 X27.99 Y28.40 Z45.00 F3500 
M42 P11 S0 
G1 X34.15 Y22.62 Z45.00 F3500 
M42 P11 S255 
G1 X38.74 Y15.53 Z45.00 F3500 
M42 P11 S0 
G1 X41.74 Y7.62 Z45.00 F3500 
M42 P11 S255 
G1 X42.96 Y-0.74 Z45.00 F3500 
M42 P11 S0 
G1 X42.23 Y-9.16 Z45.00 F3500 
M42 P11 S255 
G1 X39.35 Y-17.09 Z45.00 F3500 
M42 P11 S0 
G1 X33.72 Y-23.29 Z45.00 F3500 
M42 P11 S255 
G1 X25.56 Y-24.91 Z45.00 F3500 
M42 P11 S0 
G1 X17.48 Y-22.50 Z45.00 F3500 
M42 P11 S255 
G1 X10.30 Y-18.05 Z45.00 F3500 
M42 P11 S0 
G1 X2.74 Y-15.02 Z45.00 F3500 
M42 P11 S255 
G1 X-3.96 Y-20.13 Z45.00 F3500 
M42 P11 S0 
G1 X-11.07 Y-24.70 Z45.00 F3500 
M42 P11 S255 
G1 X-19.18 Y-26.93 Z45.00 F3500 
M42 P11 S0 
G1 X-27.44 Y-25.38 Z45.00 F3500 
M42 P11 S255 
G1 X-34.54 Y-20.84 Z45.00 F3500 
M42 P11 S0 
G1 X-40.05 Y-14.44 Z45.00 F3500 
M42 P11 S255 
G1 X-43.61 Y-6.79 Z45.00 F3500 
M42 P11 S0 
G1 X-44.91 Y1.55 Z45.00 F3500 
M42 P11 S255 
G1 X-43.37 Y9.82 Z45.00 F3500 
M42 P11 S0 
G1 X-37.27 Y15.20 Z45.00 F3500 
M42 P11 S255 
G1 X-28.92 Y14.56 Z45.00 F3500 
M42 P11 S0 
G1 X-21.17 Y11.16 Z45.00 F3500 
M42 P11 S255 
G1 X-13.32 Y12.01 Z45.00 F3500 
M42 P11 S0 
G1 X-7.94 Y18.54 Z45.00 F3500 
M42 P11 S255 
G1 X-2.43 Y24.96 Z45.00 F3500 
M42 P11 S0 
G1 X4.22 Y29.95 Z48.00 F3500 
M42 P11 S255 
G1 X12.17 Y32.76 Z48.00 F3500 
M42 P11 S0 
G1 X20.58 Y31.96 Z48.00 F3500 
M42 P11 S255 
G1 X28.14 Y28.15 Z48.00 F3500 
M42 P11 S0 
G1 X34.28 Y22.31 Z48.00 F3500 
M42 P11 S255 
G1 X38.82 Y15.14 Z48.00 F3500 
M42 P11 S0 
G1 X41.72 Y7.16 Z48.00 F3500 
M42 P11 S255 
G1 X42.77 Y-1.26 Z48.00 F3500 
M42 P11 S0 
G1 X41.89 Y-9.70 Z48.00 F3500 
M42 P11 S255 
G1 X38.92 Y-17.64 Z48.00 F3500 
M42 P11 S0 
G1 X33.32 Y-23.92 Z48.00 F3500 
M42 P11 S255 
G1 X25.17 Y-25.71 Z48.00 F3500 
M42 P11 S0 
G1 X17.09 Y-23.23 Z48.00 F3500 
M42 P11 S255 
G1 X10.08 Y-18.44 Z48.00 F3500 
M42 P11 S0 
G1 X2.81 Y-14.46 Z48.00 F3500 
M42 P11 S255 
G1 X-4.17 Y-19.14 Z48.00 F3500 
M42 P11 S0 
G1 X-11.24 Y-23.84 Z48.00 F3500 
M42 P11 S255 
G1 X-19.34 Y-26.23 Z48.00 F3500 
M42 P11 S0 
G1 X-27.62 Y-24.68 Z48.00 F3500 
M42 P11 S255 
G1 X-34.74 Y-20.09 Z48.00 F3500 
M42 P11 S0 
G1 X-40.26 Y-13.65 Z48.00 F3500 
M42 P11 S255 
G1 X-43.77 Y-5.94 Z48.00 F3500 
M42 P11 S0 
G1 X-44.95 Y2.45 Z48.00 F3500 
M42 P11 S255 
G1 X-43.35 Y10.75 Z48.00 F3500 
M42 P11 S0 
G1 X-37.48 Y16.50 Z48.00 F3500 
M42 P11 S255 
G1 X-29.12 Y16.04 Z48.00 F3500 
M42 P11 S0 
G1 X-21.56 Y12.18 Z48.00 F3500 
M42 P11 S255 
G1 X-13.60 Y11.83 Z48.00 F3500 
M42 P11 S0 
G1 X-7.88 Y18.10 Z48.00 F3500 
M42 P11 S255 
G1 X-2.28 Y24.50 Z48.00 F3500 
M42 P11 S0 
G1 X4.34 Y29.58 Z51.00 F3500 
M42 P11 S255 
G1 X12.30 Y32.53 Z51.00 F3500 
M42 P11 S0 
G1 X20.75 Y31.77 Z51.00 F3500 
M42 P11 S255 
G1 X28.33 Y27.88 Z51.00 F3500 
M42 P11 S0 
G1 X34.45 Y21.94 Z51.00 F3500 
M42 P11 S255 
G1 X38.94 Y14.68 Z51.00 F3500 
M42 P11 S0 
G1 X41.71 Y6.60 Z51.00 F3500 
M42 P11 S255 
G1 X42.57 Y-1.89 Z51.00 F3500 
M42 P11 S0 
G1 X41.50 Y-10.36 Z51.00 F3500 
M42 P11 S255 
G1 X38.42 Y-18.32 Z51.00 F3500 
M42 P11 S0 
G1 X32.79 Y-24.65 Z51.00 F3500 
M42 P11 S255 
G1 X24.61 Y-26.52 Z51.00 F3500 
M42 P11 S0 
G1 X16.54 Y-23.85 Z51.00 F3500 
M42 P11 S255 
G1 X9.77 Y-18.66 Z51.00 F3500 
M42 P11 S0 
G1 X2.81 Y-13.94 Z51.00 F3500 
M42 P11 S255 
G1 X-4.42 Y-18.17 Z51.00 F3500 
M42 P11 S0 
G1 X-11.46 Y-23.00 Z51.00 F3500 
M42 P11 S255 
G1 X-19.56 Y-25.54 Z51.00 F3500 
M42 P11 S0 
G1 X-27.89 Y-23.94 Z51.00 F3500 
M42 P11 S255 
G1 X-35.02 Y-19.27 Z51.00 F3500 
M42 P11 S0 
G1 X-40.53 Y-12.76 Z51.00 F3500 
M42 P11 S255 
G1 X-43.96 Y-4.96 Z51.00 F3500 
M42 P11 S0 
G1 X-44.98 Y3.50 Z51.00 F3500 
M42 P11 S255 
G1 X-43.28 Y11.84 Z51.00 F3500 
M42 P11 S0 
G1 X-37.54 Y17.84 Z51.00 F3500 
M42 P11 S255 
G1 X-29.18 Y17.44 Z51.00 F3500 
M42 P11 S0 
G1 X-21.84 Y13.08 Z51.00 F3500 
M42 P11 S255 
G1 X-13.89 Y11.65 Z51.00 F3500 
M42 P11 S0 
G1 X-7.83 Y17.63 Z51.00 F3500 
M42 P11 S255 
G1 X-2.15 Y24.03 Z51.00 F3500 
M42 P11 S0 
G1 X4.46 Y29.21 Z54.00 F3500 
M42 P11 S255 
G1 X12.43 Y32.31 Z54.00 F3500 
M42 P11 S0 
G1 X20.95 Y31.56 Z54.00 F3500 
M42 P11 S255 
G1 X28.56 Y27.58 Z54.00 F3500 
M42 P11 S0 
G1 X34.65 Y21.52 Z54.00 F3500 
M42 P11 S255 
G1 X39.08 Y14.14 Z54.00 F3500 
M42 P11 S0 
G1 X41.71 Y5.95 Z54.00 F3500 
M42 P11 S255 
G1 X42.35 Y-2.63 Z54.00 F3500 
M42 P11 S0 
G1 X41.08 Y-11.14 Z54.00 F3500 
M42 P11 S255 
G1 X37.86 Y-19.11 Z54.00 F3500 
M42 P11 S0 
G1 X32.16 Y-25.47 Z54.00 F3500 
M42 P11 S255 
G1 X23.91 Y-27.32 Z54.00 F3500 
M42 P11 S0 
G1 X15.89 Y-24.36 Z54.00 F3500 
M42 P11 S255 
G1 X9.39 Y-18.72 Z54.00 F3500 
M42 P11 S0 
G1 X2.72 Y-13.43 Z54.00 F3500 
M42 P11 S255 
G1 X-4.70 Y-17.23 Z54.00 F3500 
M42 P11 S0 
G1 X-11.73 Y-22.21 Z54.00 F3500 
M42 P11 S255 
G1 X-19.85 Y-24.86 Z54.00 F3500 
M42 P11 S0 
G1 X-28.23 Y-23.16 Z54.00 F3500 
M42 P11 S255 
G1 X-35.37 Y-18.39 Z54.00 F3500 
M42 P11 S0 
G1 X-40.86 Y-11.78 Z54.00 F3500 
M42 P11 S255 
G1 X-44.18 Y-3.86 Z54.00 F3500 
M42 P11 S0 
G1 X-45.00 Y4.69 Z54.00 F3500 
M42 P11 S255 
G1 X-43.14 Y13.07 Z54.00 F3500 
M42 P11 S0 
G1 X-37.48 Y19.26 Z54.00 F3500 
M42 P11 S255 
G1 X-29.12 Y18.75 Z54.00 F3500 
M42 P11 S0 
G1 X-22.05 Y13.84 Z54.00 F3500 
M42 P11 S255 
G1 X-14.19 Y11.46 Z54.00 F3500 
M42 P11 S0 
G1 X-7.79 Y17.14 Z54.00 F3500 
M42 P11 S255 
G1 X-2.02 Y23.55 Z54.00 F3500 
M42 P11 S0 
G1 X4.59 Y28.84 Z57.00 F3500 
M42 P11 S255 
G1 X12.58 Y32.08 Z57.00 F3500 
M42 P11 S0 
G1 X21.17 Y31.35 Z57.00 F3500 
M42 P11 S255 
G1 X28.81 Y27.26 Z57.00 F3500 
M42 P11 S0 
G1 X34.88 Y21.07 Z57.00 F3500 
M42 P11 S255 
G1 X39.23 Y13.55 Z57.00 F3500 
M42 P11 S0 
G1 X41.69 Y5.23 Z57.00 F3500 
M42 P11 S255 
G1 X42.10 Y-3.45 Z57.00 F3500 
M42 P11 S0 
G1 X40.62 Y-12.01 Z57.00 F3500 
M42 P11 S255 
G1 X37.25 Y-20.00 Z57.00 F3500 
M42 P11 S0 
G1 X31.43 Y-26.37 Z57.00 F3500 
M42 P11 S255 
G1 X23.09 Y-28.11 Z57.00 F3500 
M42 P11 S0 
G1 X15.18 Y-24.72 Z57.00 F3500 
M42 P11 S255 
G1 X8.98 Y-18.63 Z57.00 F3500 
M42 P11 S0 
G1 X2.56 Y-12.89 Z57.00 F3500 
M42 P11 S255 
G1 X-5.02 Y-16.32 Z57.00 F3500 
M42 P11 S0 
G1 X-12.04 Y-21.45 Z57.00 F3500 
M42 P11 S255 
G1 X-20.21 Y-24.19 Z57.00 F3500 
M42 P11 S0 
G1 X-28.63 Y-22.36 Z57.00 F3500 
M42 P11 S255 
G1 X-35.78 Y-17.46 Z57.00 F3500 
M42 P11 S0 
G1 X-41.23 Y-10.71 Z57.00 F3500 
M42 P11 S255 
G1 X-44.40 Y-2.65 Z57.00 F3500 
M42 P11 S0 
G1 X-45.00 Y6.00 Z57.00 F3500 
M42 P11 S255 
G1 X-42.96 Y14.42 Z57.00 F3500 
M42 P11 S0 
G1 X-37.31 Y20.76 Z57.00 F3500 
M42 P11 S255 
G1 X-28.97 Y19.93 Z57.00 F3500 
M42 P11 S0 
G1 X-22.22 Y14.47 Z57.00 F3500 
M42 P11 S255 
G1 X-14.50 Y11.27 Z57.00 F3500 
M42 P11 S0 
G1 X-7.77 Y16.63 Z57.00 F3500 
M42 P11 S255 
G1 X-1.90 Y23.06 Z57.00 F3500 
M42 P11 S0 
G1 X4.71 Y28.47 Z60.00 F3500 
M42 P11 S255 
G1 X12.74 Y31.86 Z60.00 F3500 
M42 P11 S0 
G1 X21.41 Y31.13 Z60.00 F3500 
M42 P11 S255 
G1 X29.08 Y26.91 Z60.00 F3500 
M42 P11 S0 
G1 X35.13 Y20.57 Z60.00 F3500 
M42 P11 S255 
G1 X39.39 Y12.90 Z60.00 F3500 
M42 P11 S0 
G1 X41.66 Y4.43 Z60.00 F3500 
M42 P11 S255 
G1 X41.81 Y-4.34 Z60.00 F3500 
M42 P11 S0 
G1 X40.12 Y-12.96 Z60.00 F3500 
M42 P11 S255 
G1 X36.59 Y-20.99 Z60.00 F3500 
M42 P11 S0 
G1 X30.63 Y-27.34 Z60.00 F3500 
M42 P11 S255 
G1 X22.17 Y-28.88 Z60.00 F3500 
M42 P11 S0 
G1 X14.43 Y-24.93 Z60.00 F3500 
M42 P11 S255 
G1 X8.56 Y-18.40 Z60.00 F3500 
M42 P11 S0 
G1 X2.34 Y-12.29 Z60.00 F3500 
M42 P11 S255 
G1 X-5.37 Y-15.43 Z60.00 F3500 
M42 P11 S0 
G1 X-12.38 Y-20.73 Z60.00 F3500 
M42 P11 S255 
G1 X-20.61 Y-23.52 Z60.00 F3500 
M42 P11 S0 
G1 X-29.09 Y-21.53 Z60.00 F3500 
M42 P11 S255 
G1 X-36.24 Y-16.47 Z60.00 F3500 
M42 P11 S0 
G1 X-41.64 Y-9.57 Z60.00 F3500 
M42 P11 S255 
G1 X-44.63 Y-1.34 Z60.00 F3500 
M42 P11 S0 
G1 X-44.96 Y7.42 Z60.00 F3500 
M42 P11 S255 
G1 X-42.74 Y15.89 Z60.00 F3500 
M42 P11 S0 
G1 X-37.06 Y22.34 Z60.00 F3500 
M42 P11 S255 
G1 X-28.80 Y20.97 Z60.00 F3500 
M42 P11 S0 
G1 X-22.37 Y14.98 Z60.00 F3500 
M42 P11 S255 
G1 X-14.81 Y11.09 Z60.00 F3500 
M42 P11 S0 
G1 X-7.76 Y16.10 Z60.00 F3500 
M42 P11 S255 
G1 X-1.79 Y22.56 Z60.00 F3500 
M42 P11 S0 
G1 X4.83 Y28.10 Z63.00 F3500 
M42 P11 S255 
G1 X12.90 Y31.65 Z63.00 F3500 
M42 P11 S0 
G1 X21.67 Y30.91 Z63.00 F3500 
M42 P11 S255 
G1 X29.37 Y26.55 Z63.00 F3500 
M42 P11 S0 
G1 X35.40 Y20.04 Z63.00 F3500 
M42 P11 S255 
G1 X39.55 Y12.20 Z63.00 F3500 
M42 P11 S0 
G1 X41.60 Y3.57 Z63.00 F3500 
M42 P11 S255 
G1 X41.49 Y-5.30 Z63.00 F3500 
M42 P11 S0 
G1 X39.58 Y-13.98 Z63.00 F3500 
M42 P11 S255 
G1 X35.88 Y-22.04 Z63.00 F3500 
M42 P11 S0 
G1 X29.76 Y-28.37 Z63.00 F3500 
M42 P11 S255 
G1 X21.18 Y-29.59 Z63.00 F3500 
M42 P11 S0 
G1 X13.71 Y-24.98 Z63.00 F3500 
M42 P11 S255 
G1 X8.14 Y-18.05 Z63.00 F3500 
M42 P11 S0 
G1 X2.07 Y-11.65 Z63.00 F3500 
M42 P11 S255 
G1 X-5.75 Y-14.58 Z63.00 F3500 
M42 P11 S0 
G1 X-12.75 Y-20.05 Z63.00 F3500 
M42 P11 S255 
G1 X-21.06 Y-22.86 Z63.00 F3500 
M42 P11 S0 
G1 X-29.60 Y-20.66 Z63.00 F3500 
M42 P11 S255 
G1 X-36.74 Y-15.43 Z63.00 F3500 
M42 P11 S0 
G1 X-42.07 Y-8.35 Z63.00 F3500 
M42 P11 S255 
G1 X-44.84 Y0.06 Z63.00 F3500 
M42 P11 S0 
G1 X-44.89 Y8.93 Z63.00 F3500 
M42 P11 S255 
G1 X-42.49 Y17.46 Z63.00 F3500 
M42 P11 S0 
G1 X-36.75 Y23.98 Z63.00 F3500 
M42 P11 S255 
G1 X-28.63 Y21.85 Z63.00 F3500 
M42 P11 S0 
G1 X-22.51 Y15.39 Z63.00 F3500 
M42 P11 S255 
G1 X-15.12 Y10.91 Z63.00 F3500 
M42 P11 S0 
G1 X-7.76 Y15.56 Z63.00 F3500 
M42 P11 S255 
G1 X-1.69 Y22.06 Z63.00 F3500 
M42 P11 S0 
G1 X4.95 Y27.72 Z66.00 F3500 
M42 P11 S255 
G1 X13.07 Y31.43 Z66.00 F3500 
M42 P11 S0 
G1 X21.94 Y30.68 Z66.00 F3500 
M42 P11 S255 
G1 X29.68 Y26.16 Z66.00 F3500 
M42 P11 S0 
G1 X35.68 Y19.48 Z66.00 F3500 
M42 P11 S255 
G1 X39.70 Y11.46 Z66.00 F3500 
M42 P11 S0 
G1 X41.51 Y2.66 Z66.00 F3500 
M42 P11 S255 
G1 X41.14 Y-6.32 Z66.00 F3500 
M42 P11 S0 
G1 X39.01 Y-15.06 Z66.00 F3500 
M42 P11 S255 
G1 X35.14 Y-23.17 Z66.00 F3500 
M42 P11 S0 
G1 X28.83 Y-29.46 Z66.00 F3500 
M42 P11 S255 
G1 X20.13 Y-30.22 Z66.00 F3500 
M42 P11 S0 
G1 X13.02 Y-24.88 Z66.00 F3500 
M42 P11 S255 
G1 X7.73 Y-17.60 Z66.00 F3500 
M42 P11 S0 
G1 X1.76 Y-10.94 Z66.00 F3500 
M42 P11 S255 
G1 X-6.15 Y-13.75 Z66.00 F3500 
M42 P11 S0 
G1 X-13.15 Y-19.41 Z66.00 F3500 
M42 P11 S255 
G1 X-21.56 Y-22.20 Z66.00 F3500 
M42 P11 S0 
G1 X-30.14 Y-19.77 Z66.00 F3500 
M42 P11 S255 
G1 X-37.29 Y-14.35 Z66.00 F3500 
M42 P11 S0 
G1 X-42.52 Y-7.06 Z66.00 F3500 
M42 P11 S255 
G1 X-45.03 Y1.54 Z66.00 F3500 
M42 P11 S0 
G1 X-44.79 Y10.51 Z66.00 F3500 
M42 P11 S255 
G1 X-42.21 Y19.12 Z66.00 F3500 
M42 P11 S0 
G1 X-36.37 Y25.68 Z66.00 F3500 
M42 P11 S255 
G1 X-28.50 Y22.58 Z66.00 F3500 
M42 P11 S0 
G1 X-22.67 Y15.72 Z66.00 F3500 
M42 P11 S255 
G1 X-15.42 Y10.73 Z66.00 F3500 
M42 P11 S0 
G1 X-7.77 Y15.01 Z66.00 F3500 
M42 P11 S255 
G1 X-1.59 Y21.55 Z66.00 F3500 
M42 P11 S0 
G1 X5.07 Y27.35 Z69.00 F3500 
M42 P11 S255 
G1 X13.25 Y31.22 Z69.00 F3500 
M42 P11 S0 
G1 X22.22 Y30.44 Z69.00 F3500 
M42 P11 S255 
G1 X30.00 Y25.76 Z69.00 F3500 
M42 P11 S0 
G1 X35.96 Y18.89 Z69.00 F3500 
M42 P11 S255 
G1 X39.85 Y10.67 Z69.00 F3500 
M42 P11 S0 
G1 X41.38 Y1.70 Z69.00 F3500 
M42 P11 S255 
G1 X40.74 Y-7.38 Z69.00 F3500 
M42 P11 S0 
G1 X38.41 Y-16.19 Z69.00 F3500 
M42 P11 S255 
G1 X34.37 Y-24.35 Z69.00 F3500 
M42 P11 S0 
G1 X27.85 Y-30.59 Z69.00 F3500 
M42 P11 S255 
G1 X19.06 Y-30.73 Z69.00 F3500 
M42 P11 S0 
G1 X12.38 Y-24.65 Z69.00 F3500 
M42 P11 S255 
G1 X7.32 Y-17.06 Z69.00 F3500 
M42 P11 S0 
G1 X1.42 Y-10.19 Z69.00 F3500 
M42 P11 S255 
G1 X-6.58 Y-12.94 Z69.00 F3500 
M42 P11 S0 
G1 X-13.56 Y-18.80 Z69.00 F3500 
M42 P11 S255 
G1 X-22.09 Y-21.53 Z69.00 F3500 
M42 P11 S0 
G1 X-30.72 Y-18.85 Z69.00 F3500 
M42 P11 S255 
G1 X-37.86 Y-13.22 Z69.00 F3500 
M42 P11 S0 
G1 X-42.97 Y-5.71 Z69.00 F3500 
M42 P11 S255 
G1 X-45.19 Y3.09 Z69.00 F3500 
M42 P11 S0 
G1 X-44.64 Y12.17 Z69.00 F3500 
M42 P11 S255 
G1 X-41.91 Y20.85 Z69.00 F3500 
M42 P11 S0 
G1 X-35.95 Y27.39 Z69.00 F3500 
M42 P11 S255 
G1 X-28.42 Y23.19 Z69.00 F3500 
M42 P11 S0 
G1 X-22.83 Y15.98 Z69.00 F3500 
M42 P11 S255 
G1 X-15.72 Y10.56 Z69.00 F3500 
M42 P11 S0 
G1 X-7.80 Y14.44 Z69.00 F3500 
M42 P11 S255 
G1 X-1.50 Y21.04 Z69.00 F3500 
M42 P11 S0 
G1 X5.20 Y26.98 Z72.00 F3500 
M42 P11 S255 
G1 X13.43 Y31.01 Z72.00 F3500 
M42 P11 S0 
G1 X22.52 Y30.20 Z72.00 F3500 
M42 P11 S255 
G1 X30.32 Y25.33 Z72.00 F3500 
M42 P11 S0 
G1 X36.25 Y18.27 Z72.00 F3500 
M42 P11 S255 
G1 X39.97 Y9.84 Z72.00 F3500 
M42 P11 S0 
G1 X41.22 Y0.70 Z72.00 F3500 
M42 P11 S255 
G1 X40.32 Y-8.49 Z72.00 F3500 
M42 P11 S0 
G1 X37.78 Y-17.37 Z72.00 F3500 
M42 P11 S255 
G1 X33.56 Y-25.58 Z72.00 F3500 
M42 P11 S0 
G1 X26.82 Y-31.75 Z72.00 F3500 
M42 P11 S255 
G1 X18.00 Y-31.08 Z72.00 F3500 
M42 P11 S0 
G1 X11.80 Y-24.30 Z72.00 F3500 
M42 P11 S255 
G1 X6.92 Y-16.45 Z72.00 F3500 
M42 P11 S0 
G1 X1.06 Y-9.38 Z72.00 F3500 
M42 P11 S255 
G1 X-7.01 Y-12.16 Z72.00 F3500 
M42 P11 S0 
G1 X-13.99 Y-18.23 Z72.00 F3500 
M42 P11 S255 
G1 X-22.65 Y-20.85 Z72.00 F3500 
M42 P11 S0 
G1 X-31.33 Y-17.90 Z72.00 F3500 
M42 P11 S255 
G1 X-38.45 Y-12.05 Z72.00 F3500 
M42 P11 S0 
G1 X-43.41 Y-4.30 Z72.00 F3500 
M42 P11 S255 
G1 X-45.31 Y4.70 Z72.00 F3500 
M42 P11 S0 
G1 X-44.47 Y13.89 Z72.00 F3500 
M42 P11 S255 
G1 X-41.60 Y22.67 Z72.00 F3500 
M42 P11 S0 
G1 X-35.46 Y29.07 Z72.00 F3500 
M42 P11 S255 
G1 X-28.40 Y23.69 Z72.00 F3500 
M42 P11 S0 
G1 X-23.00 Y16.19 Z72.00 F3500 
M42 P11 S255 
G1 X-16.00 Y10.38 Z72.00 F3500 
M42 P11 S0 
G1 X-7.83 Y13.87 Z72.00 F3500 
M42 P11 S255 
G1 X-1.41 Y20.52 Z72.00 F3500 
M42 P11 S0 
G28

